(G-CODE GENERATED BY FLATCAM v8.994 - www.flatcam.org - Version Date: 2020/11/7)

(Name: PCB1_Copper_Signal_Bot.gbr_iso_combined_cnc)
(Type: G-code from Geometry)
(Units: MM)

(Created on Wednesday, 03 July 2024 at 12:42)

(This preprocessor is the default preprocessor used by FlatCAM.)
(It is made to work with MACH3 compatible motion controllers.)

(TOOL DIAMETER: 0.45 mm)
(Feedrate_XY: 180.0 mm/min)
(Feedrate_Z: 60.0 mm/min)
(Feedrate rapids 1500.0 mm/min)

(Z_Cut: -0.12 mm)
(DepthPerCut: 0.03 mm <=>4 passes)
(Z_Move: 2.0 mm)
(Z Start: None mm)
(Z End: 15.0 mm)
(X,Y End: 0.0000, 0.0000 mm)
(Steps per circle: 64)
(Preprocessor Geometry: default)

(X range:    6.8780 ...   82.2880  mm)
(Y range:    8.5250 ...   45.3950  mm)

(Spindle Speed: 0.0 RPM)
G21
G90
G94

G01 F180.00

M5
G00 Z15.0000
G00 X0.0000 Y0.0000
T2
M6    
(MSG, Change to Tool Dia = 0.4500)
M0
G00 Z15.0000

M03
G01 F180.00
G00 X7.0026 Y10.8830
G01 F60.00
G01 Z-0.0300
G01 F180.00
G01 X6.9617 Y10.7960
G01 X6.9288 Y10.7048
G01 X6.9254 Y10.6943
G01 X6.9224 Y10.6837
G01 X6.8991 Y10.5896
G01 X6.8846 Y10.4938
G01 X6.8833 Y10.4828
G01 X6.8825 Y10.4718
G01 X6.8780 Y10.3750
G01 X6.8780 Y9.6250
G01 X6.8828 Y9.5227
G01 X6.8846 Y9.5062
G01 X6.8972 Y9.4213
G01 X6.8991 Y9.4104
G01 X6.9016 Y9.3996
G01 X6.9254 Y9.3057
G01 X6.9288 Y9.2952
G01 X6.9617 Y9.2040
G01 X7.0029 Y9.1163
G01 X7.0079 Y9.1065
G01 X7.0133 Y9.0969
G01 X7.0634 Y9.0139
G01 X7.1242 Y8.9315
G01 X7.1349 Y8.9188
G01 X7.2002 Y8.8472
G01 X7.2082 Y8.8396
G01 X7.2802 Y8.7747
G01 X7.3578 Y8.7167
G01 X7.3669 Y8.7104
G01 X7.3762 Y8.7045
G01 X7.4595 Y8.6549
G01 X7.5470 Y8.6132
G01 X7.5570 Y8.6087
G01 X7.6482 Y8.5758
G01 X7.6587 Y8.5724
G01 X7.6693 Y8.5694
G01 X7.7634 Y8.5461
G01 X7.8592 Y8.5316
G01 X7.8702 Y8.5303
G01 X7.8812 Y8.5295
G01 X7.9780 Y8.5250
G01 X8.0748 Y8.5295
G01 X8.0858 Y8.5303
G01 X8.0968 Y8.5316
G01 X8.1926 Y8.5461
G01 X8.2867 Y8.5694
G01 X8.2973 Y8.5724
G01 X8.3078 Y8.5758
G01 X8.3990 Y8.6087
G01 X8.4867 Y8.6499
G01 X8.4965 Y8.6549
G01 X8.5798 Y8.7045
G01 X8.5891 Y8.7104
G01 X8.6715 Y8.7712
G01 X8.6842 Y8.7819
G01 X8.7558 Y8.8472
G01 X8.7634 Y8.8552
G01 X8.8283 Y8.9272
G01 X8.8863 Y9.0048
G01 X8.8926 Y9.0139
G01 X8.9427 Y9.0969
G01 X8.9481 Y9.1065
G01 X8.9531 Y9.1163
G01 X8.9943 Y9.2040
G01 X9.0272 Y9.2952
G01 X9.0306 Y9.3057
G01 X9.0336 Y9.3163
G01 X9.0544 Y9.3996
G01 X9.0569 Y9.4104
G01 X9.0588 Y9.4213
G01 X9.0727 Y9.5172
G01 X9.0779 Y9.6195
G01 X9.0780 Y10.3750
G01 X9.0735 Y10.4718
G01 X9.0727 Y10.4828
G01 X9.0714 Y10.4938
G01 X9.0569 Y10.5896
G01 X9.0336 Y10.6837
G01 X9.0306 Y10.6943
G01 X9.0272 Y10.7048
G01 X8.9943 Y10.7960
G01 X8.9534 Y10.8830
G01 X8.9534 Y29.8060
G01 X12.6529 Y33.5055
G01 X13.5237 Y33.5055
G01 X13.5573 Y33.4971
G01 X13.5735 Y33.4937
G01 X13.6620 Y33.4805
G01 X13.6785 Y33.4791
G01 X13.7680 Y33.4750
G01 X13.7790 Y33.4753
G01 X13.8685 Y33.4799
G01 X13.9625 Y33.4937
G01 X13.9787 Y33.4971
G01 X14.0655 Y33.5191
G01 X14.1499 Y33.5490
G01 X14.1603 Y33.5530
G01 X14.1703 Y33.5575
G01 X14.2413 Y33.5911
G01 X14.2512 Y33.5960
G01 X14.2608 Y33.6015
G01 X14.3375 Y33.6477
G01 X14.3465 Y33.6541
G01 X14.4183 Y33.7077
G01 X14.4848 Y33.7676
G01 X14.4928 Y33.7752
G01 X14.5531 Y33.8414
G01 X14.5603 Y33.8497
G01 X14.5671 Y33.8585
G01 X14.6203 Y33.9305
G01 X14.6665 Y34.0072
G01 X14.6720 Y34.0168
G01 X14.6769 Y34.0267
G01 X14.7150 Y34.1077
G01 X14.7454 Y34.1920
G01 X14.7489 Y34.2025
G01 X14.7518 Y34.2131
G01 X14.7733 Y34.3000
G01 X14.7752 Y34.3109
G01 X14.7881 Y34.3995
G01 X14.7927 Y34.4890
G01 X14.7930 Y34.5000
G01 X14.7927 Y34.5110
G01 X14.7881 Y34.6005
G01 X14.7752 Y34.6891
G01 X14.7733 Y34.7000
G01 X14.7709 Y34.7107
G01 X14.7489 Y34.7975
G01 X14.7190 Y34.8819
G01 X14.7150 Y34.8923
G01 X14.7105 Y34.9023
G01 X14.6720 Y34.9832
G01 X14.6262 Y35.0601
G01 X14.6203 Y35.0695
G01 X14.6139 Y35.0785
G01 X14.5603 Y35.1503
G01 X14.5004 Y35.2168
G01 X14.4928 Y35.2248
G01 X14.4266 Y35.2851
G01 X14.4183 Y35.2923
G01 X14.4095 Y35.2991
G01 X14.3375 Y35.3523
G01 X14.2608 Y35.3985
G01 X14.2512 Y35.4040
G01 X14.2413 Y35.4089
G01 X14.1603 Y35.4470
G01 X14.0760 Y35.4774
G01 X14.0602 Y35.4824
G01 X13.9680 Y35.5053
G01 X13.8794 Y35.5187
G01 X13.8685 Y35.5201
G01 X13.8575 Y35.5209
G01 X13.7790 Y35.5247
G01 X13.7625 Y35.5249
G01 X13.6675 Y35.5201
G01 X13.5789 Y35.5072
G01 X13.5680 Y35.5053
G01 X13.4811 Y35.4838
G01 X13.4705 Y35.4809
G01 X13.4009 Y35.4563
G01 X12.2489 Y35.4563
G01 X12.1588 Y35.4521
G01 X12.1423 Y35.4502
G01 X12.0695 Y35.4394
G01 X12.0586 Y35.4375
G01 X12.0478 Y35.4351
G01 X11.9658 Y35.4143
G01 X11.8859 Y35.3860
G01 X11.8756 Y35.3820
G01 X11.8655 Y35.3776
G01 X11.7891 Y35.3411
G01 X11.7163 Y35.2978
G01 X11.7025 Y35.2888
G01 X11.6301 Y35.2349
G01 X11.5672 Y35.1782
G01 X11.5592 Y35.1706
G01 X7.2844 Y30.8957
G01 X7.2312 Y30.8371
G01 X7.2240 Y30.8288
G01 X7.2172 Y30.8201
G01 X7.1670 Y30.7519
G01 X7.1232 Y30.6794
G01 X7.1178 Y30.6698
G01 X7.1128 Y30.6599
G01 X7.0769 Y30.5833
G01 X7.0481 Y30.5036
G01 X7.0431 Y30.4878
G01 X7.0214 Y30.4003
G01 X7.0087 Y30.3166
G01 X7.0073 Y30.3056
G01 X7.0065 Y30.2946
G01 X7.0026 Y30.2100
G01 X7.0026 Y10.8830
G00 X7.0026 Y10.8830
G01 F60.00
G01 Z-0.0600
G01 F180.00
G01 X6.9617 Y10.7960
G01 X6.9288 Y10.7048
G01 X6.9254 Y10.6943
G01 X6.9224 Y10.6837
G01 X6.8991 Y10.5896
G01 X6.8846 Y10.4938
G01 X6.8833 Y10.4828
G01 X6.8825 Y10.4718
G01 X6.8780 Y10.3750
G01 X6.8780 Y9.6250
G01 X6.8828 Y9.5227
G01 X6.8846 Y9.5062
G01 X6.8972 Y9.4213
G01 X6.8991 Y9.4104
G01 X6.9016 Y9.3996
G01 X6.9254 Y9.3057
G01 X6.9288 Y9.2952
G01 X6.9617 Y9.2040
G01 X7.0029 Y9.1163
G01 X7.0079 Y9.1065
G01 X7.0133 Y9.0969
G01 X7.0634 Y9.0139
G01 X7.1242 Y8.9315
G01 X7.1349 Y8.9188
G01 X7.2002 Y8.8472
G01 X7.2082 Y8.8396
G01 X7.2802 Y8.7747
G01 X7.3578 Y8.7167
G01 X7.3669 Y8.7104
G01 X7.3762 Y8.7045
G01 X7.4595 Y8.6549
G01 X7.5470 Y8.6132
G01 X7.5570 Y8.6087
G01 X7.6482 Y8.5758
G01 X7.6587 Y8.5724
G01 X7.6693 Y8.5694
G01 X7.7634 Y8.5461
G01 X7.8592 Y8.5316
G01 X7.8702 Y8.5303
G01 X7.8812 Y8.5295
G01 X7.9780 Y8.5250
G01 X8.0748 Y8.5295
G01 X8.0858 Y8.5303
G01 X8.0968 Y8.5316
G01 X8.1926 Y8.5461
G01 X8.2867 Y8.5694
G01 X8.2973 Y8.5724
G01 X8.3078 Y8.5758
G01 X8.3990 Y8.6087
G01 X8.4867 Y8.6499
G01 X8.4965 Y8.6549
G01 X8.5798 Y8.7045
G01 X8.5891 Y8.7104
G01 X8.6715 Y8.7712
G01 X8.6842 Y8.7819
G01 X8.7558 Y8.8472
G01 X8.7634 Y8.8552
G01 X8.8283 Y8.9272
G01 X8.8863 Y9.0048
G01 X8.8926 Y9.0139
G01 X8.9427 Y9.0969
G01 X8.9481 Y9.1065
G01 X8.9531 Y9.1163
G01 X8.9943 Y9.2040
G01 X9.0272 Y9.2952
G01 X9.0306 Y9.3057
G01 X9.0336 Y9.3163
G01 X9.0544 Y9.3996
G01 X9.0569 Y9.4104
G01 X9.0588 Y9.4213
G01 X9.0727 Y9.5172
G01 X9.0779 Y9.6195
G01 X9.0780 Y10.3750
G01 X9.0735 Y10.4718
G01 X9.0727 Y10.4828
G01 X9.0714 Y10.4938
G01 X9.0569 Y10.5896
G01 X9.0336 Y10.6837
G01 X9.0306 Y10.6943
G01 X9.0272 Y10.7048
G01 X8.9943 Y10.7960
G01 X8.9534 Y10.8830
G01 X8.9534 Y29.8060
G01 X12.6529 Y33.5055
G01 X13.5237 Y33.5055
G01 X13.5573 Y33.4971
G01 X13.5735 Y33.4937
G01 X13.6620 Y33.4805
G01 X13.6785 Y33.4791
G01 X13.7680 Y33.4750
G01 X13.7790 Y33.4753
G01 X13.8685 Y33.4799
G01 X13.9625 Y33.4937
G01 X13.9787 Y33.4971
G01 X14.0655 Y33.5191
G01 X14.1499 Y33.5490
G01 X14.1603 Y33.5530
G01 X14.1703 Y33.5575
G01 X14.2413 Y33.5911
G01 X14.2512 Y33.5960
G01 X14.2608 Y33.6015
G01 X14.3375 Y33.6477
G01 X14.3465 Y33.6541
G01 X14.4183 Y33.7077
G01 X14.4848 Y33.7676
G01 X14.4928 Y33.7752
G01 X14.5531 Y33.8414
G01 X14.5603 Y33.8497
G01 X14.5671 Y33.8585
G01 X14.6203 Y33.9305
G01 X14.6665 Y34.0072
G01 X14.6720 Y34.0168
G01 X14.6769 Y34.0267
G01 X14.7150 Y34.1077
G01 X14.7454 Y34.1920
G01 X14.7489 Y34.2025
G01 X14.7518 Y34.2131
G01 X14.7733 Y34.3000
G01 X14.7752 Y34.3109
G01 X14.7881 Y34.3995
G01 X14.7927 Y34.4890
G01 X14.7930 Y34.5000
G01 X14.7927 Y34.5110
G01 X14.7881 Y34.6005
G01 X14.7752 Y34.6891
G01 X14.7733 Y34.7000
G01 X14.7709 Y34.7107
G01 X14.7489 Y34.7975
G01 X14.7190 Y34.8819
G01 X14.7150 Y34.8923
G01 X14.7105 Y34.9023
G01 X14.6720 Y34.9832
G01 X14.6262 Y35.0601
G01 X14.6203 Y35.0695
G01 X14.6139 Y35.0785
G01 X14.5603 Y35.1503
G01 X14.5004 Y35.2168
G01 X14.4928 Y35.2248
G01 X14.4266 Y35.2851
G01 X14.4183 Y35.2923
G01 X14.4095 Y35.2991
G01 X14.3375 Y35.3523
G01 X14.2608 Y35.3985
G01 X14.2512 Y35.4040
G01 X14.2413 Y35.4089
G01 X14.1603 Y35.4470
G01 X14.0760 Y35.4774
G01 X14.0602 Y35.4824
G01 X13.9680 Y35.5053
G01 X13.8794 Y35.5187
G01 X13.8685 Y35.5201
G01 X13.8575 Y35.5209
G01 X13.7790 Y35.5247
G01 X13.7625 Y35.5249
G01 X13.6675 Y35.5201
G01 X13.5789 Y35.5072
G01 X13.5680 Y35.5053
G01 X13.4811 Y35.4838
G01 X13.4705 Y35.4809
G01 X13.4009 Y35.4563
G01 X12.2489 Y35.4563
G01 X12.1588 Y35.4521
G01 X12.1423 Y35.4502
G01 X12.0695 Y35.4394
G01 X12.0586 Y35.4375
G01 X12.0478 Y35.4351
G01 X11.9658 Y35.4143
G01 X11.8859 Y35.3860
G01 X11.8756 Y35.3820
G01 X11.8655 Y35.3776
G01 X11.7891 Y35.3411
G01 X11.7163 Y35.2978
G01 X11.7025 Y35.2888
G01 X11.6301 Y35.2349
G01 X11.5672 Y35.1782
G01 X11.5592 Y35.1706
G01 X7.2844 Y30.8957
G01 X7.2312 Y30.8371
G01 X7.2240 Y30.8288
G01 X7.2172 Y30.8201
G01 X7.1670 Y30.7519
G01 X7.1232 Y30.6794
G01 X7.1178 Y30.6698
G01 X7.1128 Y30.6599
G01 X7.0769 Y30.5833
G01 X7.0481 Y30.5036
G01 X7.0431 Y30.4878
G01 X7.0214 Y30.4003
G01 X7.0087 Y30.3166
G01 X7.0073 Y30.3056
G01 X7.0065 Y30.2946
G01 X7.0026 Y30.2100
G01 X7.0026 Y10.8830
G00 X7.0026 Y10.8830
G01 F60.00
G01 Z-0.0900
G01 F180.00
G01 X6.9617 Y10.7960
G01 X6.9288 Y10.7048
G01 X6.9254 Y10.6943
G01 X6.9224 Y10.6837
G01 X6.8991 Y10.5896
G01 X6.8846 Y10.4938
G01 X6.8833 Y10.4828
G01 X6.8825 Y10.4718
G01 X6.8780 Y10.3750
G01 X6.8780 Y9.6250
G01 X6.8828 Y9.5227
G01 X6.8846 Y9.5062
G01 X6.8972 Y9.4213
G01 X6.8991 Y9.4104
G01 X6.9016 Y9.3996
G01 X6.9254 Y9.3057
G01 X6.9288 Y9.2952
G01 X6.9617 Y9.2040
G01 X7.0029 Y9.1163
G01 X7.0079 Y9.1065
G01 X7.0133 Y9.0969
G01 X7.0634 Y9.0139
G01 X7.1242 Y8.9315
G01 X7.1349 Y8.9188
G01 X7.2002 Y8.8472
G01 X7.2082 Y8.8396
G01 X7.2802 Y8.7747
G01 X7.3578 Y8.7167
G01 X7.3669 Y8.7104
G01 X7.3762 Y8.7045
G01 X7.4595 Y8.6549
G01 X7.5470 Y8.6132
G01 X7.5570 Y8.6087
G01 X7.6482 Y8.5758
G01 X7.6587 Y8.5724
G01 X7.6693 Y8.5694
G01 X7.7634 Y8.5461
G01 X7.8592 Y8.5316
G01 X7.8702 Y8.5303
G01 X7.8812 Y8.5295
G01 X7.9780 Y8.5250
G01 X8.0748 Y8.5295
G01 X8.0858 Y8.5303
G01 X8.0968 Y8.5316
G01 X8.1926 Y8.5461
G01 X8.2867 Y8.5694
G01 X8.2973 Y8.5724
G01 X8.3078 Y8.5758
G01 X8.3990 Y8.6087
G01 X8.4867 Y8.6499
G01 X8.4965 Y8.6549
G01 X8.5798 Y8.7045
G01 X8.5891 Y8.7104
G01 X8.6715 Y8.7712
G01 X8.6842 Y8.7819
G01 X8.7558 Y8.8472
G01 X8.7634 Y8.8552
G01 X8.8283 Y8.9272
G01 X8.8863 Y9.0048
G01 X8.8926 Y9.0139
G01 X8.9427 Y9.0969
G01 X8.9481 Y9.1065
G01 X8.9531 Y9.1163
G01 X8.9943 Y9.2040
G01 X9.0272 Y9.2952
G01 X9.0306 Y9.3057
G01 X9.0336 Y9.3163
G01 X9.0544 Y9.3996
G01 X9.0569 Y9.4104
G01 X9.0588 Y9.4213
G01 X9.0727 Y9.5172
G01 X9.0779 Y9.6195
G01 X9.0780 Y10.3750
G01 X9.0735 Y10.4718
G01 X9.0727 Y10.4828
G01 X9.0714 Y10.4938
G01 X9.0569 Y10.5896
G01 X9.0336 Y10.6837
G01 X9.0306 Y10.6943
G01 X9.0272 Y10.7048
G01 X8.9943 Y10.7960
G01 X8.9534 Y10.8830
G01 X8.9534 Y29.8060
G01 X12.6529 Y33.5055
G01 X13.5237 Y33.5055
G01 X13.5573 Y33.4971
G01 X13.5735 Y33.4937
G01 X13.6620 Y33.4805
G01 X13.6785 Y33.4791
G01 X13.7680 Y33.4750
G01 X13.7790 Y33.4753
G01 X13.8685 Y33.4799
G01 X13.9625 Y33.4937
G01 X13.9787 Y33.4971
G01 X14.0655 Y33.5191
G01 X14.1499 Y33.5490
G01 X14.1603 Y33.5530
G01 X14.1703 Y33.5575
G01 X14.2413 Y33.5911
G01 X14.2512 Y33.5960
G01 X14.2608 Y33.6015
G01 X14.3375 Y33.6477
G01 X14.3465 Y33.6541
G01 X14.4183 Y33.7077
G01 X14.4848 Y33.7676
G01 X14.4928 Y33.7752
G01 X14.5531 Y33.8414
G01 X14.5603 Y33.8497
G01 X14.5671 Y33.8585
G01 X14.6203 Y33.9305
G01 X14.6665 Y34.0072
G01 X14.6720 Y34.0168
G01 X14.6769 Y34.0267
G01 X14.7150 Y34.1077
G01 X14.7454 Y34.1920
G01 X14.7489 Y34.2025
G01 X14.7518 Y34.2131
G01 X14.7733 Y34.3000
G01 X14.7752 Y34.3109
G01 X14.7881 Y34.3995
G01 X14.7927 Y34.4890
G01 X14.7930 Y34.5000
G01 X14.7927 Y34.5110
G01 X14.7881 Y34.6005
G01 X14.7752 Y34.6891
G01 X14.7733 Y34.7000
G01 X14.7709 Y34.7107
G01 X14.7489 Y34.7975
G01 X14.7190 Y34.8819
G01 X14.7150 Y34.8923
G01 X14.7105 Y34.9023
G01 X14.6720 Y34.9832
G01 X14.6262 Y35.0601
G01 X14.6203 Y35.0695
G01 X14.6139 Y35.0785
G01 X14.5603 Y35.1503
G01 X14.5004 Y35.2168
G01 X14.4928 Y35.2248
G01 X14.4266 Y35.2851
G01 X14.4183 Y35.2923
G01 X14.4095 Y35.2991
G01 X14.3375 Y35.3523
G01 X14.2608 Y35.3985
G01 X14.2512 Y35.4040
G01 X14.2413 Y35.4089
G01 X14.1603 Y35.4470
G01 X14.0760 Y35.4774
G01 X14.0602 Y35.4824
G01 X13.9680 Y35.5053
G01 X13.8794 Y35.5187
G01 X13.8685 Y35.5201
G01 X13.8575 Y35.5209
G01 X13.7790 Y35.5247
G01 X13.7625 Y35.5249
G01 X13.6675 Y35.5201
G01 X13.5789 Y35.5072
G01 X13.5680 Y35.5053
G01 X13.4811 Y35.4838
G01 X13.4705 Y35.4809
G01 X13.4009 Y35.4563
G01 X12.2489 Y35.4563
G01 X12.1588 Y35.4521
G01 X12.1423 Y35.4502
G01 X12.0695 Y35.4394
G01 X12.0586 Y35.4375
G01 X12.0478 Y35.4351
G01 X11.9658 Y35.4143
G01 X11.8859 Y35.3860
G01 X11.8756 Y35.3820
G01 X11.8655 Y35.3776
G01 X11.7891 Y35.3411
G01 X11.7163 Y35.2978
G01 X11.7025 Y35.2888
G01 X11.6301 Y35.2349
G01 X11.5672 Y35.1782
G01 X11.5592 Y35.1706
G01 X7.2844 Y30.8957
G01 X7.2312 Y30.8371
G01 X7.2240 Y30.8288
G01 X7.2172 Y30.8201
G01 X7.1670 Y30.7519
G01 X7.1232 Y30.6794
G01 X7.1178 Y30.6698
G01 X7.1128 Y30.6599
G01 X7.0769 Y30.5833
G01 X7.0481 Y30.5036
G01 X7.0431 Y30.4878
G01 X7.0214 Y30.4003
G01 X7.0087 Y30.3166
G01 X7.0073 Y30.3056
G01 X7.0065 Y30.2946
G01 X7.0026 Y30.2100
G01 X7.0026 Y10.8830
G00 X7.0026 Y10.8830
G01 F60.00
G01 Z-0.1200
G01 F180.00
G01 X6.9617 Y10.7960
G01 X6.9288 Y10.7048
G01 X6.9254 Y10.6943
G01 X6.9224 Y10.6837
G01 X6.8991 Y10.5896
G01 X6.8846 Y10.4938
G01 X6.8833 Y10.4828
G01 X6.8825 Y10.4718
G01 X6.8780 Y10.3750
G01 X6.8780 Y9.6250
G01 X6.8828 Y9.5227
G01 X6.8846 Y9.5062
G01 X6.8972 Y9.4213
G01 X6.8991 Y9.4104
G01 X6.9016 Y9.3996
G01 X6.9254 Y9.3057
G01 X6.9288 Y9.2952
G01 X6.9617 Y9.2040
G01 X7.0029 Y9.1163
G01 X7.0079 Y9.1065
G01 X7.0133 Y9.0969
G01 X7.0634 Y9.0139
G01 X7.1242 Y8.9315
G01 X7.1349 Y8.9188
G01 X7.2002 Y8.8472
G01 X7.2082 Y8.8396
G01 X7.2802 Y8.7747
G01 X7.3578 Y8.7167
G01 X7.3669 Y8.7104
G01 X7.3762 Y8.7045
G01 X7.4595 Y8.6549
G01 X7.5470 Y8.6132
G01 X7.5570 Y8.6087
G01 X7.6482 Y8.5758
G01 X7.6587 Y8.5724
G01 X7.6693 Y8.5694
G01 X7.7634 Y8.5461
G01 X7.8592 Y8.5316
G01 X7.8702 Y8.5303
G01 X7.8812 Y8.5295
G01 X7.9780 Y8.5250
G01 X8.0748 Y8.5295
G01 X8.0858 Y8.5303
G01 X8.0968 Y8.5316
G01 X8.1926 Y8.5461
G01 X8.2867 Y8.5694
G01 X8.2973 Y8.5724
G01 X8.3078 Y8.5758
G01 X8.3990 Y8.6087
G01 X8.4867 Y8.6499
G01 X8.4965 Y8.6549
G01 X8.5798 Y8.7045
G01 X8.5891 Y8.7104
G01 X8.6715 Y8.7712
G01 X8.6842 Y8.7819
G01 X8.7558 Y8.8472
G01 X8.7634 Y8.8552
G01 X8.8283 Y8.9272
G01 X8.8863 Y9.0048
G01 X8.8926 Y9.0139
G01 X8.9427 Y9.0969
G01 X8.9481 Y9.1065
G01 X8.9531 Y9.1163
G01 X8.9943 Y9.2040
G01 X9.0272 Y9.2952
G01 X9.0306 Y9.3057
G01 X9.0336 Y9.3163
G01 X9.0544 Y9.3996
G01 X9.0569 Y9.4104
G01 X9.0588 Y9.4213
G01 X9.0727 Y9.5172
G01 X9.0779 Y9.6195
G01 X9.0780 Y10.3750
G01 X9.0735 Y10.4718
G01 X9.0727 Y10.4828
G01 X9.0714 Y10.4938
G01 X9.0569 Y10.5896
G01 X9.0336 Y10.6837
G01 X9.0306 Y10.6943
G01 X9.0272 Y10.7048
G01 X8.9943 Y10.7960
G01 X8.9534 Y10.8830
G01 X8.9534 Y29.8060
G01 X12.6529 Y33.5055
G01 X13.5237 Y33.5055
G01 X13.5573 Y33.4971
G01 X13.5735 Y33.4937
G01 X13.6620 Y33.4805
G01 X13.6785 Y33.4791
G01 X13.7680 Y33.4750
G01 X13.7790 Y33.4753
G01 X13.8685 Y33.4799
G01 X13.9625 Y33.4937
G01 X13.9787 Y33.4971
G01 X14.0655 Y33.5191
G01 X14.1499 Y33.5490
G01 X14.1603 Y33.5530
G01 X14.1703 Y33.5575
G01 X14.2413 Y33.5911
G01 X14.2512 Y33.5960
G01 X14.2608 Y33.6015
G01 X14.3375 Y33.6477
G01 X14.3465 Y33.6541
G01 X14.4183 Y33.7077
G01 X14.4848 Y33.7676
G01 X14.4928 Y33.7752
G01 X14.5531 Y33.8414
G01 X14.5603 Y33.8497
G01 X14.5671 Y33.8585
G01 X14.6203 Y33.9305
G01 X14.6665 Y34.0072
G01 X14.6720 Y34.0168
G01 X14.6769 Y34.0267
G01 X14.7150 Y34.1077
G01 X14.7454 Y34.1920
G01 X14.7489 Y34.2025
G01 X14.7518 Y34.2131
G01 X14.7733 Y34.3000
G01 X14.7752 Y34.3109
G01 X14.7881 Y34.3995
G01 X14.7927 Y34.4890
G01 X14.7930 Y34.5000
G01 X14.7927 Y34.5110
G01 X14.7881 Y34.6005
G01 X14.7752 Y34.6891
G01 X14.7733 Y34.7000
G01 X14.7709 Y34.7107
G01 X14.7489 Y34.7975
G01 X14.7190 Y34.8819
G01 X14.7150 Y34.8923
G01 X14.7105 Y34.9023
G01 X14.6720 Y34.9832
G01 X14.6262 Y35.0601
G01 X14.6203 Y35.0695
G01 X14.6139 Y35.0785
G01 X14.5603 Y35.1503
G01 X14.5004 Y35.2168
G01 X14.4928 Y35.2248
G01 X14.4266 Y35.2851
G01 X14.4183 Y35.2923
G01 X14.4095 Y35.2991
G01 X14.3375 Y35.3523
G01 X14.2608 Y35.3985
G01 X14.2512 Y35.4040
G01 X14.2413 Y35.4089
G01 X14.1603 Y35.4470
G01 X14.0760 Y35.4774
G01 X14.0602 Y35.4824
G01 X13.9680 Y35.5053
G01 X13.8794 Y35.5187
G01 X13.8685 Y35.5201
G01 X13.8575 Y35.5209
G01 X13.7790 Y35.5247
G01 X13.7625 Y35.5249
G01 X13.6675 Y35.5201
G01 X13.5789 Y35.5072
G01 X13.5680 Y35.5053
G01 X13.4811 Y35.4838
G01 X13.4705 Y35.4809
G01 X13.4009 Y35.4563
G01 X12.2489 Y35.4563
G01 X12.1588 Y35.4521
G01 X12.1423 Y35.4502
G01 X12.0695 Y35.4394
G01 X12.0586 Y35.4375
G01 X12.0478 Y35.4351
G01 X11.9658 Y35.4143
G01 X11.8859 Y35.3860
G01 X11.8756 Y35.3820
G01 X11.8655 Y35.3776
G01 X11.7891 Y35.3411
G01 X11.7163 Y35.2978
G01 X11.7025 Y35.2888
G01 X11.6301 Y35.2349
G01 X11.5672 Y35.1782
G01 X11.5592 Y35.1706
G01 X7.2844 Y30.8957
G01 X7.2312 Y30.8371
G01 X7.2240 Y30.8288
G01 X7.2172 Y30.8201
G01 X7.1670 Y30.7519
G01 X7.1232 Y30.6794
G01 X7.1178 Y30.6698
G01 X7.1128 Y30.6599
G01 X7.0769 Y30.5833
G01 X7.0481 Y30.5036
G01 X7.0431 Y30.4878
G01 X7.0214 Y30.4003
G01 X7.0087 Y30.3166
G01 X7.0073 Y30.3056
G01 X7.0065 Y30.2946
G01 X7.0026 Y30.2100
G01 X7.0026 Y10.8830
G00 Z2.0000
G00 X9.5426 Y10.8830
G01 F60.00
G01 Z-0.0300
G01 F180.00
G01 X9.5017 Y10.7960
G01 X9.4688 Y10.7048
G01 X9.4654 Y10.6943
G01 X9.4624 Y10.6837
G01 X9.4391 Y10.5896
G01 X9.4246 Y10.4938
G01 X9.4233 Y10.4828
G01 X9.4225 Y10.4718
G01 X9.4180 Y10.3750
G01 X9.4180 Y9.6250
G01 X9.4228 Y9.5227
G01 X9.4246 Y9.5062
G01 X9.4372 Y9.4213
G01 X9.4391 Y9.4104
G01 X9.4416 Y9.3996
G01 X9.4654 Y9.3057
G01 X9.4688 Y9.2952
G01 X9.5017 Y9.2040
G01 X9.5429 Y9.1163
G01 X9.5479 Y9.1065
G01 X9.5533 Y9.0969
G01 X9.6034 Y9.0139
G01 X9.6642 Y8.9315
G01 X9.6749 Y8.9188
G01 X9.7402 Y8.8472
G01 X9.7482 Y8.8396
G01 X9.8202 Y8.7747
G01 X9.8978 Y8.7167
G01 X9.9069 Y8.7104
G01 X9.9162 Y8.7045
G01 X9.9995 Y8.6549
G01 X10.0870 Y8.6132
G01 X10.0970 Y8.6087
G01 X10.1882 Y8.5758
G01 X10.1987 Y8.5724
G01 X10.2093 Y8.5694
G01 X10.3034 Y8.5461
G01 X10.3992 Y8.5316
G01 X10.4102 Y8.5303
G01 X10.4212 Y8.5295
G01 X10.5180 Y8.5250
G01 X10.6148 Y8.5295
G01 X10.6258 Y8.5303
G01 X10.6368 Y8.5316
G01 X10.7326 Y8.5461
G01 X10.8267 Y8.5694
G01 X10.8373 Y8.5724
G01 X10.8478 Y8.5758
G01 X10.9390 Y8.6087
G01 X11.0267 Y8.6499
G01 X11.0365 Y8.6549
G01 X11.1198 Y8.7045
G01 X11.1291 Y8.7104
G01 X11.2115 Y8.7712
G01 X11.2242 Y8.7819
G01 X11.2958 Y8.8472
G01 X11.3034 Y8.8552
G01 X11.3683 Y8.9272
G01 X11.4263 Y9.0048
G01 X11.4326 Y9.0139
G01 X11.4827 Y9.0969
G01 X11.4881 Y9.1065
G01 X11.4931 Y9.1163
G01 X11.5343 Y9.2040
G01 X11.5672 Y9.2952
G01 X11.5706 Y9.3057
G01 X11.5736 Y9.3163
G01 X11.5944 Y9.3996
G01 X11.5969 Y9.4104
G01 X11.5988 Y9.4213
G01 X11.6127 Y9.5172
G01 X11.6179 Y9.6195
G01 X11.6180 Y10.3750
G01 X11.6135 Y10.4718
G01 X11.6127 Y10.4828
G01 X11.6114 Y10.4938
G01 X11.5969 Y10.5896
G01 X11.5736 Y10.6837
G01 X11.5706 Y10.6943
G01 X11.5672 Y10.7048
G01 X11.5343 Y10.7960
G01 X11.4934 Y10.8830
G01 X11.4934 Y20.3460
G01 X12.6529 Y21.5055
G01 X13.5237 Y21.5055
G01 X13.5573 Y21.4971
G01 X13.5735 Y21.4937
G01 X13.6566 Y21.4813
G01 X13.6730 Y21.4795
G01 X13.7680 Y21.4750
G01 X13.8630 Y21.4795
G01 X13.8794 Y21.4813
G01 X13.9680 Y21.4947
G01 X14.0549 Y21.5162
G01 X14.0655 Y21.5191
G01 X14.0760 Y21.5226
G01 X14.1603 Y21.5530
G01 X14.2413 Y21.5911
G01 X14.2512 Y21.5960
G01 X14.2608 Y21.6015
G01 X14.3375 Y21.6477
G01 X14.3465 Y21.6541
G01 X14.4183 Y21.7077
G01 X14.4848 Y21.7676
G01 X14.4928 Y21.7752
G01 X14.5004 Y21.7832
G01 X14.5603 Y21.8497
G01 X14.6139 Y21.9215
G01 X14.6203 Y21.9305
G01 X14.6262 Y21.9399
G01 X14.6720 Y22.0168
G01 X14.7105 Y22.0977
G01 X14.7150 Y22.1077
G01 X14.7454 Y22.1920
G01 X14.7489 Y22.2025
G01 X14.7518 Y22.2131
G01 X14.7733 Y22.3000
G01 X14.7867 Y22.3886
G01 X14.7881 Y22.3995
G01 X14.7889 Y22.4105
G01 X14.7929 Y22.4945
G01 X14.7927 Y22.5110
G01 X14.7881 Y22.6005
G01 X14.7752 Y22.6891
G01 X14.7733 Y22.7000
G01 X14.7709 Y22.7107
G01 X14.7518 Y22.7869
G01 X14.7489 Y22.7975
G01 X14.7454 Y22.8080
G01 X14.7150 Y22.8923
G01 X14.7105 Y22.9023
G01 X14.6720 Y22.9832
G01 X14.6262 Y23.0601
G01 X14.6203 Y23.0695
G01 X14.6139 Y23.0785
G01 X14.5603 Y23.1503
G01 X14.5004 Y23.2168
G01 X14.4928 Y23.2248
G01 X14.4848 Y23.2324
G01 X14.4183 Y23.2923
G01 X14.3465 Y23.3459
G01 X14.3375 Y23.3523
G01 X14.2608 Y23.3985
G01 X14.2512 Y23.4040
G01 X14.2413 Y23.4089
G01 X14.1703 Y23.4425
G01 X14.1603 Y23.4470
G01 X14.1499 Y23.4510
G01 X14.0655 Y23.4809
G01 X13.9787 Y23.5029
G01 X13.9625 Y23.5063
G01 X13.8685 Y23.5201
G01 X13.7790 Y23.5247
G01 X13.7680 Y23.5250
G01 X13.7570 Y23.5247
G01 X13.6675 Y23.5201
G01 X13.5789 Y23.5072
G01 X13.5680 Y23.5053
G01 X13.5573 Y23.5029
G01 X13.4705 Y23.4809
G01 X13.4009 Y23.4563
G01 X12.2434 Y23.4562
G01 X12.1533 Y23.4516
G01 X12.0640 Y23.4385
G01 X12.0478 Y23.4351
G01 X11.9658 Y23.4143
G01 X11.8859 Y23.3860
G01 X11.8756 Y23.3820
G01 X11.8655 Y23.3776
G01 X11.7990 Y23.3461
G01 X11.7891 Y23.3411
G01 X11.7795 Y23.3357
G01 X11.7070 Y23.2919
G01 X11.6388 Y23.2417
G01 X11.6301 Y23.2349
G01 X11.5632 Y23.1745
G01 X11.4934 Y23.1048
G01 X11.4934 Y28.3060
G01 X14.2359 Y31.0485
G01 X14.2512 Y31.0560
G01 X14.2608 Y31.0615
G01 X14.3375 Y31.1077
G01 X14.4095 Y31.1609
G01 X14.4225 Y31.1712
G01 X14.4848 Y31.2276
G01 X14.4928 Y31.2352
G01 X14.5004 Y31.2432
G01 X14.5603 Y31.3097
G01 X14.6163 Y31.3848
G01 X16.2335 Y31.3849
G01 X16.2844 Y31.3876
G01 X16.2953 Y31.3889
G01 X16.3402 Y31.3959
G01 X16.3843 Y31.4066
G01 X16.3950 Y31.4096
G01 X16.4055 Y31.4131
G01 X16.4481 Y31.4286
G01 X16.4893 Y31.4478
G01 X16.4991 Y31.4527
G01 X16.5087 Y31.4582
G01 X16.5476 Y31.4818
G01 X16.5842 Y31.5086
G01 X16.5929 Y31.5154
G01 X16.6308 Y31.5494
G01 X17.8249 Y32.7435
G01 X17.9175 Y32.7299
G01 X18.0070 Y32.7253
G01 X18.0180 Y32.7250
G01 X18.0290 Y32.7253
G01 X18.1185 Y32.7299
G01 X18.2071 Y32.7428
G01 X18.2180 Y32.7447
G01 X18.3049 Y32.7662
G01 X18.3155 Y32.7691
G01 X18.3260 Y32.7726
G01 X18.4103 Y32.8030
G01 X18.4203 Y32.8075
G01 X18.5012 Y32.8460
G01 X18.5781 Y32.8918
G01 X18.5875 Y32.8977
G01 X18.5965 Y32.9041
G01 X18.6683 Y32.9577
G01 X18.7348 Y33.0176
G01 X18.7428 Y33.0252
G01 X18.7504 Y33.0332
G01 X18.8103 Y33.0997
G01 X18.8663 Y33.1748
G01 X21.2798 Y33.1748
G01 X25.1152 Y29.3394
G01 X25.1489 Y29.3089
G01 X25.1618 Y29.2986
G01 X25.1984 Y29.2718
G01 X25.2373 Y29.2482
G01 X25.2469 Y29.2427
G01 X25.2567 Y29.2378
G01 X25.2979 Y29.2186
G01 X25.3405 Y29.2031
G01 X25.3563 Y29.1981
G01 X25.4058 Y29.1859
G01 X25.4507 Y29.1789
G01 X25.4616 Y29.1776
G01 X25.4726 Y29.1768
G01 X25.5180 Y29.1748
G01 X36.1480 Y29.1748
G01 X36.1934 Y29.1768
G01 X36.2044 Y29.1776
G01 X36.2153 Y29.1789
G01 X36.2602 Y29.1859
G01 X36.3043 Y29.1966
G01 X36.3150 Y29.1996
G01 X36.3255 Y29.2031
G01 X36.3681 Y29.2186
G01 X36.4093 Y29.2378
G01 X36.4191 Y29.2427
G01 X36.4287 Y29.2482
G01 X36.4582 Y29.2659
G01 X36.4721 Y29.2749
G01 X36.5129 Y29.3054
G01 X36.5508 Y29.3394
G01 X40.9338 Y33.7224
G01 X40.9765 Y33.7160
G01 X40.9929 Y33.7142
G01 X41.0775 Y33.7101
G01 X41.0940 Y33.7103
G01 X41.1731 Y33.7142
G01 X41.1895 Y33.7160
G01 X41.2732 Y33.7287
G01 X41.3554 Y33.7490
G01 X41.3713 Y33.7537
G01 X41.4458 Y33.7802
G01 X41.4561 Y33.7842
G01 X41.4662 Y33.7887
G01 X41.5426 Y33.8251
G01 X41.6154 Y33.8684
G01 X41.6247 Y33.8743
G01 X41.6337 Y33.8807
G01 X41.7015 Y33.9313
G01 X41.7644 Y33.9880
G01 X41.7724 Y33.9956
G01 X41.7800 Y34.0036
G01 X41.8367 Y34.0665
G01 X41.8873 Y34.1343
G01 X41.8937 Y34.1433
G01 X41.9374 Y34.2158
G01 X41.9429 Y34.2254
G01 X41.9478 Y34.2353
G01 X41.9838 Y34.3119
G01 X42.0126 Y34.3915
G01 X42.0160 Y34.4020
G01 X42.0190 Y34.4126
G01 X42.0393 Y34.4948
G01 X42.0520 Y34.5785
G01 X42.0533 Y34.5894
G01 X42.0577 Y34.6740
G01 X42.0580 Y34.6850
G01 X42.0577 Y34.6960
G01 X42.0541 Y34.7696
G01 X42.0533 Y34.7806
G01 X42.0520 Y34.7915
G01 X42.0393 Y34.8752
G01 X42.0190 Y34.9574
G01 X42.0160 Y34.9680
G01 X42.0126 Y34.9785
G01 X41.9838 Y35.0581
G01 X41.9478 Y35.1347
G01 X41.9429 Y35.1446
G01 X41.9374 Y35.1542
G01 X41.8937 Y35.2267
G01 X41.8435 Y35.2948
G01 X41.8367 Y35.3035
G01 X41.8295 Y35.3119
G01 X41.7724 Y35.3744
G01 X41.7644 Y35.3820
G01 X41.7015 Y35.4387
G01 X41.6337 Y35.4893
G01 X41.6247 Y35.4957
G01 X41.5522 Y35.5394
G01 X41.5426 Y35.5449
G01 X41.5327 Y35.5498
G01 X41.4561 Y35.5858
G01 X41.3765 Y35.6146
G01 X41.3660 Y35.6180
G01 X41.3554 Y35.6210
G01 X41.2732 Y35.6413
G01 X41.1895 Y35.6540
G01 X41.1786 Y35.6553
G01 X41.1676 Y35.6561
G01 X41.0830 Y35.6600
G01 X40.9984 Y35.6561
G01 X40.9874 Y35.6553
G01 X40.9765 Y35.6540
G01 X40.8928 Y35.6413
G01 X40.8106 Y35.6210
G01 X40.8000 Y35.6180
G01 X40.7895 Y35.6146
G01 X40.7099 Y35.5858
G01 X40.6333 Y35.5498
G01 X40.6234 Y35.5449
G01 X40.6138 Y35.5394
G01 X40.5413 Y35.4957
G01 X40.5323 Y35.4893
G01 X40.4645 Y35.4387
G01 X40.4016 Y35.3820
G01 X40.3936 Y35.3744
G01 X40.3860 Y35.3664
G01 X40.3293 Y35.3035
G01 X40.2787 Y35.2357
G01 X40.2723 Y35.2267
G01 X40.2664 Y35.2174
G01 X40.2231 Y35.1446
G01 X40.1867 Y35.0682
G01 X40.1802 Y35.0530
G01 X40.1534 Y34.9785
G01 X40.1500 Y34.9680
G01 X40.1470 Y34.9574
G01 X40.1267 Y34.8752
G01 X40.1133 Y34.7861
G01 X40.1119 Y34.7696
G01 X40.1083 Y34.6960
G01 X40.1081 Y34.6795
G01 X40.1122 Y34.5949
G01 X40.1140 Y34.5785
G01 X40.1204 Y34.5358
G01 X35.9098 Y30.3252
G01 X25.7562 Y30.3252
G01 X22.3314 Y33.7500
G01 X23.1747 Y34.5933
G01 X23.1823 Y34.6013
G01 X23.2091 Y34.6309
G01 X23.2194 Y34.6438
G01 X23.2462 Y34.6804
G01 X23.2698 Y34.7193
G01 X23.2778 Y34.7338
G01 X23.2972 Y34.7748
G01 X23.3034 Y34.7902
G01 X23.3167 Y34.8278
G01 X23.3214 Y34.8437
G01 X23.3297 Y34.8770
G01 X23.3321 Y34.8878
G01 X23.3340 Y34.8987
G01 X23.3404 Y34.9436
G01 X23.3431 Y34.9945
G01 X23.3432 Y36.8095
G01 X23.3708 Y36.8472
G01 X23.4030 Y36.9004
G01 X23.4352 Y36.8472
G01 X23.4708 Y36.7988
G01 X23.4776 Y36.7901
G01 X23.4848 Y36.7817
G01 X23.5253 Y36.7373
G01 X23.5333 Y36.7297
G01 X23.5781 Y36.6896
G01 X23.6262 Y36.6535
G01 X23.6352 Y36.6472
G01 X23.6445 Y36.6413
G01 X23.6962 Y36.6106
G01 X23.7061 Y36.6056
G01 X23.7606 Y36.5802
G01 X23.8171 Y36.5597
G01 X23.8275 Y36.5562
G01 X23.8382 Y36.5533
G01 X23.8966 Y36.5389
G01 X23.9560 Y36.5298
G01 X23.9669 Y36.5285
G01 X23.9780 Y36.5277
G01 X24.0380 Y36.5250
G01 X24.0980 Y36.5277
G01 X24.1091 Y36.5285
G01 X24.1200 Y36.5298
G01 X24.1794 Y36.5389
G01 X24.2378 Y36.5533
G01 X24.2485 Y36.5562
G01 X24.2589 Y36.5597
G01 X24.3154 Y36.5802
G01 X24.3749 Y36.6081
G01 X24.3894 Y36.6161
G01 X24.4315 Y36.6413
G01 X24.4408 Y36.6472
G01 X24.4498 Y36.6535
G01 X24.4979 Y36.6896
G01 X24.5427 Y36.7297
G01 X24.5507 Y36.7373
G01 X24.5583 Y36.7453
G01 X24.5984 Y36.7901
G01 X24.6345 Y36.8382
G01 X24.6408 Y36.8472
G01 X24.6467 Y36.8565
G01 X24.6774 Y36.9082
G01 X24.7056 Y36.9675
G01 X24.7118 Y36.9829
G01 X24.7318 Y37.0395
G01 X24.7466 Y37.0978
G01 X24.7491 Y37.1086
G01 X24.7510 Y37.1194
G01 X24.7595 Y37.1789
G01 X24.7627 Y37.2390
G01 X24.7630 Y37.2500
G01 X24.7630 Y38.2500
G01 X24.7600 Y38.3156
G01 X24.7582 Y38.3320
G01 X24.7510 Y38.3806
G01 X24.7491 Y38.3914
G01 X24.7466 Y38.4022
G01 X24.7318 Y38.4605
G01 X24.7099 Y38.5223
G01 X24.7033 Y38.5375
G01 X24.6774 Y38.5918
G01 X24.6467 Y38.6435
G01 X24.6408 Y38.6528
G01 X24.6345 Y38.6618
G01 X24.6052 Y38.7012
G01 X24.5932 Y38.7161
G01 X24.5932 Y38.7618
G01 X25.0062 Y39.1748
G01 X26.4197 Y39.1748
G01 X26.4757 Y39.0997
G01 X26.5356 Y39.0332
G01 X26.5432 Y39.0252
G01 X26.5512 Y39.0176
G01 X26.6094 Y38.9649
G01 X26.6177 Y38.9577
G01 X26.6265 Y38.9509
G01 X26.6985 Y38.8977
G01 X26.7079 Y38.8918
G01 X26.7848 Y38.8460
G01 X26.8657 Y38.8075
G01 X26.8757 Y38.8030
G01 X26.9600 Y38.7726
G01 X26.9705 Y38.7691
G01 X26.9811 Y38.7662
G01 X27.0573 Y38.7471
G01 X27.0680 Y38.7447
G01 X27.0789 Y38.7428
G01 X27.1675 Y38.7299
G01 X27.2570 Y38.7253
G01 X27.2680 Y38.7250
G01 X27.2790 Y38.7253
G01 X27.3685 Y38.7299
G01 X27.4571 Y38.7428
G01 X27.4680 Y38.7447
G01 X27.4787 Y38.7471
G01 X27.5549 Y38.7662
G01 X27.5655 Y38.7691
G01 X27.5760 Y38.7726
G01 X27.6603 Y38.8030
G01 X27.6703 Y38.8075
G01 X27.7512 Y38.8460
G01 X27.8281 Y38.8918
G01 X27.8375 Y38.8977
G01 X27.8465 Y38.9041
G01 X27.9183 Y38.9577
G01 X27.9848 Y39.0176
G01 X27.9928 Y39.0252
G01 X28.0004 Y39.0332
G01 X28.0603 Y39.0997
G01 X28.1139 Y39.1715
G01 X28.1203 Y39.1805
G01 X28.1262 Y39.1899
G01 X28.1720 Y39.2668
G01 X28.2105 Y39.3477
G01 X28.2150 Y39.3577
G01 X28.2454 Y39.4420
G01 X28.2489 Y39.4525
G01 X28.2518 Y39.4631
G01 X28.2733 Y39.5500
G01 X28.2752 Y39.5609
G01 X28.2881 Y39.6495
G01 X28.2927 Y39.7390
G01 X28.2930 Y39.7500
G01 X28.2927 Y39.7610
G01 X28.2881 Y39.8505
G01 X28.2752 Y39.9391
G01 X28.2733 Y39.9500
G01 X28.2518 Y40.0369
G01 X28.2472 Y40.0528
G01 X28.2150 Y40.1423
G01 X28.1769 Y40.2233
G01 X28.1720 Y40.2332
G01 X28.1665 Y40.2428
G01 X28.1203 Y40.3195
G01 X28.0671 Y40.3915
G01 X28.0603 Y40.4003
G01 X28.0531 Y40.4086
G01 X27.9928 Y40.4748
G01 X27.9848 Y40.4824
G01 X27.9183 Y40.5423
G01 X27.8465 Y40.5959
G01 X27.8375 Y40.6023
G01 X27.8281 Y40.6082
G01 X27.7512 Y40.6540
G01 X27.6703 Y40.6925
G01 X27.6603 Y40.6970
G01 X27.5760 Y40.7274
G01 X27.5655 Y40.7309
G01 X27.4787 Y40.7529
G01 X27.4680 Y40.7553
G01 X27.4571 Y40.7572
G01 X27.3794 Y40.7687
G01 X27.3630 Y40.7705
G01 X27.2790 Y40.7747
G01 X27.2680 Y40.7750
G01 X27.2570 Y40.7747
G01 X27.1675 Y40.7701
G01 X27.0789 Y40.7572
G01 X27.0680 Y40.7553
G01 X27.0573 Y40.7529
G01 X26.9705 Y40.7309
G01 X26.8861 Y40.7010
G01 X26.8757 Y40.6970
G01 X26.8657 Y40.6925
G01 X26.7848 Y40.6540
G01 X26.7079 Y40.6082
G01 X26.6985 Y40.6023
G01 X26.6895 Y40.5959
G01 X26.6177 Y40.5423
G01 X26.5512 Y40.4824
G01 X26.5432 Y40.4748
G01 X26.5356 Y40.4668
G01 X26.4757 Y40.4003
G01 X26.4197 Y40.3252
G01 X24.7680 Y40.3252
G01 X24.7226 Y40.3232
G01 X24.7116 Y40.3224
G01 X24.6667 Y40.3160
G01 X24.6558 Y40.3141
G01 X24.6450 Y40.3117
G01 X24.6010 Y40.3004
G01 X24.5582 Y40.2854
G01 X24.5428 Y40.2792
G01 X24.5018 Y40.2598
G01 X24.4873 Y40.2518
G01 X24.4484 Y40.2282
G01 X24.4118 Y40.2014
G01 X24.4031 Y40.1946
G01 X24.3948 Y40.1874
G01 X24.3613 Y40.1567
G01 X23.6113 Y39.4067
G01 X23.5806 Y39.3732
G01 X23.5734 Y39.3649
G01 X23.5461 Y39.3286
G01 X23.5398 Y39.3196
G01 X23.5339 Y39.3102
G01 X23.5107 Y39.2711
G01 X23.5058 Y39.2613
G01 X23.4866 Y39.2201
G01 X23.4711 Y39.1775
G01 X23.4676 Y39.1670
G01 X23.4646 Y39.1563
G01 X23.4539 Y39.1122
G01 X23.4469 Y39.0673
G01 X23.4456 Y39.0564
G01 X23.4429 Y39.0055
G01 X23.4428 Y38.6635
G01 X23.4322 Y38.6482
G01 X23.4030 Y38.5996
G01 X23.3708 Y38.6528
G01 X23.3352 Y38.7012
G01 X23.3284 Y38.7099
G01 X23.3212 Y38.7183
G01 X23.2807 Y38.7627
G01 X23.2363 Y38.8032
G01 X23.2279 Y38.8104
G01 X23.2192 Y38.8172
G01 X23.1708 Y38.8528
G01 X23.1194 Y38.8839
G01 X23.1098 Y38.8894
G01 X23.0999 Y38.8944
G01 X23.0454 Y38.9198
G01 X22.9889 Y38.9403
G01 X22.9785 Y38.9438
G01 X22.9678 Y38.9467
G01 X22.9094 Y38.9611
G01 X22.8500 Y38.9702
G01 X22.8391 Y38.9715
G01 X22.8280 Y38.9723
G01 X22.7680 Y38.9750
G01 X22.7080 Y38.9723
G01 X22.6969 Y38.9715
G01 X22.6860 Y38.9702
G01 X22.6266 Y38.9611
G01 X22.5682 Y38.9467
G01 X22.5575 Y38.9438
G01 X22.5471 Y38.9403
G01 X22.4906 Y38.9198
G01 X22.4361 Y38.8944
G01 X22.4262 Y38.8894
G01 X22.4166 Y38.8839
G01 X22.3652 Y38.8528
G01 X22.3168 Y38.8172
G01 X22.3081 Y38.8104
G01 X22.2997 Y38.8032
G01 X22.2553 Y38.7627
G01 X22.2148 Y38.7183
G01 X22.2076 Y38.7099
G01 X22.2008 Y38.7012
G01 X22.1652 Y38.6528
G01 X22.1330 Y38.5996
G01 X22.1008 Y38.6528
G01 X22.0732 Y38.6905
G01 X22.0732 Y41.1748
G01 X30.4515 Y41.1748
G01 X30.4581 Y41.1629
G01 X30.5085 Y41.0788
G01 X30.5144 Y41.0694
G01 X30.5208 Y41.0604
G01 X30.5861 Y40.9729
G01 X30.6592 Y40.8918
G01 X30.6668 Y40.8838
G01 X30.7475 Y40.8103
G01 X30.7559 Y40.8031
G01 X30.7646 Y40.7963
G01 X30.8524 Y40.7314
G01 X30.8618 Y40.7255
G01 X30.9555 Y40.6696
G01 X31.0541 Y40.6227
G01 X31.0642 Y40.6182
G01 X31.0745 Y40.6143
G01 X31.1774 Y40.5777
G01 X31.1880 Y40.5748
G01 X31.2940 Y40.5485
G01 X31.4020 Y40.5323
G01 X31.4129 Y40.5309
G01 X31.5220 Y40.5253
G01 X31.5330 Y40.5250
G01 X31.5440 Y40.5253
G01 X31.6421 Y40.5301
G01 X31.6586 Y40.5315
G01 X31.7611 Y40.5467
G01 X31.7720 Y40.5485
G01 X31.7828 Y40.5510
G01 X31.8886 Y40.5777
G01 X31.9915 Y40.6143
G01 X32.0018 Y40.6182
G01 X32.0119 Y40.6227
G01 X32.1105 Y40.6696
G01 X32.2042 Y40.7255
G01 X32.2136 Y40.7314
G01 X32.2226 Y40.7378
G01 X32.3101 Y40.8031
G01 X32.3912 Y40.8762
G01 X32.3992 Y40.8838
G01 X32.4068 Y40.8918
G01 X32.4799 Y40.9729
G01 X32.5452 Y41.0604
G01 X32.5516 Y41.0694
G01 X32.5575 Y41.0788
G01 X32.6134 Y41.1725
G01 X32.6603 Y41.2711
G01 X32.6648 Y41.2812
G01 X32.6687 Y41.2915
G01 X32.7053 Y41.3944
G01 X32.7320 Y41.5002
G01 X32.7345 Y41.5110
G01 X32.7363 Y41.5219
G01 X32.7521 Y41.6299
G01 X32.7577 Y41.7390
G01 X32.7580 Y41.7500
G01 X32.7577 Y41.7610
G01 X32.7521 Y41.8701
G01 X32.7363 Y41.9781
G01 X32.7345 Y41.9890
G01 X32.7320 Y41.9998
G01 X32.7053 Y42.1056
G01 X32.6687 Y42.2085
G01 X32.6648 Y42.2188
G01 X32.6603 Y42.2289
G01 X32.6134 Y42.3275
G01 X32.5575 Y42.4212
G01 X32.5516 Y42.4306
G01 X32.5452 Y42.4396
G01 X32.4799 Y42.5271
G01 X32.4068 Y42.6082
G01 X32.3992 Y42.6162
G01 X32.3912 Y42.6238
G01 X32.3101 Y42.6969
G01 X32.2226 Y42.7622
G01 X32.2136 Y42.7686
G01 X32.2042 Y42.7745
G01 X32.1105 Y42.8304
G01 X32.0119 Y42.8773
G01 X32.0018 Y42.8818
G01 X31.8991 Y42.9188
G01 X31.8886 Y42.9223
G01 X31.8780 Y42.9252
G01 X31.7720 Y42.9515
G01 X31.6640 Y42.9677
G01 X31.6531 Y42.9691
G01 X31.6421 Y42.9699
G01 X31.5330 Y42.9750
G01 X31.4239 Y42.9699
G01 X31.4129 Y42.9691
G01 X31.4020 Y42.9677
G01 X31.2940 Y42.9515
G01 X31.1880 Y42.9252
G01 X31.1774 Y42.9223
G01 X31.0745 Y42.8857
G01 X31.0642 Y42.8818
G01 X31.0541 Y42.8773
G01 X30.9555 Y42.8304
G01 X30.8618 Y42.7745
G01 X30.8524 Y42.7686
G01 X30.8434 Y42.7622
G01 X30.7559 Y42.6969
G01 X30.6748 Y42.6238
G01 X30.6668 Y42.6162
G01 X30.6592 Y42.6082
G01 X30.5861 Y42.5271
G01 X30.5208 Y42.4396
G01 X30.5144 Y42.4306
G01 X30.5085 Y42.4212
G01 X30.4581 Y42.3371
G01 X30.4515 Y42.3252
G01 X18.8663 Y42.3252
G01 X18.8171 Y42.3915
G01 X18.8103 Y42.4003
G01 X18.8031 Y42.4086
G01 X18.7428 Y42.4748
G01 X18.6766 Y42.5351
G01 X18.6683 Y42.5423
G01 X18.6595 Y42.5491
G01 X18.5875 Y42.6023
G01 X18.5781 Y42.6082
G01 X18.5012 Y42.6540
G01 X18.4203 Y42.6925
G01 X18.4103 Y42.6970
G01 X18.3260 Y42.7274
G01 X18.3155 Y42.7309
G01 X18.3049 Y42.7338
G01 X18.2180 Y42.7553
G01 X18.1294 Y42.7687
G01 X18.1185 Y42.7701
G01 X18.1075 Y42.7709
G01 X18.0235 Y42.7749
G01 X18.0070 Y42.7747
G01 X17.9175 Y42.7701
G01 X17.8289 Y42.7572
G01 X17.8180 Y42.7553
G01 X17.8073 Y42.7529
G01 X17.7311 Y42.7338
G01 X17.7205 Y42.7309
G01 X17.7100 Y42.7274
G01 X17.6257 Y42.6970
G01 X17.6157 Y42.6925
G01 X17.5348 Y42.6540
G01 X17.4579 Y42.6082
G01 X17.4485 Y42.6023
G01 X17.3765 Y42.5491
G01 X17.3677 Y42.5423
G01 X17.3594 Y42.5351
G01 X17.3012 Y42.4824
G01 X17.2932 Y42.4748
G01 X17.2856 Y42.4668
G01 X17.2257 Y42.4003
G01 X17.1721 Y42.3285
G01 X17.1657 Y42.3195
G01 X17.1598 Y42.3101
G01 X17.1140 Y42.2332
G01 X17.0755 Y42.1523
G01 X17.0710 Y42.1423
G01 X17.0406 Y42.0580
G01 X17.0371 Y42.0475
G01 X17.0151 Y41.9607
G01 X17.0117 Y41.9445
G01 X16.9979 Y41.8505
G01 X16.9933 Y41.7610
G01 X16.9930 Y41.7500
G01 X16.9933 Y41.7390
G01 X16.9979 Y41.6495
G01 X17.0117 Y41.5555
G01 X17.0151 Y41.5393
G01 X17.0371 Y41.4525
G01 X17.0690 Y41.3629
G01 X17.0755 Y41.3477
G01 X17.1115 Y41.2717
G01 X17.1195 Y41.2572
G01 X17.1391 Y41.2245
G01 X13.9796 Y38.0650
G01 X12.9680 Y38.0650
G01 X12.9514 Y38.0644
G01 X12.9405 Y38.0633
G01 X12.9295 Y38.0617
G01 X12.9187 Y38.0595
G01 X12.9027 Y38.0553
G01 X12.8922 Y38.0518
G01 X12.8768 Y38.0457
G01 X12.8668 Y38.0410
G01 X12.8571 Y38.0358
G01 X12.8476 Y38.0301
G01 X12.8384 Y38.0240
G01 X12.8253 Y38.0139
G01 X12.8169 Y38.0067
G01 X12.8089 Y37.9991
G01 X12.8013 Y37.9911
G01 X12.7906 Y37.9784
G01 X12.7840 Y37.9696
G01 X12.7750 Y37.9557
G01 X12.7670 Y37.9412
G01 X12.7623 Y37.9312
G01 X12.7581 Y37.9210
G01 X12.7527 Y37.9053
G01 X12.7485 Y37.8893
G01 X12.7454 Y37.8730
G01 X12.7436 Y37.8566
G01 X12.7430 Y37.8400
G01 X12.7431 Y36.2345
G01 X12.7441 Y36.2179
G01 X12.7463 Y36.2015
G01 X12.7497 Y36.1853
G01 X12.7527 Y36.1747
G01 X12.7581 Y36.1590
G01 X12.7646 Y36.1438
G01 X12.7722 Y36.1291
G01 X12.7809 Y36.1150
G01 X12.7873 Y36.1060
G01 X12.7941 Y36.0973
G01 X12.8050 Y36.0849
G01 X12.8129 Y36.0770
G01 X12.8210 Y36.0696
G01 X12.8340 Y36.0593
G01 X12.8430 Y36.0529
G01 X12.8571 Y36.0442
G01 X12.8718 Y36.0366
G01 X12.8819 Y36.0321
G01 X12.8974 Y36.0264
G01 X12.9080 Y36.0232
G01 X12.9187 Y36.0205
G01 X12.9350 Y36.0174
G01 X12.9514 Y36.0156
G01 X12.9625 Y36.0151
G01 X14.5735 Y36.0151
G01 X14.5846 Y36.0156
G01 X14.5955 Y36.0167
G01 X14.6119 Y36.0193
G01 X14.6227 Y36.0217
G01 X14.6333 Y36.0247
G01 X14.6490 Y36.0301
G01 X14.6592 Y36.0343
G01 X14.6692 Y36.0390
G01 X14.6837 Y36.0470
G01 X14.6976 Y36.0560
G01 X14.7107 Y36.0661
G01 X14.7191 Y36.0733
G01 X14.7271 Y36.0809
G01 X14.7384 Y36.0930
G01 X14.7454 Y36.1016
G01 X14.7520 Y36.1104
G01 X14.7581 Y36.1196
G01 X14.7638 Y36.1291
G01 X14.7690 Y36.1388
G01 X14.7737 Y36.1488
G01 X14.7779 Y36.1590
G01 X14.7816 Y36.1694
G01 X14.7848 Y36.1800
G01 X14.7875 Y36.1907
G01 X14.7897 Y36.2015
G01 X14.7913 Y36.2125
G01 X14.7924 Y36.2234
G01 X14.7930 Y36.2400
G01 X14.7930 Y37.2516
G01 X18.2525 Y40.7111
G01 X18.2869 Y40.7487
G01 X18.2996 Y40.7649
G01 X18.3155 Y40.7691
G01 X18.3260 Y40.7726
G01 X18.3999 Y40.7990
G01 X18.4103 Y40.8030
G01 X18.4203 Y40.8075
G01 X18.5012 Y40.8460
G01 X18.5781 Y40.8918
G01 X18.5875 Y40.8977
G01 X18.5965 Y40.9041
G01 X18.6683 Y40.9577
G01 X18.7348 Y41.0176
G01 X18.7428 Y41.0252
G01 X18.7504 Y41.0332
G01 X18.8103 Y41.0997
G01 X18.8663 Y41.1748
G01 X20.9228 Y41.1748
G01 X20.9228 Y38.6905
G01 X20.8952 Y38.6528
G01 X20.8613 Y38.5966
G01 X20.8536 Y38.5819
G01 X20.8327 Y38.5375
G01 X20.8261 Y38.5223
G01 X20.8042 Y38.4605
G01 X20.7894 Y38.4022
G01 X20.7869 Y38.3914
G01 X20.7850 Y38.3806
G01 X20.7778 Y38.3320
G01 X20.7760 Y38.3156
G01 X20.7730 Y38.2500
G01 X20.7730 Y37.2500
G01 X20.7733 Y37.2390
G01 X20.7765 Y37.1789
G01 X20.7850 Y37.1194
G01 X20.7881 Y37.1032
G01 X20.8042 Y37.0395
G01 X20.8242 Y36.9829
G01 X20.8282 Y36.9726
G01 X20.8327 Y36.9625
G01 X20.8586 Y36.9082
G01 X20.8893 Y36.8565
G01 X20.8952 Y36.8472
G01 X20.9015 Y36.8382
G01 X20.9376 Y36.7901
G01 X20.9777 Y36.7453
G01 X20.9853 Y36.7373
G01 X20.9933 Y36.7297
G01 X21.0381 Y36.6896
G01 X21.0862 Y36.6535
G01 X21.0952 Y36.6472
G01 X21.1045 Y36.6413
G01 X21.1562 Y36.6106
G01 X21.1661 Y36.6056
G01 X21.2206 Y36.5802
G01 X21.2771 Y36.5597
G01 X21.2928 Y36.5547
G01 X21.3458 Y36.5414
G01 X21.3566 Y36.5389
G01 X21.3674 Y36.5370
G01 X21.4269 Y36.5285
G01 X21.4870 Y36.5253
G01 X21.4980 Y36.5250
G01 X21.5090 Y36.5253
G01 X21.5691 Y36.5285
G01 X21.6286 Y36.5370
G01 X21.6394 Y36.5389
G01 X21.6502 Y36.5414
G01 X21.6978 Y36.5533
G01 X21.7137 Y36.5579
G01 X21.7754 Y36.5802
G01 X21.8299 Y36.6056
G01 X21.8446 Y36.6133
G01 X21.8915 Y36.6413
G01 X21.9008 Y36.6472
G01 X21.9098 Y36.6535
G01 X21.9579 Y36.6896
G01 X22.0067 Y36.7335
G01 X22.0183 Y36.7453
G01 X22.0512 Y36.7817
G01 X22.0584 Y36.7901
G01 X22.0652 Y36.7988
G01 X22.1008 Y36.8472
G01 X22.1330 Y36.9004
G01 X22.1652 Y36.8472
G01 X22.1928 Y36.8095
G01 X22.1928 Y35.2382
G01 X21.2798 Y34.3252
G01 X18.8663 Y34.3252
G01 X18.8103 Y34.4003
G01 X18.7504 Y34.4668
G01 X18.7428 Y34.4748
G01 X18.7348 Y34.4824
G01 X18.6683 Y34.5423
G01 X18.5965 Y34.5959
G01 X18.5875 Y34.6023
G01 X18.5781 Y34.6082
G01 X18.5108 Y34.6485
G01 X18.5012 Y34.6540
G01 X18.4913 Y34.6589
G01 X18.4103 Y34.6970
G01 X18.3260 Y34.7274
G01 X18.3155 Y34.7309
G01 X18.3049 Y34.7338
G01 X18.2180 Y34.7553
G01 X18.2071 Y34.7572
G01 X18.1185 Y34.7701
G01 X18.0290 Y34.7747
G01 X18.0180 Y34.7750
G01 X17.9285 Y34.7709
G01 X17.9175 Y34.7701
G01 X17.9066 Y34.7687
G01 X17.8289 Y34.7572
G01 X17.8180 Y34.7553
G01 X17.8073 Y34.7529
G01 X17.7205 Y34.7309
G01 X17.6361 Y34.7010
G01 X17.6207 Y34.6948
G01 X17.5348 Y34.6540
G01 X17.4579 Y34.6082
G01 X17.4485 Y34.6023
G01 X17.4395 Y34.5959
G01 X17.3677 Y34.5423
G01 X17.3012 Y34.4824
G01 X17.2932 Y34.4748
G01 X17.2856 Y34.4668
G01 X17.2329 Y34.4086
G01 X17.2257 Y34.4003
G01 X17.2189 Y34.3915
G01 X17.1657 Y34.3195
G01 X17.1598 Y34.3101
G01 X17.1140 Y34.2332
G01 X17.0755 Y34.1523
G01 X17.0710 Y34.1423
G01 X17.0406 Y34.0580
G01 X17.0371 Y34.0475
G01 X17.0342 Y34.0369
G01 X17.0151 Y33.9607
G01 X17.0127 Y33.9500
G01 X17.0108 Y33.9391
G01 X16.9979 Y33.8505
G01 X16.9933 Y33.7610
G01 X16.9930 Y33.7500
G01 X16.9933 Y33.7390
G01 X16.9979 Y33.6495
G01 X17.0115 Y33.5569
G01 X15.9898 Y32.5352
G01 X14.6163 Y32.5352
G01 X14.5603 Y32.6103
G01 X14.5004 Y32.6768
G01 X14.4928 Y32.6848
G01 X14.4848 Y32.6924
G01 X14.4183 Y32.7523
G01 X14.3465 Y32.8059
G01 X14.3375 Y32.8123
G01 X14.3281 Y32.8182
G01 X14.2608 Y32.8585
G01 X14.2512 Y32.8640
G01 X14.2413 Y32.8689
G01 X14.1603 Y32.9070
G01 X14.0760 Y32.9374
G01 X14.0655 Y32.9409
G01 X14.0549 Y32.9438
G01 X13.9680 Y32.9653
G01 X13.8740 Y32.9795
G01 X13.8575 Y32.9809
G01 X13.7790 Y32.9847
G01 X13.7680 Y32.9850
G01 X13.7570 Y32.9847
G01 X13.6675 Y32.9801
G01 X13.5789 Y32.9672
G01 X13.5680 Y32.9653
G01 X13.4811 Y32.9438
G01 X13.4705 Y32.9409
G01 X13.4600 Y32.9374
G01 X13.3757 Y32.9070
G01 X13.2947 Y32.8689
G01 X13.2848 Y32.8640
G01 X13.2752 Y32.8585
G01 X13.2079 Y32.8182
G01 X13.1985 Y32.8123
G01 X13.1895 Y32.8059
G01 X13.1177 Y32.7523
G01 X13.0512 Y32.6924
G01 X13.0432 Y32.6848
G01 X13.0356 Y32.6768
G01 X12.9757 Y32.6103
G01 X12.9221 Y32.5385
G01 X12.9157 Y32.5295
G01 X12.9098 Y32.5201
G01 X12.8695 Y32.4528
G01 X12.8640 Y32.4432
G01 X12.8565 Y32.4279
G01 X9.8283 Y29.3997
G01 X9.7712 Y29.3371
G01 X9.7640 Y29.3288
G01 X9.7572 Y29.3201
G01 X9.7070 Y29.2519
G01 X9.6632 Y29.1794
G01 X9.6578 Y29.1698
G01 X9.6213 Y29.0934
G01 X9.6169 Y29.0833
G01 X9.6129 Y29.0730
G01 X9.5846 Y28.9931
G01 X9.5638 Y28.9111
G01 X9.5614 Y28.9003
G01 X9.5595 Y28.8894
G01 X9.5473 Y28.8056
G01 X9.5429 Y28.7210
G01 X9.5426 Y28.7100
G01 X9.5426 Y10.8830
G00 X9.5426 Y10.8830
G01 F60.00
G01 Z-0.0600
G01 F180.00
G01 X9.5017 Y10.7960
G01 X9.4688 Y10.7048
G01 X9.4654 Y10.6943
G01 X9.4624 Y10.6837
G01 X9.4391 Y10.5896
G01 X9.4246 Y10.4938
G01 X9.4233 Y10.4828
G01 X9.4225 Y10.4718
G01 X9.4180 Y10.3750
G01 X9.4180 Y9.6250
G01 X9.4228 Y9.5227
G01 X9.4246 Y9.5062
G01 X9.4372 Y9.4213
G01 X9.4391 Y9.4104
G01 X9.4416 Y9.3996
G01 X9.4654 Y9.3057
G01 X9.4688 Y9.2952
G01 X9.5017 Y9.2040
G01 X9.5429 Y9.1163
G01 X9.5479 Y9.1065
G01 X9.5533 Y9.0969
G01 X9.6034 Y9.0139
G01 X9.6642 Y8.9315
G01 X9.6749 Y8.9188
G01 X9.7402 Y8.8472
G01 X9.7482 Y8.8396
G01 X9.8202 Y8.7747
G01 X9.8978 Y8.7167
G01 X9.9069 Y8.7104
G01 X9.9162 Y8.7045
G01 X9.9995 Y8.6549
G01 X10.0870 Y8.6132
G01 X10.0970 Y8.6087
G01 X10.1882 Y8.5758
G01 X10.1987 Y8.5724
G01 X10.2093 Y8.5694
G01 X10.3034 Y8.5461
G01 X10.3992 Y8.5316
G01 X10.4102 Y8.5303
G01 X10.4212 Y8.5295
G01 X10.5180 Y8.5250
G01 X10.6148 Y8.5295
G01 X10.6258 Y8.5303
G01 X10.6368 Y8.5316
G01 X10.7326 Y8.5461
G01 X10.8267 Y8.5694
G01 X10.8373 Y8.5724
G01 X10.8478 Y8.5758
G01 X10.9390 Y8.6087
G01 X11.0267 Y8.6499
G01 X11.0365 Y8.6549
G01 X11.1198 Y8.7045
G01 X11.1291 Y8.7104
G01 X11.2115 Y8.7712
G01 X11.2242 Y8.7819
G01 X11.2958 Y8.8472
G01 X11.3034 Y8.8552
G01 X11.3683 Y8.9272
G01 X11.4263 Y9.0048
G01 X11.4326 Y9.0139
G01 X11.4827 Y9.0969
G01 X11.4881 Y9.1065
G01 X11.4931 Y9.1163
G01 X11.5343 Y9.2040
G01 X11.5672 Y9.2952
G01 X11.5706 Y9.3057
G01 X11.5736 Y9.3163
G01 X11.5944 Y9.3996
G01 X11.5969 Y9.4104
G01 X11.5988 Y9.4213
G01 X11.6127 Y9.5172
G01 X11.6179 Y9.6195
G01 X11.6180 Y10.3750
G01 X11.6135 Y10.4718
G01 X11.6127 Y10.4828
G01 X11.6114 Y10.4938
G01 X11.5969 Y10.5896
G01 X11.5736 Y10.6837
G01 X11.5706 Y10.6943
G01 X11.5672 Y10.7048
G01 X11.5343 Y10.7960
G01 X11.4934 Y10.8830
G01 X11.4934 Y20.3460
G01 X12.6529 Y21.5055
G01 X13.5237 Y21.5055
G01 X13.5573 Y21.4971
G01 X13.5735 Y21.4937
G01 X13.6566 Y21.4813
G01 X13.6730 Y21.4795
G01 X13.7680 Y21.4750
G01 X13.8630 Y21.4795
G01 X13.8794 Y21.4813
G01 X13.9680 Y21.4947
G01 X14.0549 Y21.5162
G01 X14.0655 Y21.5191
G01 X14.0760 Y21.5226
G01 X14.1603 Y21.5530
G01 X14.2413 Y21.5911
G01 X14.2512 Y21.5960
G01 X14.2608 Y21.6015
G01 X14.3375 Y21.6477
G01 X14.3465 Y21.6541
G01 X14.4183 Y21.7077
G01 X14.4848 Y21.7676
G01 X14.4928 Y21.7752
G01 X14.5004 Y21.7832
G01 X14.5603 Y21.8497
G01 X14.6139 Y21.9215
G01 X14.6203 Y21.9305
G01 X14.6262 Y21.9399
G01 X14.6720 Y22.0168
G01 X14.7105 Y22.0977
G01 X14.7150 Y22.1077
G01 X14.7454 Y22.1920
G01 X14.7489 Y22.2025
G01 X14.7518 Y22.2131
G01 X14.7733 Y22.3000
G01 X14.7867 Y22.3886
G01 X14.7881 Y22.3995
G01 X14.7889 Y22.4105
G01 X14.7929 Y22.4945
G01 X14.7927 Y22.5110
G01 X14.7881 Y22.6005
G01 X14.7752 Y22.6891
G01 X14.7733 Y22.7000
G01 X14.7709 Y22.7107
G01 X14.7518 Y22.7869
G01 X14.7489 Y22.7975
G01 X14.7454 Y22.8080
G01 X14.7150 Y22.8923
G01 X14.7105 Y22.9023
G01 X14.6720 Y22.9832
G01 X14.6262 Y23.0601
G01 X14.6203 Y23.0695
G01 X14.6139 Y23.0785
G01 X14.5603 Y23.1503
G01 X14.5004 Y23.2168
G01 X14.4928 Y23.2248
G01 X14.4848 Y23.2324
G01 X14.4183 Y23.2923
G01 X14.3465 Y23.3459
G01 X14.3375 Y23.3523
G01 X14.2608 Y23.3985
G01 X14.2512 Y23.4040
G01 X14.2413 Y23.4089
G01 X14.1703 Y23.4425
G01 X14.1603 Y23.4470
G01 X14.1499 Y23.4510
G01 X14.0655 Y23.4809
G01 X13.9787 Y23.5029
G01 X13.9625 Y23.5063
G01 X13.8685 Y23.5201
G01 X13.7790 Y23.5247
G01 X13.7680 Y23.5250
G01 X13.7570 Y23.5247
G01 X13.6675 Y23.5201
G01 X13.5789 Y23.5072
G01 X13.5680 Y23.5053
G01 X13.5573 Y23.5029
G01 X13.4705 Y23.4809
G01 X13.4009 Y23.4563
G01 X12.2434 Y23.4562
G01 X12.1533 Y23.4516
G01 X12.0640 Y23.4385
G01 X12.0478 Y23.4351
G01 X11.9658 Y23.4143
G01 X11.8859 Y23.3860
G01 X11.8756 Y23.3820
G01 X11.8655 Y23.3776
G01 X11.7990 Y23.3461
G01 X11.7891 Y23.3411
G01 X11.7795 Y23.3357
G01 X11.7070 Y23.2919
G01 X11.6388 Y23.2417
G01 X11.6301 Y23.2349
G01 X11.5632 Y23.1745
G01 X11.4934 Y23.1048
G01 X11.4934 Y28.3060
G01 X14.2359 Y31.0485
G01 X14.2512 Y31.0560
G01 X14.2608 Y31.0615
G01 X14.3375 Y31.1077
G01 X14.4095 Y31.1609
G01 X14.4225 Y31.1712
G01 X14.4848 Y31.2276
G01 X14.4928 Y31.2352
G01 X14.5004 Y31.2432
G01 X14.5603 Y31.3097
G01 X14.6163 Y31.3848
G01 X16.2335 Y31.3849
G01 X16.2844 Y31.3876
G01 X16.2953 Y31.3889
G01 X16.3402 Y31.3959
G01 X16.3843 Y31.4066
G01 X16.3950 Y31.4096
G01 X16.4055 Y31.4131
G01 X16.4481 Y31.4286
G01 X16.4893 Y31.4478
G01 X16.4991 Y31.4527
G01 X16.5087 Y31.4582
G01 X16.5476 Y31.4818
G01 X16.5842 Y31.5086
G01 X16.5929 Y31.5154
G01 X16.6308 Y31.5494
G01 X17.8249 Y32.7435
G01 X17.9175 Y32.7299
G01 X18.0070 Y32.7253
G01 X18.0180 Y32.7250
G01 X18.0290 Y32.7253
G01 X18.1185 Y32.7299
G01 X18.2071 Y32.7428
G01 X18.2180 Y32.7447
G01 X18.3049 Y32.7662
G01 X18.3155 Y32.7691
G01 X18.3260 Y32.7726
G01 X18.4103 Y32.8030
G01 X18.4203 Y32.8075
G01 X18.5012 Y32.8460
G01 X18.5781 Y32.8918
G01 X18.5875 Y32.8977
G01 X18.5965 Y32.9041
G01 X18.6683 Y32.9577
G01 X18.7348 Y33.0176
G01 X18.7428 Y33.0252
G01 X18.7504 Y33.0332
G01 X18.8103 Y33.0997
G01 X18.8663 Y33.1748
G01 X21.2798 Y33.1748
G01 X25.1152 Y29.3394
G01 X25.1489 Y29.3089
G01 X25.1618 Y29.2986
G01 X25.1984 Y29.2718
G01 X25.2373 Y29.2482
G01 X25.2469 Y29.2427
G01 X25.2567 Y29.2378
G01 X25.2979 Y29.2186
G01 X25.3405 Y29.2031
G01 X25.3563 Y29.1981
G01 X25.4058 Y29.1859
G01 X25.4507 Y29.1789
G01 X25.4616 Y29.1776
G01 X25.4726 Y29.1768
G01 X25.5180 Y29.1748
G01 X36.1480 Y29.1748
G01 X36.1934 Y29.1768
G01 X36.2044 Y29.1776
G01 X36.2153 Y29.1789
G01 X36.2602 Y29.1859
G01 X36.3043 Y29.1966
G01 X36.3150 Y29.1996
G01 X36.3255 Y29.2031
G01 X36.3681 Y29.2186
G01 X36.4093 Y29.2378
G01 X36.4191 Y29.2427
G01 X36.4287 Y29.2482
G01 X36.4582 Y29.2659
G01 X36.4721 Y29.2749
G01 X36.5129 Y29.3054
G01 X36.5508 Y29.3394
G01 X40.9338 Y33.7224
G01 X40.9765 Y33.7160
G01 X40.9929 Y33.7142
G01 X41.0775 Y33.7101
G01 X41.0940 Y33.7103
G01 X41.1731 Y33.7142
G01 X41.1895 Y33.7160
G01 X41.2732 Y33.7287
G01 X41.3554 Y33.7490
G01 X41.3713 Y33.7537
G01 X41.4458 Y33.7802
G01 X41.4561 Y33.7842
G01 X41.4662 Y33.7887
G01 X41.5426 Y33.8251
G01 X41.6154 Y33.8684
G01 X41.6247 Y33.8743
G01 X41.6337 Y33.8807
G01 X41.7015 Y33.9313
G01 X41.7644 Y33.9880
G01 X41.7724 Y33.9956
G01 X41.7800 Y34.0036
G01 X41.8367 Y34.0665
G01 X41.8873 Y34.1343
G01 X41.8937 Y34.1433
G01 X41.9374 Y34.2158
G01 X41.9429 Y34.2254
G01 X41.9478 Y34.2353
G01 X41.9838 Y34.3119
G01 X42.0126 Y34.3915
G01 X42.0160 Y34.4020
G01 X42.0190 Y34.4126
G01 X42.0393 Y34.4948
G01 X42.0520 Y34.5785
G01 X42.0533 Y34.5894
G01 X42.0577 Y34.6740
G01 X42.0580 Y34.6850
G01 X42.0577 Y34.6960
G01 X42.0541 Y34.7696
G01 X42.0533 Y34.7806
G01 X42.0520 Y34.7915
G01 X42.0393 Y34.8752
G01 X42.0190 Y34.9574
G01 X42.0160 Y34.9680
G01 X42.0126 Y34.9785
G01 X41.9838 Y35.0581
G01 X41.9478 Y35.1347
G01 X41.9429 Y35.1446
G01 X41.9374 Y35.1542
G01 X41.8937 Y35.2267
G01 X41.8435 Y35.2948
G01 X41.8367 Y35.3035
G01 X41.8295 Y35.3119
G01 X41.7724 Y35.3744
G01 X41.7644 Y35.3820
G01 X41.7015 Y35.4387
G01 X41.6337 Y35.4893
G01 X41.6247 Y35.4957
G01 X41.5522 Y35.5394
G01 X41.5426 Y35.5449
G01 X41.5327 Y35.5498
G01 X41.4561 Y35.5858
G01 X41.3765 Y35.6146
G01 X41.3660 Y35.6180
G01 X41.3554 Y35.6210
G01 X41.2732 Y35.6413
G01 X41.1895 Y35.6540
G01 X41.1786 Y35.6553
G01 X41.1676 Y35.6561
G01 X41.0830 Y35.6600
G01 X40.9984 Y35.6561
G01 X40.9874 Y35.6553
G01 X40.9765 Y35.6540
G01 X40.8928 Y35.6413
G01 X40.8106 Y35.6210
G01 X40.8000 Y35.6180
G01 X40.7895 Y35.6146
G01 X40.7099 Y35.5858
G01 X40.6333 Y35.5498
G01 X40.6234 Y35.5449
G01 X40.6138 Y35.5394
G01 X40.5413 Y35.4957
G01 X40.5323 Y35.4893
G01 X40.4645 Y35.4387
G01 X40.4016 Y35.3820
G01 X40.3936 Y35.3744
G01 X40.3860 Y35.3664
G01 X40.3293 Y35.3035
G01 X40.2787 Y35.2357
G01 X40.2723 Y35.2267
G01 X40.2664 Y35.2174
G01 X40.2231 Y35.1446
G01 X40.1867 Y35.0682
G01 X40.1802 Y35.0530
G01 X40.1534 Y34.9785
G01 X40.1500 Y34.9680
G01 X40.1470 Y34.9574
G01 X40.1267 Y34.8752
G01 X40.1133 Y34.7861
G01 X40.1119 Y34.7696
G01 X40.1083 Y34.6960
G01 X40.1081 Y34.6795
G01 X40.1122 Y34.5949
G01 X40.1140 Y34.5785
G01 X40.1204 Y34.5358
G01 X35.9098 Y30.3252
G01 X25.7562 Y30.3252
G01 X22.3314 Y33.7500
G01 X23.1747 Y34.5933
G01 X23.1823 Y34.6013
G01 X23.2091 Y34.6309
G01 X23.2194 Y34.6438
G01 X23.2462 Y34.6804
G01 X23.2698 Y34.7193
G01 X23.2778 Y34.7338
G01 X23.2972 Y34.7748
G01 X23.3034 Y34.7902
G01 X23.3167 Y34.8278
G01 X23.3214 Y34.8437
G01 X23.3297 Y34.8770
G01 X23.3321 Y34.8878
G01 X23.3340 Y34.8987
G01 X23.3404 Y34.9436
G01 X23.3431 Y34.9945
G01 X23.3432 Y36.8095
G01 X23.3708 Y36.8472
G01 X23.4030 Y36.9004
G01 X23.4352 Y36.8472
G01 X23.4708 Y36.7988
G01 X23.4776 Y36.7901
G01 X23.4848 Y36.7817
G01 X23.5253 Y36.7373
G01 X23.5333 Y36.7297
G01 X23.5781 Y36.6896
G01 X23.6262 Y36.6535
G01 X23.6352 Y36.6472
G01 X23.6445 Y36.6413
G01 X23.6962 Y36.6106
G01 X23.7061 Y36.6056
G01 X23.7606 Y36.5802
G01 X23.8171 Y36.5597
G01 X23.8275 Y36.5562
G01 X23.8382 Y36.5533
G01 X23.8966 Y36.5389
G01 X23.9560 Y36.5298
G01 X23.9669 Y36.5285
G01 X23.9780 Y36.5277
G01 X24.0380 Y36.5250
G01 X24.0980 Y36.5277
G01 X24.1091 Y36.5285
G01 X24.1200 Y36.5298
G01 X24.1794 Y36.5389
G01 X24.2378 Y36.5533
G01 X24.2485 Y36.5562
G01 X24.2589 Y36.5597
G01 X24.3154 Y36.5802
G01 X24.3749 Y36.6081
G01 X24.3894 Y36.6161
G01 X24.4315 Y36.6413
G01 X24.4408 Y36.6472
G01 X24.4498 Y36.6535
G01 X24.4979 Y36.6896
G01 X24.5427 Y36.7297
G01 X24.5507 Y36.7373
G01 X24.5583 Y36.7453
G01 X24.5984 Y36.7901
G01 X24.6345 Y36.8382
G01 X24.6408 Y36.8472
G01 X24.6467 Y36.8565
G01 X24.6774 Y36.9082
G01 X24.7056 Y36.9675
G01 X24.7118 Y36.9829
G01 X24.7318 Y37.0395
G01 X24.7466 Y37.0978
G01 X24.7491 Y37.1086
G01 X24.7510 Y37.1194
G01 X24.7595 Y37.1789
G01 X24.7627 Y37.2390
G01 X24.7630 Y37.2500
G01 X24.7630 Y38.2500
G01 X24.7600 Y38.3156
G01 X24.7582 Y38.3320
G01 X24.7510 Y38.3806
G01 X24.7491 Y38.3914
G01 X24.7466 Y38.4022
G01 X24.7318 Y38.4605
G01 X24.7099 Y38.5223
G01 X24.7033 Y38.5375
G01 X24.6774 Y38.5918
G01 X24.6467 Y38.6435
G01 X24.6408 Y38.6528
G01 X24.6345 Y38.6618
G01 X24.6052 Y38.7012
G01 X24.5932 Y38.7161
G01 X24.5932 Y38.7618
G01 X25.0062 Y39.1748
G01 X26.4197 Y39.1748
G01 X26.4757 Y39.0997
G01 X26.5356 Y39.0332
G01 X26.5432 Y39.0252
G01 X26.5512 Y39.0176
G01 X26.6094 Y38.9649
G01 X26.6177 Y38.9577
G01 X26.6265 Y38.9509
G01 X26.6985 Y38.8977
G01 X26.7079 Y38.8918
G01 X26.7848 Y38.8460
G01 X26.8657 Y38.8075
G01 X26.8757 Y38.8030
G01 X26.9600 Y38.7726
G01 X26.9705 Y38.7691
G01 X26.9811 Y38.7662
G01 X27.0573 Y38.7471
G01 X27.0680 Y38.7447
G01 X27.0789 Y38.7428
G01 X27.1675 Y38.7299
G01 X27.2570 Y38.7253
G01 X27.2680 Y38.7250
G01 X27.2790 Y38.7253
G01 X27.3685 Y38.7299
G01 X27.4571 Y38.7428
G01 X27.4680 Y38.7447
G01 X27.4787 Y38.7471
G01 X27.5549 Y38.7662
G01 X27.5655 Y38.7691
G01 X27.5760 Y38.7726
G01 X27.6603 Y38.8030
G01 X27.6703 Y38.8075
G01 X27.7512 Y38.8460
G01 X27.8281 Y38.8918
G01 X27.8375 Y38.8977
G01 X27.8465 Y38.9041
G01 X27.9183 Y38.9577
G01 X27.9848 Y39.0176
G01 X27.9928 Y39.0252
G01 X28.0004 Y39.0332
G01 X28.0603 Y39.0997
G01 X28.1139 Y39.1715
G01 X28.1203 Y39.1805
G01 X28.1262 Y39.1899
G01 X28.1720 Y39.2668
G01 X28.2105 Y39.3477
G01 X28.2150 Y39.3577
G01 X28.2454 Y39.4420
G01 X28.2489 Y39.4525
G01 X28.2518 Y39.4631
G01 X28.2733 Y39.5500
G01 X28.2752 Y39.5609
G01 X28.2881 Y39.6495
G01 X28.2927 Y39.7390
G01 X28.2930 Y39.7500
G01 X28.2927 Y39.7610
G01 X28.2881 Y39.8505
G01 X28.2752 Y39.9391
G01 X28.2733 Y39.9500
G01 X28.2518 Y40.0369
G01 X28.2472 Y40.0528
G01 X28.2150 Y40.1423
G01 X28.1769 Y40.2233
G01 X28.1720 Y40.2332
G01 X28.1665 Y40.2428
G01 X28.1203 Y40.3195
G01 X28.0671 Y40.3915
G01 X28.0603 Y40.4003
G01 X28.0531 Y40.4086
G01 X27.9928 Y40.4748
G01 X27.9848 Y40.4824
G01 X27.9183 Y40.5423
G01 X27.8465 Y40.5959
G01 X27.8375 Y40.6023
G01 X27.8281 Y40.6082
G01 X27.7512 Y40.6540
G01 X27.6703 Y40.6925
G01 X27.6603 Y40.6970
G01 X27.5760 Y40.7274
G01 X27.5655 Y40.7309
G01 X27.4787 Y40.7529
G01 X27.4680 Y40.7553
G01 X27.4571 Y40.7572
G01 X27.3794 Y40.7687
G01 X27.3630 Y40.7705
G01 X27.2790 Y40.7747
G01 X27.2680 Y40.7750
G01 X27.2570 Y40.7747
G01 X27.1675 Y40.7701
G01 X27.0789 Y40.7572
G01 X27.0680 Y40.7553
G01 X27.0573 Y40.7529
G01 X26.9705 Y40.7309
G01 X26.8861 Y40.7010
G01 X26.8757 Y40.6970
G01 X26.8657 Y40.6925
G01 X26.7848 Y40.6540
G01 X26.7079 Y40.6082
G01 X26.6985 Y40.6023
G01 X26.6895 Y40.5959
G01 X26.6177 Y40.5423
G01 X26.5512 Y40.4824
G01 X26.5432 Y40.4748
G01 X26.5356 Y40.4668
G01 X26.4757 Y40.4003
G01 X26.4197 Y40.3252
G01 X24.7680 Y40.3252
G01 X24.7226 Y40.3232
G01 X24.7116 Y40.3224
G01 X24.6667 Y40.3160
G01 X24.6558 Y40.3141
G01 X24.6450 Y40.3117
G01 X24.6010 Y40.3004
G01 X24.5582 Y40.2854
G01 X24.5428 Y40.2792
G01 X24.5018 Y40.2598
G01 X24.4873 Y40.2518
G01 X24.4484 Y40.2282
G01 X24.4118 Y40.2014
G01 X24.4031 Y40.1946
G01 X24.3948 Y40.1874
G01 X24.3613 Y40.1567
G01 X23.6113 Y39.4067
G01 X23.5806 Y39.3732
G01 X23.5734 Y39.3649
G01 X23.5461 Y39.3286
G01 X23.5398 Y39.3196
G01 X23.5339 Y39.3102
G01 X23.5107 Y39.2711
G01 X23.5058 Y39.2613
G01 X23.4866 Y39.2201
G01 X23.4711 Y39.1775
G01 X23.4676 Y39.1670
G01 X23.4646 Y39.1563
G01 X23.4539 Y39.1122
G01 X23.4469 Y39.0673
G01 X23.4456 Y39.0564
G01 X23.4429 Y39.0055
G01 X23.4428 Y38.6635
G01 X23.4322 Y38.6482
G01 X23.4030 Y38.5996
G01 X23.3708 Y38.6528
G01 X23.3352 Y38.7012
G01 X23.3284 Y38.7099
G01 X23.3212 Y38.7183
G01 X23.2807 Y38.7627
G01 X23.2363 Y38.8032
G01 X23.2279 Y38.8104
G01 X23.2192 Y38.8172
G01 X23.1708 Y38.8528
G01 X23.1194 Y38.8839
G01 X23.1098 Y38.8894
G01 X23.0999 Y38.8944
G01 X23.0454 Y38.9198
G01 X22.9889 Y38.9403
G01 X22.9785 Y38.9438
G01 X22.9678 Y38.9467
G01 X22.9094 Y38.9611
G01 X22.8500 Y38.9702
G01 X22.8391 Y38.9715
G01 X22.8280 Y38.9723
G01 X22.7680 Y38.9750
G01 X22.7080 Y38.9723
G01 X22.6969 Y38.9715
G01 X22.6860 Y38.9702
G01 X22.6266 Y38.9611
G01 X22.5682 Y38.9467
G01 X22.5575 Y38.9438
G01 X22.5471 Y38.9403
G01 X22.4906 Y38.9198
G01 X22.4361 Y38.8944
G01 X22.4262 Y38.8894
G01 X22.4166 Y38.8839
G01 X22.3652 Y38.8528
G01 X22.3168 Y38.8172
G01 X22.3081 Y38.8104
G01 X22.2997 Y38.8032
G01 X22.2553 Y38.7627
G01 X22.2148 Y38.7183
G01 X22.2076 Y38.7099
G01 X22.2008 Y38.7012
G01 X22.1652 Y38.6528
G01 X22.1330 Y38.5996
G01 X22.1008 Y38.6528
G01 X22.0732 Y38.6905
G01 X22.0732 Y41.1748
G01 X30.4515 Y41.1748
G01 X30.4581 Y41.1629
G01 X30.5085 Y41.0788
G01 X30.5144 Y41.0694
G01 X30.5208 Y41.0604
G01 X30.5861 Y40.9729
G01 X30.6592 Y40.8918
G01 X30.6668 Y40.8838
G01 X30.7475 Y40.8103
G01 X30.7559 Y40.8031
G01 X30.7646 Y40.7963
G01 X30.8524 Y40.7314
G01 X30.8618 Y40.7255
G01 X30.9555 Y40.6696
G01 X31.0541 Y40.6227
G01 X31.0642 Y40.6182
G01 X31.0745 Y40.6143
G01 X31.1774 Y40.5777
G01 X31.1880 Y40.5748
G01 X31.2940 Y40.5485
G01 X31.4020 Y40.5323
G01 X31.4129 Y40.5309
G01 X31.5220 Y40.5253
G01 X31.5330 Y40.5250
G01 X31.5440 Y40.5253
G01 X31.6421 Y40.5301
G01 X31.6586 Y40.5315
G01 X31.7611 Y40.5467
G01 X31.7720 Y40.5485
G01 X31.7828 Y40.5510
G01 X31.8886 Y40.5777
G01 X31.9915 Y40.6143
G01 X32.0018 Y40.6182
G01 X32.0119 Y40.6227
G01 X32.1105 Y40.6696
G01 X32.2042 Y40.7255
G01 X32.2136 Y40.7314
G01 X32.2226 Y40.7378
G01 X32.3101 Y40.8031
G01 X32.3912 Y40.8762
G01 X32.3992 Y40.8838
G01 X32.4068 Y40.8918
G01 X32.4799 Y40.9729
G01 X32.5452 Y41.0604
G01 X32.5516 Y41.0694
G01 X32.5575 Y41.0788
G01 X32.6134 Y41.1725
G01 X32.6603 Y41.2711
G01 X32.6648 Y41.2812
G01 X32.6687 Y41.2915
G01 X32.7053 Y41.3944
G01 X32.7320 Y41.5002
G01 X32.7345 Y41.5110
G01 X32.7363 Y41.5219
G01 X32.7521 Y41.6299
G01 X32.7577 Y41.7390
G01 X32.7580 Y41.7500
G01 X32.7577 Y41.7610
G01 X32.7521 Y41.8701
G01 X32.7363 Y41.9781
G01 X32.7345 Y41.9890
G01 X32.7320 Y41.9998
G01 X32.7053 Y42.1056
G01 X32.6687 Y42.2085
G01 X32.6648 Y42.2188
G01 X32.6603 Y42.2289
G01 X32.6134 Y42.3275
G01 X32.5575 Y42.4212
G01 X32.5516 Y42.4306
G01 X32.5452 Y42.4396
G01 X32.4799 Y42.5271
G01 X32.4068 Y42.6082
G01 X32.3992 Y42.6162
G01 X32.3912 Y42.6238
G01 X32.3101 Y42.6969
G01 X32.2226 Y42.7622
G01 X32.2136 Y42.7686
G01 X32.2042 Y42.7745
G01 X32.1105 Y42.8304
G01 X32.0119 Y42.8773
G01 X32.0018 Y42.8818
G01 X31.8991 Y42.9188
G01 X31.8886 Y42.9223
G01 X31.8780 Y42.9252
G01 X31.7720 Y42.9515
G01 X31.6640 Y42.9677
G01 X31.6531 Y42.9691
G01 X31.6421 Y42.9699
G01 X31.5330 Y42.9750
G01 X31.4239 Y42.9699
G01 X31.4129 Y42.9691
G01 X31.4020 Y42.9677
G01 X31.2940 Y42.9515
G01 X31.1880 Y42.9252
G01 X31.1774 Y42.9223
G01 X31.0745 Y42.8857
G01 X31.0642 Y42.8818
G01 X31.0541 Y42.8773
G01 X30.9555 Y42.8304
G01 X30.8618 Y42.7745
G01 X30.8524 Y42.7686
G01 X30.8434 Y42.7622
G01 X30.7559 Y42.6969
G01 X30.6748 Y42.6238
G01 X30.6668 Y42.6162
G01 X30.6592 Y42.6082
G01 X30.5861 Y42.5271
G01 X30.5208 Y42.4396
G01 X30.5144 Y42.4306
G01 X30.5085 Y42.4212
G01 X30.4581 Y42.3371
G01 X30.4515 Y42.3252
G01 X18.8663 Y42.3252
G01 X18.8171 Y42.3915
G01 X18.8103 Y42.4003
G01 X18.8031 Y42.4086
G01 X18.7428 Y42.4748
G01 X18.6766 Y42.5351
G01 X18.6683 Y42.5423
G01 X18.6595 Y42.5491
G01 X18.5875 Y42.6023
G01 X18.5781 Y42.6082
G01 X18.5012 Y42.6540
G01 X18.4203 Y42.6925
G01 X18.4103 Y42.6970
G01 X18.3260 Y42.7274
G01 X18.3155 Y42.7309
G01 X18.3049 Y42.7338
G01 X18.2180 Y42.7553
G01 X18.1294 Y42.7687
G01 X18.1185 Y42.7701
G01 X18.1075 Y42.7709
G01 X18.0235 Y42.7749
G01 X18.0070 Y42.7747
G01 X17.9175 Y42.7701
G01 X17.8289 Y42.7572
G01 X17.8180 Y42.7553
G01 X17.8073 Y42.7529
G01 X17.7311 Y42.7338
G01 X17.7205 Y42.7309
G01 X17.7100 Y42.7274
G01 X17.6257 Y42.6970
G01 X17.6157 Y42.6925
G01 X17.5348 Y42.6540
G01 X17.4579 Y42.6082
G01 X17.4485 Y42.6023
G01 X17.3765 Y42.5491
G01 X17.3677 Y42.5423
G01 X17.3594 Y42.5351
G01 X17.3012 Y42.4824
G01 X17.2932 Y42.4748
G01 X17.2856 Y42.4668
G01 X17.2257 Y42.4003
G01 X17.1721 Y42.3285
G01 X17.1657 Y42.3195
G01 X17.1598 Y42.3101
G01 X17.1140 Y42.2332
G01 X17.0755 Y42.1523
G01 X17.0710 Y42.1423
G01 X17.0406 Y42.0580
G01 X17.0371 Y42.0475
G01 X17.0151 Y41.9607
G01 X17.0117 Y41.9445
G01 X16.9979 Y41.8505
G01 X16.9933 Y41.7610
G01 X16.9930 Y41.7500
G01 X16.9933 Y41.7390
G01 X16.9979 Y41.6495
G01 X17.0117 Y41.5555
G01 X17.0151 Y41.5393
G01 X17.0371 Y41.4525
G01 X17.0690 Y41.3629
G01 X17.0755 Y41.3477
G01 X17.1115 Y41.2717
G01 X17.1195 Y41.2572
G01 X17.1391 Y41.2245
G01 X13.9796 Y38.0650
G01 X12.9680 Y38.0650
G01 X12.9514 Y38.0644
G01 X12.9405 Y38.0633
G01 X12.9295 Y38.0617
G01 X12.9187 Y38.0595
G01 X12.9027 Y38.0553
G01 X12.8922 Y38.0518
G01 X12.8768 Y38.0457
G01 X12.8668 Y38.0410
G01 X12.8571 Y38.0358
G01 X12.8476 Y38.0301
G01 X12.8384 Y38.0240
G01 X12.8253 Y38.0139
G01 X12.8169 Y38.0067
G01 X12.8089 Y37.9991
G01 X12.8013 Y37.9911
G01 X12.7906 Y37.9784
G01 X12.7840 Y37.9696
G01 X12.7750 Y37.9557
G01 X12.7670 Y37.9412
G01 X12.7623 Y37.9312
G01 X12.7581 Y37.9210
G01 X12.7527 Y37.9053
G01 X12.7485 Y37.8893
G01 X12.7454 Y37.8730
G01 X12.7436 Y37.8566
G01 X12.7430 Y37.8400
G01 X12.7431 Y36.2345
G01 X12.7441 Y36.2179
G01 X12.7463 Y36.2015
G01 X12.7497 Y36.1853
G01 X12.7527 Y36.1747
G01 X12.7581 Y36.1590
G01 X12.7646 Y36.1438
G01 X12.7722 Y36.1291
G01 X12.7809 Y36.1150
G01 X12.7873 Y36.1060
G01 X12.7941 Y36.0973
G01 X12.8050 Y36.0849
G01 X12.8129 Y36.0770
G01 X12.8210 Y36.0696
G01 X12.8340 Y36.0593
G01 X12.8430 Y36.0529
G01 X12.8571 Y36.0442
G01 X12.8718 Y36.0366
G01 X12.8819 Y36.0321
G01 X12.8974 Y36.0264
G01 X12.9080 Y36.0232
G01 X12.9187 Y36.0205
G01 X12.9350 Y36.0174
G01 X12.9514 Y36.0156
G01 X12.9625 Y36.0151
G01 X14.5735 Y36.0151
G01 X14.5846 Y36.0156
G01 X14.5955 Y36.0167
G01 X14.6119 Y36.0193
G01 X14.6227 Y36.0217
G01 X14.6333 Y36.0247
G01 X14.6490 Y36.0301
G01 X14.6592 Y36.0343
G01 X14.6692 Y36.0390
G01 X14.6837 Y36.0470
G01 X14.6976 Y36.0560
G01 X14.7107 Y36.0661
G01 X14.7191 Y36.0733
G01 X14.7271 Y36.0809
G01 X14.7384 Y36.0930
G01 X14.7454 Y36.1016
G01 X14.7520 Y36.1104
G01 X14.7581 Y36.1196
G01 X14.7638 Y36.1291
G01 X14.7690 Y36.1388
G01 X14.7737 Y36.1488
G01 X14.7779 Y36.1590
G01 X14.7816 Y36.1694
G01 X14.7848 Y36.1800
G01 X14.7875 Y36.1907
G01 X14.7897 Y36.2015
G01 X14.7913 Y36.2125
G01 X14.7924 Y36.2234
G01 X14.7930 Y36.2400
G01 X14.7930 Y37.2516
G01 X18.2525 Y40.7111
G01 X18.2869 Y40.7487
G01 X18.2996 Y40.7649
G01 X18.3155 Y40.7691
G01 X18.3260 Y40.7726
G01 X18.3999 Y40.7990
G01 X18.4103 Y40.8030
G01 X18.4203 Y40.8075
G01 X18.5012 Y40.8460
G01 X18.5781 Y40.8918
G01 X18.5875 Y40.8977
G01 X18.5965 Y40.9041
G01 X18.6683 Y40.9577
G01 X18.7348 Y41.0176
G01 X18.7428 Y41.0252
G01 X18.7504 Y41.0332
G01 X18.8103 Y41.0997
G01 X18.8663 Y41.1748
G01 X20.9228 Y41.1748
G01 X20.9228 Y38.6905
G01 X20.8952 Y38.6528
G01 X20.8613 Y38.5966
G01 X20.8536 Y38.5819
G01 X20.8327 Y38.5375
G01 X20.8261 Y38.5223
G01 X20.8042 Y38.4605
G01 X20.7894 Y38.4022
G01 X20.7869 Y38.3914
G01 X20.7850 Y38.3806
G01 X20.7778 Y38.3320
G01 X20.7760 Y38.3156
G01 X20.7730 Y38.2500
G01 X20.7730 Y37.2500
G01 X20.7733 Y37.2390
G01 X20.7765 Y37.1789
G01 X20.7850 Y37.1194
G01 X20.7881 Y37.1032
G01 X20.8042 Y37.0395
G01 X20.8242 Y36.9829
G01 X20.8282 Y36.9726
G01 X20.8327 Y36.9625
G01 X20.8586 Y36.9082
G01 X20.8893 Y36.8565
G01 X20.8952 Y36.8472
G01 X20.9015 Y36.8382
G01 X20.9376 Y36.7901
G01 X20.9777 Y36.7453
G01 X20.9853 Y36.7373
G01 X20.9933 Y36.7297
G01 X21.0381 Y36.6896
G01 X21.0862 Y36.6535
G01 X21.0952 Y36.6472
G01 X21.1045 Y36.6413
G01 X21.1562 Y36.6106
G01 X21.1661 Y36.6056
G01 X21.2206 Y36.5802
G01 X21.2771 Y36.5597
G01 X21.2928 Y36.5547
G01 X21.3458 Y36.5414
G01 X21.3566 Y36.5389
G01 X21.3674 Y36.5370
G01 X21.4269 Y36.5285
G01 X21.4870 Y36.5253
G01 X21.4980 Y36.5250
G01 X21.5090 Y36.5253
G01 X21.5691 Y36.5285
G01 X21.6286 Y36.5370
G01 X21.6394 Y36.5389
G01 X21.6502 Y36.5414
G01 X21.6978 Y36.5533
G01 X21.7137 Y36.5579
G01 X21.7754 Y36.5802
G01 X21.8299 Y36.6056
G01 X21.8446 Y36.6133
G01 X21.8915 Y36.6413
G01 X21.9008 Y36.6472
G01 X21.9098 Y36.6535
G01 X21.9579 Y36.6896
G01 X22.0067 Y36.7335
G01 X22.0183 Y36.7453
G01 X22.0512 Y36.7817
G01 X22.0584 Y36.7901
G01 X22.0652 Y36.7988
G01 X22.1008 Y36.8472
G01 X22.1330 Y36.9004
G01 X22.1652 Y36.8472
G01 X22.1928 Y36.8095
G01 X22.1928 Y35.2382
G01 X21.2798 Y34.3252
G01 X18.8663 Y34.3252
G01 X18.8103 Y34.4003
G01 X18.7504 Y34.4668
G01 X18.7428 Y34.4748
G01 X18.7348 Y34.4824
G01 X18.6683 Y34.5423
G01 X18.5965 Y34.5959
G01 X18.5875 Y34.6023
G01 X18.5781 Y34.6082
G01 X18.5108 Y34.6485
G01 X18.5012 Y34.6540
G01 X18.4913 Y34.6589
G01 X18.4103 Y34.6970
G01 X18.3260 Y34.7274
G01 X18.3155 Y34.7309
G01 X18.3049 Y34.7338
G01 X18.2180 Y34.7553
G01 X18.2071 Y34.7572
G01 X18.1185 Y34.7701
G01 X18.0290 Y34.7747
G01 X18.0180 Y34.7750
G01 X17.9285 Y34.7709
G01 X17.9175 Y34.7701
G01 X17.9066 Y34.7687
G01 X17.8289 Y34.7572
G01 X17.8180 Y34.7553
G01 X17.8073 Y34.7529
G01 X17.7205 Y34.7309
G01 X17.6361 Y34.7010
G01 X17.6207 Y34.6948
G01 X17.5348 Y34.6540
G01 X17.4579 Y34.6082
G01 X17.4485 Y34.6023
G01 X17.4395 Y34.5959
G01 X17.3677 Y34.5423
G01 X17.3012 Y34.4824
G01 X17.2932 Y34.4748
G01 X17.2856 Y34.4668
G01 X17.2329 Y34.4086
G01 X17.2257 Y34.4003
G01 X17.2189 Y34.3915
G01 X17.1657 Y34.3195
G01 X17.1598 Y34.3101
G01 X17.1140 Y34.2332
G01 X17.0755 Y34.1523
G01 X17.0710 Y34.1423
G01 X17.0406 Y34.0580
G01 X17.0371 Y34.0475
G01 X17.0342 Y34.0369
G01 X17.0151 Y33.9607
G01 X17.0127 Y33.9500
G01 X17.0108 Y33.9391
G01 X16.9979 Y33.8505
G01 X16.9933 Y33.7610
G01 X16.9930 Y33.7500
G01 X16.9933 Y33.7390
G01 X16.9979 Y33.6495
G01 X17.0115 Y33.5569
G01 X15.9898 Y32.5352
G01 X14.6163 Y32.5352
G01 X14.5603 Y32.6103
G01 X14.5004 Y32.6768
G01 X14.4928 Y32.6848
G01 X14.4848 Y32.6924
G01 X14.4183 Y32.7523
G01 X14.3465 Y32.8059
G01 X14.3375 Y32.8123
G01 X14.3281 Y32.8182
G01 X14.2608 Y32.8585
G01 X14.2512 Y32.8640
G01 X14.2413 Y32.8689
G01 X14.1603 Y32.9070
G01 X14.0760 Y32.9374
G01 X14.0655 Y32.9409
G01 X14.0549 Y32.9438
G01 X13.9680 Y32.9653
G01 X13.8740 Y32.9795
G01 X13.8575 Y32.9809
G01 X13.7790 Y32.9847
G01 X13.7680 Y32.9850
G01 X13.7570 Y32.9847
G01 X13.6675 Y32.9801
G01 X13.5789 Y32.9672
G01 X13.5680 Y32.9653
G01 X13.4811 Y32.9438
G01 X13.4705 Y32.9409
G01 X13.4600 Y32.9374
G01 X13.3757 Y32.9070
G01 X13.2947 Y32.8689
G01 X13.2848 Y32.8640
G01 X13.2752 Y32.8585
G01 X13.2079 Y32.8182
G01 X13.1985 Y32.8123
G01 X13.1895 Y32.8059
G01 X13.1177 Y32.7523
G01 X13.0512 Y32.6924
G01 X13.0432 Y32.6848
G01 X13.0356 Y32.6768
G01 X12.9757 Y32.6103
G01 X12.9221 Y32.5385
G01 X12.9157 Y32.5295
G01 X12.9098 Y32.5201
G01 X12.8695 Y32.4528
G01 X12.8640 Y32.4432
G01 X12.8565 Y32.4279
G01 X9.8283 Y29.3997
G01 X9.7712 Y29.3371
G01 X9.7640 Y29.3288
G01 X9.7572 Y29.3201
G01 X9.7070 Y29.2519
G01 X9.6632 Y29.1794
G01 X9.6578 Y29.1698
G01 X9.6213 Y29.0934
G01 X9.6169 Y29.0833
G01 X9.6129 Y29.0730
G01 X9.5846 Y28.9931
G01 X9.5638 Y28.9111
G01 X9.5614 Y28.9003
G01 X9.5595 Y28.8894
G01 X9.5473 Y28.8056
G01 X9.5429 Y28.7210
G01 X9.5426 Y28.7100
G01 X9.5426 Y10.8830
G00 X9.5426 Y10.8830
G01 F60.00
G01 Z-0.0900
G01 F180.00
G01 X9.5017 Y10.7960
G01 X9.4688 Y10.7048
G01 X9.4654 Y10.6943
G01 X9.4624 Y10.6837
G01 X9.4391 Y10.5896
G01 X9.4246 Y10.4938
G01 X9.4233 Y10.4828
G01 X9.4225 Y10.4718
G01 X9.4180 Y10.3750
G01 X9.4180 Y9.6250
G01 X9.4228 Y9.5227
G01 X9.4246 Y9.5062
G01 X9.4372 Y9.4213
G01 X9.4391 Y9.4104
G01 X9.4416 Y9.3996
G01 X9.4654 Y9.3057
G01 X9.4688 Y9.2952
G01 X9.5017 Y9.2040
G01 X9.5429 Y9.1163
G01 X9.5479 Y9.1065
G01 X9.5533 Y9.0969
G01 X9.6034 Y9.0139
G01 X9.6642 Y8.9315
G01 X9.6749 Y8.9188
G01 X9.7402 Y8.8472
G01 X9.7482 Y8.8396
G01 X9.8202 Y8.7747
G01 X9.8978 Y8.7167
G01 X9.9069 Y8.7104
G01 X9.9162 Y8.7045
G01 X9.9995 Y8.6549
G01 X10.0870 Y8.6132
G01 X10.0970 Y8.6087
G01 X10.1882 Y8.5758
G01 X10.1987 Y8.5724
G01 X10.2093 Y8.5694
G01 X10.3034 Y8.5461
G01 X10.3992 Y8.5316
G01 X10.4102 Y8.5303
G01 X10.4212 Y8.5295
G01 X10.5180 Y8.5250
G01 X10.6148 Y8.5295
G01 X10.6258 Y8.5303
G01 X10.6368 Y8.5316
G01 X10.7326 Y8.5461
G01 X10.8267 Y8.5694
G01 X10.8373 Y8.5724
G01 X10.8478 Y8.5758
G01 X10.9390 Y8.6087
G01 X11.0267 Y8.6499
G01 X11.0365 Y8.6549
G01 X11.1198 Y8.7045
G01 X11.1291 Y8.7104
G01 X11.2115 Y8.7712
G01 X11.2242 Y8.7819
G01 X11.2958 Y8.8472
G01 X11.3034 Y8.8552
G01 X11.3683 Y8.9272
G01 X11.4263 Y9.0048
G01 X11.4326 Y9.0139
G01 X11.4827 Y9.0969
G01 X11.4881 Y9.1065
G01 X11.4931 Y9.1163
G01 X11.5343 Y9.2040
G01 X11.5672 Y9.2952
G01 X11.5706 Y9.3057
G01 X11.5736 Y9.3163
G01 X11.5944 Y9.3996
G01 X11.5969 Y9.4104
G01 X11.5988 Y9.4213
G01 X11.6127 Y9.5172
G01 X11.6179 Y9.6195
G01 X11.6180 Y10.3750
G01 X11.6135 Y10.4718
G01 X11.6127 Y10.4828
G01 X11.6114 Y10.4938
G01 X11.5969 Y10.5896
G01 X11.5736 Y10.6837
G01 X11.5706 Y10.6943
G01 X11.5672 Y10.7048
G01 X11.5343 Y10.7960
G01 X11.4934 Y10.8830
G01 X11.4934 Y20.3460
G01 X12.6529 Y21.5055
G01 X13.5237 Y21.5055
G01 X13.5573 Y21.4971
G01 X13.5735 Y21.4937
G01 X13.6566 Y21.4813
G01 X13.6730 Y21.4795
G01 X13.7680 Y21.4750
G01 X13.8630 Y21.4795
G01 X13.8794 Y21.4813
G01 X13.9680 Y21.4947
G01 X14.0549 Y21.5162
G01 X14.0655 Y21.5191
G01 X14.0760 Y21.5226
G01 X14.1603 Y21.5530
G01 X14.2413 Y21.5911
G01 X14.2512 Y21.5960
G01 X14.2608 Y21.6015
G01 X14.3375 Y21.6477
G01 X14.3465 Y21.6541
G01 X14.4183 Y21.7077
G01 X14.4848 Y21.7676
G01 X14.4928 Y21.7752
G01 X14.5004 Y21.7832
G01 X14.5603 Y21.8497
G01 X14.6139 Y21.9215
G01 X14.6203 Y21.9305
G01 X14.6262 Y21.9399
G01 X14.6720 Y22.0168
G01 X14.7105 Y22.0977
G01 X14.7150 Y22.1077
G01 X14.7454 Y22.1920
G01 X14.7489 Y22.2025
G01 X14.7518 Y22.2131
G01 X14.7733 Y22.3000
G01 X14.7867 Y22.3886
G01 X14.7881 Y22.3995
G01 X14.7889 Y22.4105
G01 X14.7929 Y22.4945
G01 X14.7927 Y22.5110
G01 X14.7881 Y22.6005
G01 X14.7752 Y22.6891
G01 X14.7733 Y22.7000
G01 X14.7709 Y22.7107
G01 X14.7518 Y22.7869
G01 X14.7489 Y22.7975
G01 X14.7454 Y22.8080
G01 X14.7150 Y22.8923
G01 X14.7105 Y22.9023
G01 X14.6720 Y22.9832
G01 X14.6262 Y23.0601
G01 X14.6203 Y23.0695
G01 X14.6139 Y23.0785
G01 X14.5603 Y23.1503
G01 X14.5004 Y23.2168
G01 X14.4928 Y23.2248
G01 X14.4848 Y23.2324
G01 X14.4183 Y23.2923
G01 X14.3465 Y23.3459
G01 X14.3375 Y23.3523
G01 X14.2608 Y23.3985
G01 X14.2512 Y23.4040
G01 X14.2413 Y23.4089
G01 X14.1703 Y23.4425
G01 X14.1603 Y23.4470
G01 X14.1499 Y23.4510
G01 X14.0655 Y23.4809
G01 X13.9787 Y23.5029
G01 X13.9625 Y23.5063
G01 X13.8685 Y23.5201
G01 X13.7790 Y23.5247
G01 X13.7680 Y23.5250
G01 X13.7570 Y23.5247
G01 X13.6675 Y23.5201
G01 X13.5789 Y23.5072
G01 X13.5680 Y23.5053
G01 X13.5573 Y23.5029
G01 X13.4705 Y23.4809
G01 X13.4009 Y23.4563
G01 X12.2434 Y23.4562
G01 X12.1533 Y23.4516
G01 X12.0640 Y23.4385
G01 X12.0478 Y23.4351
G01 X11.9658 Y23.4143
G01 X11.8859 Y23.3860
G01 X11.8756 Y23.3820
G01 X11.8655 Y23.3776
G01 X11.7990 Y23.3461
G01 X11.7891 Y23.3411
G01 X11.7795 Y23.3357
G01 X11.7070 Y23.2919
G01 X11.6388 Y23.2417
G01 X11.6301 Y23.2349
G01 X11.5632 Y23.1745
G01 X11.4934 Y23.1048
G01 X11.4934 Y28.3060
G01 X14.2359 Y31.0485
G01 X14.2512 Y31.0560
G01 X14.2608 Y31.0615
G01 X14.3375 Y31.1077
G01 X14.4095 Y31.1609
G01 X14.4225 Y31.1712
G01 X14.4848 Y31.2276
G01 X14.4928 Y31.2352
G01 X14.5004 Y31.2432
G01 X14.5603 Y31.3097
G01 X14.6163 Y31.3848
G01 X16.2335 Y31.3849
G01 X16.2844 Y31.3876
G01 X16.2953 Y31.3889
G01 X16.3402 Y31.3959
G01 X16.3843 Y31.4066
G01 X16.3950 Y31.4096
G01 X16.4055 Y31.4131
G01 X16.4481 Y31.4286
G01 X16.4893 Y31.4478
G01 X16.4991 Y31.4527
G01 X16.5087 Y31.4582
G01 X16.5476 Y31.4818
G01 X16.5842 Y31.5086
G01 X16.5929 Y31.5154
G01 X16.6308 Y31.5494
G01 X17.8249 Y32.7435
G01 X17.9175 Y32.7299
G01 X18.0070 Y32.7253
G01 X18.0180 Y32.7250
G01 X18.0290 Y32.7253
G01 X18.1185 Y32.7299
G01 X18.2071 Y32.7428
G01 X18.2180 Y32.7447
G01 X18.3049 Y32.7662
G01 X18.3155 Y32.7691
G01 X18.3260 Y32.7726
G01 X18.4103 Y32.8030
G01 X18.4203 Y32.8075
G01 X18.5012 Y32.8460
G01 X18.5781 Y32.8918
G01 X18.5875 Y32.8977
G01 X18.5965 Y32.9041
G01 X18.6683 Y32.9577
G01 X18.7348 Y33.0176
G01 X18.7428 Y33.0252
G01 X18.7504 Y33.0332
G01 X18.8103 Y33.0997
G01 X18.8663 Y33.1748
G01 X21.2798 Y33.1748
G01 X25.1152 Y29.3394
G01 X25.1489 Y29.3089
G01 X25.1618 Y29.2986
G01 X25.1984 Y29.2718
G01 X25.2373 Y29.2482
G01 X25.2469 Y29.2427
G01 X25.2567 Y29.2378
G01 X25.2979 Y29.2186
G01 X25.3405 Y29.2031
G01 X25.3563 Y29.1981
G01 X25.4058 Y29.1859
G01 X25.4507 Y29.1789
G01 X25.4616 Y29.1776
G01 X25.4726 Y29.1768
G01 X25.5180 Y29.1748
G01 X36.1480 Y29.1748
G01 X36.1934 Y29.1768
G01 X36.2044 Y29.1776
G01 X36.2153 Y29.1789
G01 X36.2602 Y29.1859
G01 X36.3043 Y29.1966
G01 X36.3150 Y29.1996
G01 X36.3255 Y29.2031
G01 X36.3681 Y29.2186
G01 X36.4093 Y29.2378
G01 X36.4191 Y29.2427
G01 X36.4287 Y29.2482
G01 X36.4582 Y29.2659
G01 X36.4721 Y29.2749
G01 X36.5129 Y29.3054
G01 X36.5508 Y29.3394
G01 X40.9338 Y33.7224
G01 X40.9765 Y33.7160
G01 X40.9929 Y33.7142
G01 X41.0775 Y33.7101
G01 X41.0940 Y33.7103
G01 X41.1731 Y33.7142
G01 X41.1895 Y33.7160
G01 X41.2732 Y33.7287
G01 X41.3554 Y33.7490
G01 X41.3713 Y33.7537
G01 X41.4458 Y33.7802
G01 X41.4561 Y33.7842
G01 X41.4662 Y33.7887
G01 X41.5426 Y33.8251
G01 X41.6154 Y33.8684
G01 X41.6247 Y33.8743
G01 X41.6337 Y33.8807
G01 X41.7015 Y33.9313
G01 X41.7644 Y33.9880
G01 X41.7724 Y33.9956
G01 X41.7800 Y34.0036
G01 X41.8367 Y34.0665
G01 X41.8873 Y34.1343
G01 X41.8937 Y34.1433
G01 X41.9374 Y34.2158
G01 X41.9429 Y34.2254
G01 X41.9478 Y34.2353
G01 X41.9838 Y34.3119
G01 X42.0126 Y34.3915
G01 X42.0160 Y34.4020
G01 X42.0190 Y34.4126
G01 X42.0393 Y34.4948
G01 X42.0520 Y34.5785
G01 X42.0533 Y34.5894
G01 X42.0577 Y34.6740
G01 X42.0580 Y34.6850
G01 X42.0577 Y34.6960
G01 X42.0541 Y34.7696
G01 X42.0533 Y34.7806
G01 X42.0520 Y34.7915
G01 X42.0393 Y34.8752
G01 X42.0190 Y34.9574
G01 X42.0160 Y34.9680
G01 X42.0126 Y34.9785
G01 X41.9838 Y35.0581
G01 X41.9478 Y35.1347
G01 X41.9429 Y35.1446
G01 X41.9374 Y35.1542
G01 X41.8937 Y35.2267
G01 X41.8435 Y35.2948
G01 X41.8367 Y35.3035
G01 X41.8295 Y35.3119
G01 X41.7724 Y35.3744
G01 X41.7644 Y35.3820
G01 X41.7015 Y35.4387
G01 X41.6337 Y35.4893
G01 X41.6247 Y35.4957
G01 X41.5522 Y35.5394
G01 X41.5426 Y35.5449
G01 X41.5327 Y35.5498
G01 X41.4561 Y35.5858
G01 X41.3765 Y35.6146
G01 X41.3660 Y35.6180
G01 X41.3554 Y35.6210
G01 X41.2732 Y35.6413
G01 X41.1895 Y35.6540
G01 X41.1786 Y35.6553
G01 X41.1676 Y35.6561
G01 X41.0830 Y35.6600
G01 X40.9984 Y35.6561
G01 X40.9874 Y35.6553
G01 X40.9765 Y35.6540
G01 X40.8928 Y35.6413
G01 X40.8106 Y35.6210
G01 X40.8000 Y35.6180
G01 X40.7895 Y35.6146
G01 X40.7099 Y35.5858
G01 X40.6333 Y35.5498
G01 X40.6234 Y35.5449
G01 X40.6138 Y35.5394
G01 X40.5413 Y35.4957
G01 X40.5323 Y35.4893
G01 X40.4645 Y35.4387
G01 X40.4016 Y35.3820
G01 X40.3936 Y35.3744
G01 X40.3860 Y35.3664
G01 X40.3293 Y35.3035
G01 X40.2787 Y35.2357
G01 X40.2723 Y35.2267
G01 X40.2664 Y35.2174
G01 X40.2231 Y35.1446
G01 X40.1867 Y35.0682
G01 X40.1802 Y35.0530
G01 X40.1534 Y34.9785
G01 X40.1500 Y34.9680
G01 X40.1470 Y34.9574
G01 X40.1267 Y34.8752
G01 X40.1133 Y34.7861
G01 X40.1119 Y34.7696
G01 X40.1083 Y34.6960
G01 X40.1081 Y34.6795
G01 X40.1122 Y34.5949
G01 X40.1140 Y34.5785
G01 X40.1204 Y34.5358
G01 X35.9098 Y30.3252
G01 X25.7562 Y30.3252
G01 X22.3314 Y33.7500
G01 X23.1747 Y34.5933
G01 X23.1823 Y34.6013
G01 X23.2091 Y34.6309
G01 X23.2194 Y34.6438
G01 X23.2462 Y34.6804
G01 X23.2698 Y34.7193
G01 X23.2778 Y34.7338
G01 X23.2972 Y34.7748
G01 X23.3034 Y34.7902
G01 X23.3167 Y34.8278
G01 X23.3214 Y34.8437
G01 X23.3297 Y34.8770
G01 X23.3321 Y34.8878
G01 X23.3340 Y34.8987
G01 X23.3404 Y34.9436
G01 X23.3431 Y34.9945
G01 X23.3432 Y36.8095
G01 X23.3708 Y36.8472
G01 X23.4030 Y36.9004
G01 X23.4352 Y36.8472
G01 X23.4708 Y36.7988
G01 X23.4776 Y36.7901
G01 X23.4848 Y36.7817
G01 X23.5253 Y36.7373
G01 X23.5333 Y36.7297
G01 X23.5781 Y36.6896
G01 X23.6262 Y36.6535
G01 X23.6352 Y36.6472
G01 X23.6445 Y36.6413
G01 X23.6962 Y36.6106
G01 X23.7061 Y36.6056
G01 X23.7606 Y36.5802
G01 X23.8171 Y36.5597
G01 X23.8275 Y36.5562
G01 X23.8382 Y36.5533
G01 X23.8966 Y36.5389
G01 X23.9560 Y36.5298
G01 X23.9669 Y36.5285
G01 X23.9780 Y36.5277
G01 X24.0380 Y36.5250
G01 X24.0980 Y36.5277
G01 X24.1091 Y36.5285
G01 X24.1200 Y36.5298
G01 X24.1794 Y36.5389
G01 X24.2378 Y36.5533
G01 X24.2485 Y36.5562
G01 X24.2589 Y36.5597
G01 X24.3154 Y36.5802
G01 X24.3749 Y36.6081
G01 X24.3894 Y36.6161
G01 X24.4315 Y36.6413
G01 X24.4408 Y36.6472
G01 X24.4498 Y36.6535
G01 X24.4979 Y36.6896
G01 X24.5427 Y36.7297
G01 X24.5507 Y36.7373
G01 X24.5583 Y36.7453
G01 X24.5984 Y36.7901
G01 X24.6345 Y36.8382
G01 X24.6408 Y36.8472
G01 X24.6467 Y36.8565
G01 X24.6774 Y36.9082
G01 X24.7056 Y36.9675
G01 X24.7118 Y36.9829
G01 X24.7318 Y37.0395
G01 X24.7466 Y37.0978
G01 X24.7491 Y37.1086
G01 X24.7510 Y37.1194
G01 X24.7595 Y37.1789
G01 X24.7627 Y37.2390
G01 X24.7630 Y37.2500
G01 X24.7630 Y38.2500
G01 X24.7600 Y38.3156
G01 X24.7582 Y38.3320
G01 X24.7510 Y38.3806
G01 X24.7491 Y38.3914
G01 X24.7466 Y38.4022
G01 X24.7318 Y38.4605
G01 X24.7099 Y38.5223
G01 X24.7033 Y38.5375
G01 X24.6774 Y38.5918
G01 X24.6467 Y38.6435
G01 X24.6408 Y38.6528
G01 X24.6345 Y38.6618
G01 X24.6052 Y38.7012
G01 X24.5932 Y38.7161
G01 X24.5932 Y38.7618
G01 X25.0062 Y39.1748
G01 X26.4197 Y39.1748
G01 X26.4757 Y39.0997
G01 X26.5356 Y39.0332
G01 X26.5432 Y39.0252
G01 X26.5512 Y39.0176
G01 X26.6094 Y38.9649
G01 X26.6177 Y38.9577
G01 X26.6265 Y38.9509
G01 X26.6985 Y38.8977
G01 X26.7079 Y38.8918
G01 X26.7848 Y38.8460
G01 X26.8657 Y38.8075
G01 X26.8757 Y38.8030
G01 X26.9600 Y38.7726
G01 X26.9705 Y38.7691
G01 X26.9811 Y38.7662
G01 X27.0573 Y38.7471
G01 X27.0680 Y38.7447
G01 X27.0789 Y38.7428
G01 X27.1675 Y38.7299
G01 X27.2570 Y38.7253
G01 X27.2680 Y38.7250
G01 X27.2790 Y38.7253
G01 X27.3685 Y38.7299
G01 X27.4571 Y38.7428
G01 X27.4680 Y38.7447
G01 X27.4787 Y38.7471
G01 X27.5549 Y38.7662
G01 X27.5655 Y38.7691
G01 X27.5760 Y38.7726
G01 X27.6603 Y38.8030
G01 X27.6703 Y38.8075
G01 X27.7512 Y38.8460
G01 X27.8281 Y38.8918
G01 X27.8375 Y38.8977
G01 X27.8465 Y38.9041
G01 X27.9183 Y38.9577
G01 X27.9848 Y39.0176
G01 X27.9928 Y39.0252
G01 X28.0004 Y39.0332
G01 X28.0603 Y39.0997
G01 X28.1139 Y39.1715
G01 X28.1203 Y39.1805
G01 X28.1262 Y39.1899
G01 X28.1720 Y39.2668
G01 X28.2105 Y39.3477
G01 X28.2150 Y39.3577
G01 X28.2454 Y39.4420
G01 X28.2489 Y39.4525
G01 X28.2518 Y39.4631
G01 X28.2733 Y39.5500
G01 X28.2752 Y39.5609
G01 X28.2881 Y39.6495
G01 X28.2927 Y39.7390
G01 X28.2930 Y39.7500
G01 X28.2927 Y39.7610
G01 X28.2881 Y39.8505
G01 X28.2752 Y39.9391
G01 X28.2733 Y39.9500
G01 X28.2518 Y40.0369
G01 X28.2472 Y40.0528
G01 X28.2150 Y40.1423
G01 X28.1769 Y40.2233
G01 X28.1720 Y40.2332
G01 X28.1665 Y40.2428
G01 X28.1203 Y40.3195
G01 X28.0671 Y40.3915
G01 X28.0603 Y40.4003
G01 X28.0531 Y40.4086
G01 X27.9928 Y40.4748
G01 X27.9848 Y40.4824
G01 X27.9183 Y40.5423
G01 X27.8465 Y40.5959
G01 X27.8375 Y40.6023
G01 X27.8281 Y40.6082
G01 X27.7512 Y40.6540
G01 X27.6703 Y40.6925
G01 X27.6603 Y40.6970
G01 X27.5760 Y40.7274
G01 X27.5655 Y40.7309
G01 X27.4787 Y40.7529
G01 X27.4680 Y40.7553
G01 X27.4571 Y40.7572
G01 X27.3794 Y40.7687
G01 X27.3630 Y40.7705
G01 X27.2790 Y40.7747
G01 X27.2680 Y40.7750
G01 X27.2570 Y40.7747
G01 X27.1675 Y40.7701
G01 X27.0789 Y40.7572
G01 X27.0680 Y40.7553
G01 X27.0573 Y40.7529
G01 X26.9705 Y40.7309
G01 X26.8861 Y40.7010
G01 X26.8757 Y40.6970
G01 X26.8657 Y40.6925
G01 X26.7848 Y40.6540
G01 X26.7079 Y40.6082
G01 X26.6985 Y40.6023
G01 X26.6895 Y40.5959
G01 X26.6177 Y40.5423
G01 X26.5512 Y40.4824
G01 X26.5432 Y40.4748
G01 X26.5356 Y40.4668
G01 X26.4757 Y40.4003
G01 X26.4197 Y40.3252
G01 X24.7680 Y40.3252
G01 X24.7226 Y40.3232
G01 X24.7116 Y40.3224
G01 X24.6667 Y40.3160
G01 X24.6558 Y40.3141
G01 X24.6450 Y40.3117
G01 X24.6010 Y40.3004
G01 X24.5582 Y40.2854
G01 X24.5428 Y40.2792
G01 X24.5018 Y40.2598
G01 X24.4873 Y40.2518
G01 X24.4484 Y40.2282
G01 X24.4118 Y40.2014
G01 X24.4031 Y40.1946
G01 X24.3948 Y40.1874
G01 X24.3613 Y40.1567
G01 X23.6113 Y39.4067
G01 X23.5806 Y39.3732
G01 X23.5734 Y39.3649
G01 X23.5461 Y39.3286
G01 X23.5398 Y39.3196
G01 X23.5339 Y39.3102
G01 X23.5107 Y39.2711
G01 X23.5058 Y39.2613
G01 X23.4866 Y39.2201
G01 X23.4711 Y39.1775
G01 X23.4676 Y39.1670
G01 X23.4646 Y39.1563
G01 X23.4539 Y39.1122
G01 X23.4469 Y39.0673
G01 X23.4456 Y39.0564
G01 X23.4429 Y39.0055
G01 X23.4428 Y38.6635
G01 X23.4322 Y38.6482
G01 X23.4030 Y38.5996
G01 X23.3708 Y38.6528
G01 X23.3352 Y38.7012
G01 X23.3284 Y38.7099
G01 X23.3212 Y38.7183
G01 X23.2807 Y38.7627
G01 X23.2363 Y38.8032
G01 X23.2279 Y38.8104
G01 X23.2192 Y38.8172
G01 X23.1708 Y38.8528
G01 X23.1194 Y38.8839
G01 X23.1098 Y38.8894
G01 X23.0999 Y38.8944
G01 X23.0454 Y38.9198
G01 X22.9889 Y38.9403
G01 X22.9785 Y38.9438
G01 X22.9678 Y38.9467
G01 X22.9094 Y38.9611
G01 X22.8500 Y38.9702
G01 X22.8391 Y38.9715
G01 X22.8280 Y38.9723
G01 X22.7680 Y38.9750
G01 X22.7080 Y38.9723
G01 X22.6969 Y38.9715
G01 X22.6860 Y38.9702
G01 X22.6266 Y38.9611
G01 X22.5682 Y38.9467
G01 X22.5575 Y38.9438
G01 X22.5471 Y38.9403
G01 X22.4906 Y38.9198
G01 X22.4361 Y38.8944
G01 X22.4262 Y38.8894
G01 X22.4166 Y38.8839
G01 X22.3652 Y38.8528
G01 X22.3168 Y38.8172
G01 X22.3081 Y38.8104
G01 X22.2997 Y38.8032
G01 X22.2553 Y38.7627
G01 X22.2148 Y38.7183
G01 X22.2076 Y38.7099
G01 X22.2008 Y38.7012
G01 X22.1652 Y38.6528
G01 X22.1330 Y38.5996
G01 X22.1008 Y38.6528
G01 X22.0732 Y38.6905
G01 X22.0732 Y41.1748
G01 X30.4515 Y41.1748
G01 X30.4581 Y41.1629
G01 X30.5085 Y41.0788
G01 X30.5144 Y41.0694
G01 X30.5208 Y41.0604
G01 X30.5861 Y40.9729
G01 X30.6592 Y40.8918
G01 X30.6668 Y40.8838
G01 X30.7475 Y40.8103
G01 X30.7559 Y40.8031
G01 X30.7646 Y40.7963
G01 X30.8524 Y40.7314
G01 X30.8618 Y40.7255
G01 X30.9555 Y40.6696
G01 X31.0541 Y40.6227
G01 X31.0642 Y40.6182
G01 X31.0745 Y40.6143
G01 X31.1774 Y40.5777
G01 X31.1880 Y40.5748
G01 X31.2940 Y40.5485
G01 X31.4020 Y40.5323
G01 X31.4129 Y40.5309
G01 X31.5220 Y40.5253
G01 X31.5330 Y40.5250
G01 X31.5440 Y40.5253
G01 X31.6421 Y40.5301
G01 X31.6586 Y40.5315
G01 X31.7611 Y40.5467
G01 X31.7720 Y40.5485
G01 X31.7828 Y40.5510
G01 X31.8886 Y40.5777
G01 X31.9915 Y40.6143
G01 X32.0018 Y40.6182
G01 X32.0119 Y40.6227
G01 X32.1105 Y40.6696
G01 X32.2042 Y40.7255
G01 X32.2136 Y40.7314
G01 X32.2226 Y40.7378
G01 X32.3101 Y40.8031
G01 X32.3912 Y40.8762
G01 X32.3992 Y40.8838
G01 X32.4068 Y40.8918
G01 X32.4799 Y40.9729
G01 X32.5452 Y41.0604
G01 X32.5516 Y41.0694
G01 X32.5575 Y41.0788
G01 X32.6134 Y41.1725
G01 X32.6603 Y41.2711
G01 X32.6648 Y41.2812
G01 X32.6687 Y41.2915
G01 X32.7053 Y41.3944
G01 X32.7320 Y41.5002
G01 X32.7345 Y41.5110
G01 X32.7363 Y41.5219
G01 X32.7521 Y41.6299
G01 X32.7577 Y41.7390
G01 X32.7580 Y41.7500
G01 X32.7577 Y41.7610
G01 X32.7521 Y41.8701
G01 X32.7363 Y41.9781
G01 X32.7345 Y41.9890
G01 X32.7320 Y41.9998
G01 X32.7053 Y42.1056
G01 X32.6687 Y42.2085
G01 X32.6648 Y42.2188
G01 X32.6603 Y42.2289
G01 X32.6134 Y42.3275
G01 X32.5575 Y42.4212
G01 X32.5516 Y42.4306
G01 X32.5452 Y42.4396
G01 X32.4799 Y42.5271
G01 X32.4068 Y42.6082
G01 X32.3992 Y42.6162
G01 X32.3912 Y42.6238
G01 X32.3101 Y42.6969
G01 X32.2226 Y42.7622
G01 X32.2136 Y42.7686
G01 X32.2042 Y42.7745
G01 X32.1105 Y42.8304
G01 X32.0119 Y42.8773
G01 X32.0018 Y42.8818
G01 X31.8991 Y42.9188
G01 X31.8886 Y42.9223
G01 X31.8780 Y42.9252
G01 X31.7720 Y42.9515
G01 X31.6640 Y42.9677
G01 X31.6531 Y42.9691
G01 X31.6421 Y42.9699
G01 X31.5330 Y42.9750
G01 X31.4239 Y42.9699
G01 X31.4129 Y42.9691
G01 X31.4020 Y42.9677
G01 X31.2940 Y42.9515
G01 X31.1880 Y42.9252
G01 X31.1774 Y42.9223
G01 X31.0745 Y42.8857
G01 X31.0642 Y42.8818
G01 X31.0541 Y42.8773
G01 X30.9555 Y42.8304
G01 X30.8618 Y42.7745
G01 X30.8524 Y42.7686
G01 X30.8434 Y42.7622
G01 X30.7559 Y42.6969
G01 X30.6748 Y42.6238
G01 X30.6668 Y42.6162
G01 X30.6592 Y42.6082
G01 X30.5861 Y42.5271
G01 X30.5208 Y42.4396
G01 X30.5144 Y42.4306
G01 X30.5085 Y42.4212
G01 X30.4581 Y42.3371
G01 X30.4515 Y42.3252
G01 X18.8663 Y42.3252
G01 X18.8171 Y42.3915
G01 X18.8103 Y42.4003
G01 X18.8031 Y42.4086
G01 X18.7428 Y42.4748
G01 X18.6766 Y42.5351
G01 X18.6683 Y42.5423
G01 X18.6595 Y42.5491
G01 X18.5875 Y42.6023
G01 X18.5781 Y42.6082
G01 X18.5012 Y42.6540
G01 X18.4203 Y42.6925
G01 X18.4103 Y42.6970
G01 X18.3260 Y42.7274
G01 X18.3155 Y42.7309
G01 X18.3049 Y42.7338
G01 X18.2180 Y42.7553
G01 X18.1294 Y42.7687
G01 X18.1185 Y42.7701
G01 X18.1075 Y42.7709
G01 X18.0235 Y42.7749
G01 X18.0070 Y42.7747
G01 X17.9175 Y42.7701
G01 X17.8289 Y42.7572
G01 X17.8180 Y42.7553
G01 X17.8073 Y42.7529
G01 X17.7311 Y42.7338
G01 X17.7205 Y42.7309
G01 X17.7100 Y42.7274
G01 X17.6257 Y42.6970
G01 X17.6157 Y42.6925
G01 X17.5348 Y42.6540
G01 X17.4579 Y42.6082
G01 X17.4485 Y42.6023
G01 X17.3765 Y42.5491
G01 X17.3677 Y42.5423
G01 X17.3594 Y42.5351
G01 X17.3012 Y42.4824
G01 X17.2932 Y42.4748
G01 X17.2856 Y42.4668
G01 X17.2257 Y42.4003
G01 X17.1721 Y42.3285
G01 X17.1657 Y42.3195
G01 X17.1598 Y42.3101
G01 X17.1140 Y42.2332
G01 X17.0755 Y42.1523
G01 X17.0710 Y42.1423
G01 X17.0406 Y42.0580
G01 X17.0371 Y42.0475
G01 X17.0151 Y41.9607
G01 X17.0117 Y41.9445
G01 X16.9979 Y41.8505
G01 X16.9933 Y41.7610
G01 X16.9930 Y41.7500
G01 X16.9933 Y41.7390
G01 X16.9979 Y41.6495
G01 X17.0117 Y41.5555
G01 X17.0151 Y41.5393
G01 X17.0371 Y41.4525
G01 X17.0690 Y41.3629
G01 X17.0755 Y41.3477
G01 X17.1115 Y41.2717
G01 X17.1195 Y41.2572
G01 X17.1391 Y41.2245
G01 X13.9796 Y38.0650
G01 X12.9680 Y38.0650
G01 X12.9514 Y38.0644
G01 X12.9405 Y38.0633
G01 X12.9295 Y38.0617
G01 X12.9187 Y38.0595
G01 X12.9027 Y38.0553
G01 X12.8922 Y38.0518
G01 X12.8768 Y38.0457
G01 X12.8668 Y38.0410
G01 X12.8571 Y38.0358
G01 X12.8476 Y38.0301
G01 X12.8384 Y38.0240
G01 X12.8253 Y38.0139
G01 X12.8169 Y38.0067
G01 X12.8089 Y37.9991
G01 X12.8013 Y37.9911
G01 X12.7906 Y37.9784
G01 X12.7840 Y37.9696
G01 X12.7750 Y37.9557
G01 X12.7670 Y37.9412
G01 X12.7623 Y37.9312
G01 X12.7581 Y37.9210
G01 X12.7527 Y37.9053
G01 X12.7485 Y37.8893
G01 X12.7454 Y37.8730
G01 X12.7436 Y37.8566
G01 X12.7430 Y37.8400
G01 X12.7431 Y36.2345
G01 X12.7441 Y36.2179
G01 X12.7463 Y36.2015
G01 X12.7497 Y36.1853
G01 X12.7527 Y36.1747
G01 X12.7581 Y36.1590
G01 X12.7646 Y36.1438
G01 X12.7722 Y36.1291
G01 X12.7809 Y36.1150
G01 X12.7873 Y36.1060
G01 X12.7941 Y36.0973
G01 X12.8050 Y36.0849
G01 X12.8129 Y36.0770
G01 X12.8210 Y36.0696
G01 X12.8340 Y36.0593
G01 X12.8430 Y36.0529
G01 X12.8571 Y36.0442
G01 X12.8718 Y36.0366
G01 X12.8819 Y36.0321
G01 X12.8974 Y36.0264
G01 X12.9080 Y36.0232
G01 X12.9187 Y36.0205
G01 X12.9350 Y36.0174
G01 X12.9514 Y36.0156
G01 X12.9625 Y36.0151
G01 X14.5735 Y36.0151
G01 X14.5846 Y36.0156
G01 X14.5955 Y36.0167
G01 X14.6119 Y36.0193
G01 X14.6227 Y36.0217
G01 X14.6333 Y36.0247
G01 X14.6490 Y36.0301
G01 X14.6592 Y36.0343
G01 X14.6692 Y36.0390
G01 X14.6837 Y36.0470
G01 X14.6976 Y36.0560
G01 X14.7107 Y36.0661
G01 X14.7191 Y36.0733
G01 X14.7271 Y36.0809
G01 X14.7384 Y36.0930
G01 X14.7454 Y36.1016
G01 X14.7520 Y36.1104
G01 X14.7581 Y36.1196
G01 X14.7638 Y36.1291
G01 X14.7690 Y36.1388
G01 X14.7737 Y36.1488
G01 X14.7779 Y36.1590
G01 X14.7816 Y36.1694
G01 X14.7848 Y36.1800
G01 X14.7875 Y36.1907
G01 X14.7897 Y36.2015
G01 X14.7913 Y36.2125
G01 X14.7924 Y36.2234
G01 X14.7930 Y36.2400
G01 X14.7930 Y37.2516
G01 X18.2525 Y40.7111
G01 X18.2869 Y40.7487
G01 X18.2996 Y40.7649
G01 X18.3155 Y40.7691
G01 X18.3260 Y40.7726
G01 X18.3999 Y40.7990
G01 X18.4103 Y40.8030
G01 X18.4203 Y40.8075
G01 X18.5012 Y40.8460
G01 X18.5781 Y40.8918
G01 X18.5875 Y40.8977
G01 X18.5965 Y40.9041
G01 X18.6683 Y40.9577
G01 X18.7348 Y41.0176
G01 X18.7428 Y41.0252
G01 X18.7504 Y41.0332
G01 X18.8103 Y41.0997
G01 X18.8663 Y41.1748
G01 X20.9228 Y41.1748
G01 X20.9228 Y38.6905
G01 X20.8952 Y38.6528
G01 X20.8613 Y38.5966
G01 X20.8536 Y38.5819
G01 X20.8327 Y38.5375
G01 X20.8261 Y38.5223
G01 X20.8042 Y38.4605
G01 X20.7894 Y38.4022
G01 X20.7869 Y38.3914
G01 X20.7850 Y38.3806
G01 X20.7778 Y38.3320
G01 X20.7760 Y38.3156
G01 X20.7730 Y38.2500
G01 X20.7730 Y37.2500
G01 X20.7733 Y37.2390
G01 X20.7765 Y37.1789
G01 X20.7850 Y37.1194
G01 X20.7881 Y37.1032
G01 X20.8042 Y37.0395
G01 X20.8242 Y36.9829
G01 X20.8282 Y36.9726
G01 X20.8327 Y36.9625
G01 X20.8586 Y36.9082
G01 X20.8893 Y36.8565
G01 X20.8952 Y36.8472
G01 X20.9015 Y36.8382
G01 X20.9376 Y36.7901
G01 X20.9777 Y36.7453
G01 X20.9853 Y36.7373
G01 X20.9933 Y36.7297
G01 X21.0381 Y36.6896
G01 X21.0862 Y36.6535
G01 X21.0952 Y36.6472
G01 X21.1045 Y36.6413
G01 X21.1562 Y36.6106
G01 X21.1661 Y36.6056
G01 X21.2206 Y36.5802
G01 X21.2771 Y36.5597
G01 X21.2928 Y36.5547
G01 X21.3458 Y36.5414
G01 X21.3566 Y36.5389
G01 X21.3674 Y36.5370
G01 X21.4269 Y36.5285
G01 X21.4870 Y36.5253
G01 X21.4980 Y36.5250
G01 X21.5090 Y36.5253
G01 X21.5691 Y36.5285
G01 X21.6286 Y36.5370
G01 X21.6394 Y36.5389
G01 X21.6502 Y36.5414
G01 X21.6978 Y36.5533
G01 X21.7137 Y36.5579
G01 X21.7754 Y36.5802
G01 X21.8299 Y36.6056
G01 X21.8446 Y36.6133
G01 X21.8915 Y36.6413
G01 X21.9008 Y36.6472
G01 X21.9098 Y36.6535
G01 X21.9579 Y36.6896
G01 X22.0067 Y36.7335
G01 X22.0183 Y36.7453
G01 X22.0512 Y36.7817
G01 X22.0584 Y36.7901
G01 X22.0652 Y36.7988
G01 X22.1008 Y36.8472
G01 X22.1330 Y36.9004
G01 X22.1652 Y36.8472
G01 X22.1928 Y36.8095
G01 X22.1928 Y35.2382
G01 X21.2798 Y34.3252
G01 X18.8663 Y34.3252
G01 X18.8103 Y34.4003
G01 X18.7504 Y34.4668
G01 X18.7428 Y34.4748
G01 X18.7348 Y34.4824
G01 X18.6683 Y34.5423
G01 X18.5965 Y34.5959
G01 X18.5875 Y34.6023
G01 X18.5781 Y34.6082
G01 X18.5108 Y34.6485
G01 X18.5012 Y34.6540
G01 X18.4913 Y34.6589
G01 X18.4103 Y34.6970
G01 X18.3260 Y34.7274
G01 X18.3155 Y34.7309
G01 X18.3049 Y34.7338
G01 X18.2180 Y34.7553
G01 X18.2071 Y34.7572
G01 X18.1185 Y34.7701
G01 X18.0290 Y34.7747
G01 X18.0180 Y34.7750
G01 X17.9285 Y34.7709
G01 X17.9175 Y34.7701
G01 X17.9066 Y34.7687
G01 X17.8289 Y34.7572
G01 X17.8180 Y34.7553
G01 X17.8073 Y34.7529
G01 X17.7205 Y34.7309
G01 X17.6361 Y34.7010
G01 X17.6207 Y34.6948
G01 X17.5348 Y34.6540
G01 X17.4579 Y34.6082
G01 X17.4485 Y34.6023
G01 X17.4395 Y34.5959
G01 X17.3677 Y34.5423
G01 X17.3012 Y34.4824
G01 X17.2932 Y34.4748
G01 X17.2856 Y34.4668
G01 X17.2329 Y34.4086
G01 X17.2257 Y34.4003
G01 X17.2189 Y34.3915
G01 X17.1657 Y34.3195
G01 X17.1598 Y34.3101
G01 X17.1140 Y34.2332
G01 X17.0755 Y34.1523
G01 X17.0710 Y34.1423
G01 X17.0406 Y34.0580
G01 X17.0371 Y34.0475
G01 X17.0342 Y34.0369
G01 X17.0151 Y33.9607
G01 X17.0127 Y33.9500
G01 X17.0108 Y33.9391
G01 X16.9979 Y33.8505
G01 X16.9933 Y33.7610
G01 X16.9930 Y33.7500
G01 X16.9933 Y33.7390
G01 X16.9979 Y33.6495
G01 X17.0115 Y33.5569
G01 X15.9898 Y32.5352
G01 X14.6163 Y32.5352
G01 X14.5603 Y32.6103
G01 X14.5004 Y32.6768
G01 X14.4928 Y32.6848
G01 X14.4848 Y32.6924
G01 X14.4183 Y32.7523
G01 X14.3465 Y32.8059
G01 X14.3375 Y32.8123
G01 X14.3281 Y32.8182
G01 X14.2608 Y32.8585
G01 X14.2512 Y32.8640
G01 X14.2413 Y32.8689
G01 X14.1603 Y32.9070
G01 X14.0760 Y32.9374
G01 X14.0655 Y32.9409
G01 X14.0549 Y32.9438
G01 X13.9680 Y32.9653
G01 X13.8740 Y32.9795
G01 X13.8575 Y32.9809
G01 X13.7790 Y32.9847
G01 X13.7680 Y32.9850
G01 X13.7570 Y32.9847
G01 X13.6675 Y32.9801
G01 X13.5789 Y32.9672
G01 X13.5680 Y32.9653
G01 X13.4811 Y32.9438
G01 X13.4705 Y32.9409
G01 X13.4600 Y32.9374
G01 X13.3757 Y32.9070
G01 X13.2947 Y32.8689
G01 X13.2848 Y32.8640
G01 X13.2752 Y32.8585
G01 X13.2079 Y32.8182
G01 X13.1985 Y32.8123
G01 X13.1895 Y32.8059
G01 X13.1177 Y32.7523
G01 X13.0512 Y32.6924
G01 X13.0432 Y32.6848
G01 X13.0356 Y32.6768
G01 X12.9757 Y32.6103
G01 X12.9221 Y32.5385
G01 X12.9157 Y32.5295
G01 X12.9098 Y32.5201
G01 X12.8695 Y32.4528
G01 X12.8640 Y32.4432
G01 X12.8565 Y32.4279
G01 X9.8283 Y29.3997
G01 X9.7712 Y29.3371
G01 X9.7640 Y29.3288
G01 X9.7572 Y29.3201
G01 X9.7070 Y29.2519
G01 X9.6632 Y29.1794
G01 X9.6578 Y29.1698
G01 X9.6213 Y29.0934
G01 X9.6169 Y29.0833
G01 X9.6129 Y29.0730
G01 X9.5846 Y28.9931
G01 X9.5638 Y28.9111
G01 X9.5614 Y28.9003
G01 X9.5595 Y28.8894
G01 X9.5473 Y28.8056
G01 X9.5429 Y28.7210
G01 X9.5426 Y28.7100
G01 X9.5426 Y10.8830
G00 X9.5426 Y10.8830
G01 F60.00
G01 Z-0.1200
G01 F180.00
G01 X9.5017 Y10.7960
G01 X9.4688 Y10.7048
G01 X9.4654 Y10.6943
G01 X9.4624 Y10.6837
G01 X9.4391 Y10.5896
G01 X9.4246 Y10.4938
G01 X9.4233 Y10.4828
G01 X9.4225 Y10.4718
G01 X9.4180 Y10.3750
G01 X9.4180 Y9.6250
G01 X9.4228 Y9.5227
G01 X9.4246 Y9.5062
G01 X9.4372 Y9.4213
G01 X9.4391 Y9.4104
G01 X9.4416 Y9.3996
G01 X9.4654 Y9.3057
G01 X9.4688 Y9.2952
G01 X9.5017 Y9.2040
G01 X9.5429 Y9.1163
G01 X9.5479 Y9.1065
G01 X9.5533 Y9.0969
G01 X9.6034 Y9.0139
G01 X9.6642 Y8.9315
G01 X9.6749 Y8.9188
G01 X9.7402 Y8.8472
G01 X9.7482 Y8.8396
G01 X9.8202 Y8.7747
G01 X9.8978 Y8.7167
G01 X9.9069 Y8.7104
G01 X9.9162 Y8.7045
G01 X9.9995 Y8.6549
G01 X10.0870 Y8.6132
G01 X10.0970 Y8.6087
G01 X10.1882 Y8.5758
G01 X10.1987 Y8.5724
G01 X10.2093 Y8.5694
G01 X10.3034 Y8.5461
G01 X10.3992 Y8.5316
G01 X10.4102 Y8.5303
G01 X10.4212 Y8.5295
G01 X10.5180 Y8.5250
G01 X10.6148 Y8.5295
G01 X10.6258 Y8.5303
G01 X10.6368 Y8.5316
G01 X10.7326 Y8.5461
G01 X10.8267 Y8.5694
G01 X10.8373 Y8.5724
G01 X10.8478 Y8.5758
G01 X10.9390 Y8.6087
G01 X11.0267 Y8.6499
G01 X11.0365 Y8.6549
G01 X11.1198 Y8.7045
G01 X11.1291 Y8.7104
G01 X11.2115 Y8.7712
G01 X11.2242 Y8.7819
G01 X11.2958 Y8.8472
G01 X11.3034 Y8.8552
G01 X11.3683 Y8.9272
G01 X11.4263 Y9.0048
G01 X11.4326 Y9.0139
G01 X11.4827 Y9.0969
G01 X11.4881 Y9.1065
G01 X11.4931 Y9.1163
G01 X11.5343 Y9.2040
G01 X11.5672 Y9.2952
G01 X11.5706 Y9.3057
G01 X11.5736 Y9.3163
G01 X11.5944 Y9.3996
G01 X11.5969 Y9.4104
G01 X11.5988 Y9.4213
G01 X11.6127 Y9.5172
G01 X11.6179 Y9.6195
G01 X11.6180 Y10.3750
G01 X11.6135 Y10.4718
G01 X11.6127 Y10.4828
G01 X11.6114 Y10.4938
G01 X11.5969 Y10.5896
G01 X11.5736 Y10.6837
G01 X11.5706 Y10.6943
G01 X11.5672 Y10.7048
G01 X11.5343 Y10.7960
G01 X11.4934 Y10.8830
G01 X11.4934 Y20.3460
G01 X12.6529 Y21.5055
G01 X13.5237 Y21.5055
G01 X13.5573 Y21.4971
G01 X13.5735 Y21.4937
G01 X13.6566 Y21.4813
G01 X13.6730 Y21.4795
G01 X13.7680 Y21.4750
G01 X13.8630 Y21.4795
G01 X13.8794 Y21.4813
G01 X13.9680 Y21.4947
G01 X14.0549 Y21.5162
G01 X14.0655 Y21.5191
G01 X14.0760 Y21.5226
G01 X14.1603 Y21.5530
G01 X14.2413 Y21.5911
G01 X14.2512 Y21.5960
G01 X14.2608 Y21.6015
G01 X14.3375 Y21.6477
G01 X14.3465 Y21.6541
G01 X14.4183 Y21.7077
G01 X14.4848 Y21.7676
G01 X14.4928 Y21.7752
G01 X14.5004 Y21.7832
G01 X14.5603 Y21.8497
G01 X14.6139 Y21.9215
G01 X14.6203 Y21.9305
G01 X14.6262 Y21.9399
G01 X14.6720 Y22.0168
G01 X14.7105 Y22.0977
G01 X14.7150 Y22.1077
G01 X14.7454 Y22.1920
G01 X14.7489 Y22.2025
G01 X14.7518 Y22.2131
G01 X14.7733 Y22.3000
G01 X14.7867 Y22.3886
G01 X14.7881 Y22.3995
G01 X14.7889 Y22.4105
G01 X14.7929 Y22.4945
G01 X14.7927 Y22.5110
G01 X14.7881 Y22.6005
G01 X14.7752 Y22.6891
G01 X14.7733 Y22.7000
G01 X14.7709 Y22.7107
G01 X14.7518 Y22.7869
G01 X14.7489 Y22.7975
G01 X14.7454 Y22.8080
G01 X14.7150 Y22.8923
G01 X14.7105 Y22.9023
G01 X14.6720 Y22.9832
G01 X14.6262 Y23.0601
G01 X14.6203 Y23.0695
G01 X14.6139 Y23.0785
G01 X14.5603 Y23.1503
G01 X14.5004 Y23.2168
G01 X14.4928 Y23.2248
G01 X14.4848 Y23.2324
G01 X14.4183 Y23.2923
G01 X14.3465 Y23.3459
G01 X14.3375 Y23.3523
G01 X14.2608 Y23.3985
G01 X14.2512 Y23.4040
G01 X14.2413 Y23.4089
G01 X14.1703 Y23.4425
G01 X14.1603 Y23.4470
G01 X14.1499 Y23.4510
G01 X14.0655 Y23.4809
G01 X13.9787 Y23.5029
G01 X13.9625 Y23.5063
G01 X13.8685 Y23.5201
G01 X13.7790 Y23.5247
G01 X13.7680 Y23.5250
G01 X13.7570 Y23.5247
G01 X13.6675 Y23.5201
G01 X13.5789 Y23.5072
G01 X13.5680 Y23.5053
G01 X13.5573 Y23.5029
G01 X13.4705 Y23.4809
G01 X13.4009 Y23.4563
G01 X12.2434 Y23.4562
G01 X12.1533 Y23.4516
G01 X12.0640 Y23.4385
G01 X12.0478 Y23.4351
G01 X11.9658 Y23.4143
G01 X11.8859 Y23.3860
G01 X11.8756 Y23.3820
G01 X11.8655 Y23.3776
G01 X11.7990 Y23.3461
G01 X11.7891 Y23.3411
G01 X11.7795 Y23.3357
G01 X11.7070 Y23.2919
G01 X11.6388 Y23.2417
G01 X11.6301 Y23.2349
G01 X11.5632 Y23.1745
G01 X11.4934 Y23.1048
G01 X11.4934 Y28.3060
G01 X14.2359 Y31.0485
G01 X14.2512 Y31.0560
G01 X14.2608 Y31.0615
G01 X14.3375 Y31.1077
G01 X14.4095 Y31.1609
G01 X14.4225 Y31.1712
G01 X14.4848 Y31.2276
G01 X14.4928 Y31.2352
G01 X14.5004 Y31.2432
G01 X14.5603 Y31.3097
G01 X14.6163 Y31.3848
G01 X16.2335 Y31.3849
G01 X16.2844 Y31.3876
G01 X16.2953 Y31.3889
G01 X16.3402 Y31.3959
G01 X16.3843 Y31.4066
G01 X16.3950 Y31.4096
G01 X16.4055 Y31.4131
G01 X16.4481 Y31.4286
G01 X16.4893 Y31.4478
G01 X16.4991 Y31.4527
G01 X16.5087 Y31.4582
G01 X16.5476 Y31.4818
G01 X16.5842 Y31.5086
G01 X16.5929 Y31.5154
G01 X16.6308 Y31.5494
G01 X17.8249 Y32.7435
G01 X17.9175 Y32.7299
G01 X18.0070 Y32.7253
G01 X18.0180 Y32.7250
G01 X18.0290 Y32.7253
G01 X18.1185 Y32.7299
G01 X18.2071 Y32.7428
G01 X18.2180 Y32.7447
G01 X18.3049 Y32.7662
G01 X18.3155 Y32.7691
G01 X18.3260 Y32.7726
G01 X18.4103 Y32.8030
G01 X18.4203 Y32.8075
G01 X18.5012 Y32.8460
G01 X18.5781 Y32.8918
G01 X18.5875 Y32.8977
G01 X18.5965 Y32.9041
G01 X18.6683 Y32.9577
G01 X18.7348 Y33.0176
G01 X18.7428 Y33.0252
G01 X18.7504 Y33.0332
G01 X18.8103 Y33.0997
G01 X18.8663 Y33.1748
G01 X21.2798 Y33.1748
G01 X25.1152 Y29.3394
G01 X25.1489 Y29.3089
G01 X25.1618 Y29.2986
G01 X25.1984 Y29.2718
G01 X25.2373 Y29.2482
G01 X25.2469 Y29.2427
G01 X25.2567 Y29.2378
G01 X25.2979 Y29.2186
G01 X25.3405 Y29.2031
G01 X25.3563 Y29.1981
G01 X25.4058 Y29.1859
G01 X25.4507 Y29.1789
G01 X25.4616 Y29.1776
G01 X25.4726 Y29.1768
G01 X25.5180 Y29.1748
G01 X36.1480 Y29.1748
G01 X36.1934 Y29.1768
G01 X36.2044 Y29.1776
G01 X36.2153 Y29.1789
G01 X36.2602 Y29.1859
G01 X36.3043 Y29.1966
G01 X36.3150 Y29.1996
G01 X36.3255 Y29.2031
G01 X36.3681 Y29.2186
G01 X36.4093 Y29.2378
G01 X36.4191 Y29.2427
G01 X36.4287 Y29.2482
G01 X36.4582 Y29.2659
G01 X36.4721 Y29.2749
G01 X36.5129 Y29.3054
G01 X36.5508 Y29.3394
G01 X40.9338 Y33.7224
G01 X40.9765 Y33.7160
G01 X40.9929 Y33.7142
G01 X41.0775 Y33.7101
G01 X41.0940 Y33.7103
G01 X41.1731 Y33.7142
G01 X41.1895 Y33.7160
G01 X41.2732 Y33.7287
G01 X41.3554 Y33.7490
G01 X41.3713 Y33.7537
G01 X41.4458 Y33.7802
G01 X41.4561 Y33.7842
G01 X41.4662 Y33.7887
G01 X41.5426 Y33.8251
G01 X41.6154 Y33.8684
G01 X41.6247 Y33.8743
G01 X41.6337 Y33.8807
G01 X41.7015 Y33.9313
G01 X41.7644 Y33.9880
G01 X41.7724 Y33.9956
G01 X41.7800 Y34.0036
G01 X41.8367 Y34.0665
G01 X41.8873 Y34.1343
G01 X41.8937 Y34.1433
G01 X41.9374 Y34.2158
G01 X41.9429 Y34.2254
G01 X41.9478 Y34.2353
G01 X41.9838 Y34.3119
G01 X42.0126 Y34.3915
G01 X42.0160 Y34.4020
G01 X42.0190 Y34.4126
G01 X42.0393 Y34.4948
G01 X42.0520 Y34.5785
G01 X42.0533 Y34.5894
G01 X42.0577 Y34.6740
G01 X42.0580 Y34.6850
G01 X42.0577 Y34.6960
G01 X42.0541 Y34.7696
G01 X42.0533 Y34.7806
G01 X42.0520 Y34.7915
G01 X42.0393 Y34.8752
G01 X42.0190 Y34.9574
G01 X42.0160 Y34.9680
G01 X42.0126 Y34.9785
G01 X41.9838 Y35.0581
G01 X41.9478 Y35.1347
G01 X41.9429 Y35.1446
G01 X41.9374 Y35.1542
G01 X41.8937 Y35.2267
G01 X41.8435 Y35.2948
G01 X41.8367 Y35.3035
G01 X41.8295 Y35.3119
G01 X41.7724 Y35.3744
G01 X41.7644 Y35.3820
G01 X41.7015 Y35.4387
G01 X41.6337 Y35.4893
G01 X41.6247 Y35.4957
G01 X41.5522 Y35.5394
G01 X41.5426 Y35.5449
G01 X41.5327 Y35.5498
G01 X41.4561 Y35.5858
G01 X41.3765 Y35.6146
G01 X41.3660 Y35.6180
G01 X41.3554 Y35.6210
G01 X41.2732 Y35.6413
G01 X41.1895 Y35.6540
G01 X41.1786 Y35.6553
G01 X41.1676 Y35.6561
G01 X41.0830 Y35.6600
G01 X40.9984 Y35.6561
G01 X40.9874 Y35.6553
G01 X40.9765 Y35.6540
G01 X40.8928 Y35.6413
G01 X40.8106 Y35.6210
G01 X40.8000 Y35.6180
G01 X40.7895 Y35.6146
G01 X40.7099 Y35.5858
G01 X40.6333 Y35.5498
G01 X40.6234 Y35.5449
G01 X40.6138 Y35.5394
G01 X40.5413 Y35.4957
G01 X40.5323 Y35.4893
G01 X40.4645 Y35.4387
G01 X40.4016 Y35.3820
G01 X40.3936 Y35.3744
G01 X40.3860 Y35.3664
G01 X40.3293 Y35.3035
G01 X40.2787 Y35.2357
G01 X40.2723 Y35.2267
G01 X40.2664 Y35.2174
G01 X40.2231 Y35.1446
G01 X40.1867 Y35.0682
G01 X40.1802 Y35.0530
G01 X40.1534 Y34.9785
G01 X40.1500 Y34.9680
G01 X40.1470 Y34.9574
G01 X40.1267 Y34.8752
G01 X40.1133 Y34.7861
G01 X40.1119 Y34.7696
G01 X40.1083 Y34.6960
G01 X40.1081 Y34.6795
G01 X40.1122 Y34.5949
G01 X40.1140 Y34.5785
G01 X40.1204 Y34.5358
G01 X35.9098 Y30.3252
G01 X25.7562 Y30.3252
G01 X22.3314 Y33.7500
G01 X23.1747 Y34.5933
G01 X23.1823 Y34.6013
G01 X23.2091 Y34.6309
G01 X23.2194 Y34.6438
G01 X23.2462 Y34.6804
G01 X23.2698 Y34.7193
G01 X23.2778 Y34.7338
G01 X23.2972 Y34.7748
G01 X23.3034 Y34.7902
G01 X23.3167 Y34.8278
G01 X23.3214 Y34.8437
G01 X23.3297 Y34.8770
G01 X23.3321 Y34.8878
G01 X23.3340 Y34.8987
G01 X23.3404 Y34.9436
G01 X23.3431 Y34.9945
G01 X23.3432 Y36.8095
G01 X23.3708 Y36.8472
G01 X23.4030 Y36.9004
G01 X23.4352 Y36.8472
G01 X23.4708 Y36.7988
G01 X23.4776 Y36.7901
G01 X23.4848 Y36.7817
G01 X23.5253 Y36.7373
G01 X23.5333 Y36.7297
G01 X23.5781 Y36.6896
G01 X23.6262 Y36.6535
G01 X23.6352 Y36.6472
G01 X23.6445 Y36.6413
G01 X23.6962 Y36.6106
G01 X23.7061 Y36.6056
G01 X23.7606 Y36.5802
G01 X23.8171 Y36.5597
G01 X23.8275 Y36.5562
G01 X23.8382 Y36.5533
G01 X23.8966 Y36.5389
G01 X23.9560 Y36.5298
G01 X23.9669 Y36.5285
G01 X23.9780 Y36.5277
G01 X24.0380 Y36.5250
G01 X24.0980 Y36.5277
G01 X24.1091 Y36.5285
G01 X24.1200 Y36.5298
G01 X24.1794 Y36.5389
G01 X24.2378 Y36.5533
G01 X24.2485 Y36.5562
G01 X24.2589 Y36.5597
G01 X24.3154 Y36.5802
G01 X24.3749 Y36.6081
G01 X24.3894 Y36.6161
G01 X24.4315 Y36.6413
G01 X24.4408 Y36.6472
G01 X24.4498 Y36.6535
G01 X24.4979 Y36.6896
G01 X24.5427 Y36.7297
G01 X24.5507 Y36.7373
G01 X24.5583 Y36.7453
G01 X24.5984 Y36.7901
G01 X24.6345 Y36.8382
G01 X24.6408 Y36.8472
G01 X24.6467 Y36.8565
