(G-CODE GENERATED BY FLATCAM v8.994 - www.flatcam.org - Version Date: 2020/11/7)

(Name: PCB1_Board.gbr_cutout_cnc)
(Type: G-code from Geometry)
(Units: MM)

(Created on Wednesday, 03 July 2024 at 12:44)

(This preprocessor is the default preprocessor used by FlatCAM.)
(It is made to work with MACH3 compatible motion controllers.)

(TOOL DIAMETER: 2.4 mm)
(Feedrate_XY: 180.0 mm/min)
(Feedrate_Z: 60.0 mm/min)
(Feedrate rapids 1500.0 mm/min)

(Z_Cut: -2.4 mm)
(DepthPerCut: 0.6 mm <=>4 passes)
(Z_Move: 2.0 mm)
(Z Start: None mm)
(Z End: 15.0 mm)
(X,Y End: 0.0000, 0.0000 mm)
(Steps per circle: 64)
(Preprocessor Geometry: default)

(X range:    3.3409 ...   87.4271  mm)
(Y range:    2.5729 ...   50.9641  mm)

(Spindle Speed: 0.0 RPM)
G21
G90
G94

G01 F180.00

M5
G00 Z15.0000
G00 X0.0000 Y0.0000
T1
M6    
(MSG, Change to Tool Dia = 2.4000)
M0
G00 Z15.0000

M03
G01 F180.00
G00 X3.3409 Y25.1685
G01 F60.00
G01 Z-0.6000
G01 F180.00
G01 X3.3409 Y4.0000
G01 X3.3425 Y3.9362
G01 X3.3431 Y3.9238
G01 X3.3556 Y3.7968
G01 X3.3574 Y3.7845
G01 X3.3823 Y3.6593
G01 X3.3854 Y3.6472
G01 X3.4224 Y3.5252
G01 X3.4266 Y3.5134
G01 X3.4754 Y3.3956
G01 X3.4808 Y3.3843
G01 X3.5409 Y3.2718
G01 X3.5473 Y3.2611
G01 X3.6182 Y3.1550
G01 X3.6256 Y3.1450
G01 X3.7065 Y3.0464
G01 X3.7149 Y3.0371
G01 X3.8051 Y2.9469
G01 X3.8144 Y2.9385
G01 X3.9130 Y2.8576
G01 X3.9230 Y2.8502
G01 X4.0291 Y2.7793
G01 X4.0398 Y2.7729
G01 X4.1523 Y2.7128
G01 X4.1636 Y2.7074
G01 X4.2814 Y2.6586
G01 X4.2932 Y2.6544
G01 X4.4152 Y2.6174
G01 X4.4273 Y2.6143
G01 X4.5525 Y2.5894
G01 X4.5648 Y2.5876
G01 X4.6918 Y2.5751
G01 X4.7042 Y2.5745
G01 X4.7680 Y2.5729
G01 X43.7840 Y2.5729
G00 X43.7840 Y2.5729
G01 F60.00
G01 Z-1.2000
G01 F180.00
G01 X4.7680 Y2.5729
G01 X4.7042 Y2.5745
G01 X4.6918 Y2.5751
G01 X4.5648 Y2.5876
G01 X4.5525 Y2.5894
G01 X4.4273 Y2.6143
G01 X4.4152 Y2.6174
G01 X4.2932 Y2.6544
G01 X4.2814 Y2.6586
G01 X4.1636 Y2.7074
G01 X4.1523 Y2.7128
G01 X4.0398 Y2.7729
G01 X4.0291 Y2.7793
G01 X3.9230 Y2.8502
G01 X3.9130 Y2.8576
G01 X3.8144 Y2.9385
G01 X3.8051 Y2.9469
G01 X3.7149 Y3.0371
G01 X3.7065 Y3.0464
G01 X3.6256 Y3.1450
G01 X3.6182 Y3.1550
G01 X3.5473 Y3.2611
G01 X3.5409 Y3.2718
G01 X3.4808 Y3.3843
G01 X3.4754 Y3.3956
G01 X3.4266 Y3.5134
G01 X3.4224 Y3.5252
G01 X3.3854 Y3.6472
G01 X3.3823 Y3.6593
G01 X3.3574 Y3.7845
G01 X3.3556 Y3.7968
G01 X3.3431 Y3.9238
G01 X3.3425 Y3.9362
G01 X3.3409 Y4.0000
G01 X3.3409 Y25.1685
G00 X3.3409 Y25.1685
G01 F60.00
G01 Z-1.8000
G01 F180.00
G01 X3.3409 Y4.0000
G01 X3.3425 Y3.9362
G01 X3.3431 Y3.9238
G01 X3.3556 Y3.7968
G01 X3.3574 Y3.7845
G01 X3.3823 Y3.6593
G01 X3.3854 Y3.6472
G01 X3.4224 Y3.5252
G01 X3.4266 Y3.5134
G01 X3.4754 Y3.3956
G01 X3.4808 Y3.3843
G01 X3.5409 Y3.2718
G01 X3.5473 Y3.2611
G01 X3.6182 Y3.1550
G01 X3.6256 Y3.1450
G01 X3.7065 Y3.0464
G01 X3.7149 Y3.0371
G01 X3.8051 Y2.9469
G01 X3.8144 Y2.9385
G01 X3.9130 Y2.8576
G01 X3.9230 Y2.8502
G01 X4.0291 Y2.7793
G01 X4.0398 Y2.7729
G01 X4.1523 Y2.7128
G01 X4.1636 Y2.7074
G01 X4.2814 Y2.6586
G01 X4.2932 Y2.6544
G01 X4.4152 Y2.6174
G01 X4.4273 Y2.6143
G01 X4.5525 Y2.5894
G01 X4.5648 Y2.5876
G01 X4.6918 Y2.5751
G01 X4.7042 Y2.5745
G01 X4.7680 Y2.5729
G01 X43.7840 Y2.5729
G00 X43.7840 Y2.5729
G01 F60.00
G01 Z-2.4000
G01 F180.00
G01 X4.7680 Y2.5729
G01 X4.7042 Y2.5745
G01 X4.6918 Y2.5751
G01 X4.5648 Y2.5876
G01 X4.5525 Y2.5894
G01 X4.4273 Y2.6143
G01 X4.4152 Y2.6174
G01 X4.2932 Y2.6544
G01 X4.2814 Y2.6586
G01 X4.1636 Y2.7074
G01 X4.1523 Y2.7128
G01 X4.0398 Y2.7729
G01 X4.0291 Y2.7793
G01 X3.9230 Y2.8502
G01 X3.9130 Y2.8576
G01 X3.8144 Y2.9385
G01 X3.8051 Y2.9469
G01 X3.7149 Y3.0371
G01 X3.7065 Y3.0464
G01 X3.6256 Y3.1450
G01 X3.6182 Y3.1550
G01 X3.5473 Y3.2611
G01 X3.5409 Y3.2718
G01 X3.4808 Y3.3843
G01 X3.4754 Y3.3956
G01 X3.4266 Y3.5134
G01 X3.4224 Y3.5252
G01 X3.3854 Y3.6472
G01 X3.3823 Y3.6593
G01 X3.3574 Y3.7845
G01 X3.3556 Y3.7968
G01 X3.3431 Y3.9238
G01 X3.3425 Y3.9362
G01 X3.3409 Y4.0000
G01 X3.3409 Y25.1685
G00 Z2.0000
G00 X3.3409 Y28.5685
G01 F60.00
G01 Z-0.6000
G01 F180.00
G01 X3.3409 Y49.5370
G01 X3.3425 Y49.6008
G01 X3.3431 Y49.6132
G01 X3.3556 Y49.7402
G01 X3.3574 Y49.7525
G01 X3.3823 Y49.8777
G01 X3.3854 Y49.8898
G01 X3.4224 Y50.0118
G01 X3.4266 Y50.0236
G01 X3.4754 Y50.1414
G01 X3.4808 Y50.1527
G01 X3.5409 Y50.2652
G01 X3.5473 Y50.2759
G01 X3.6182 Y50.3820
G01 X3.6256 Y50.3920
G01 X3.7065 Y50.4906
G01 X3.7149 Y50.4999
G01 X3.8051 Y50.5901
G01 X3.8144 Y50.5985
G01 X3.9130 Y50.6794
G01 X3.9230 Y50.6868
G01 X4.0291 Y50.7577
G01 X4.0398 Y50.7641
G01 X4.1523 Y50.8242
G01 X4.1636 Y50.8296
G01 X4.2814 Y50.8784
G01 X4.2932 Y50.8826
G01 X4.4152 Y50.9196
G01 X4.4273 Y50.9227
G01 X4.5525 Y50.9476
G01 X4.5648 Y50.9494
G01 X4.6918 Y50.9619
G01 X4.7042 Y50.9625
G01 X4.7680 Y50.9641
G01 X43.7840 Y50.9641
G00 X43.7840 Y50.9641
G01 F60.00
G01 Z-1.2000
G01 F180.00
G01 X4.7680 Y50.9641
G01 X4.7042 Y50.9625
G01 X4.6918 Y50.9619
G01 X4.5648 Y50.9494
G01 X4.5525 Y50.9476
G01 X4.4273 Y50.9227
G01 X4.4152 Y50.9196
G01 X4.2932 Y50.8826
G01 X4.2814 Y50.8784
G01 X4.1636 Y50.8296
G01 X4.1523 Y50.8242
G01 X4.0398 Y50.7641
G01 X4.0291 Y50.7577
G01 X3.9230 Y50.6868
G01 X3.9130 Y50.6794
G01 X3.8144 Y50.5985
G01 X3.8051 Y50.5901
G01 X3.7149 Y50.4999
G01 X3.7065 Y50.4906
G01 X3.6256 Y50.3920
G01 X3.6182 Y50.3820
G01 X3.5473 Y50.2759
G01 X3.5409 Y50.2652
G01 X3.4808 Y50.1527
G01 X3.4754 Y50.1414
G01 X3.4266 Y50.0236
G01 X3.4224 Y50.0118
G01 X3.3854 Y49.8898
G01 X3.3823 Y49.8777
G01 X3.3574 Y49.7525
G01 X3.3556 Y49.7402
G01 X3.3431 Y49.6132
G01 X3.3425 Y49.6008
G01 X3.3409 Y49.5370
G01 X3.3409 Y28.5685
G00 X3.3409 Y28.5685
G01 F60.00
G01 Z-1.8000
G01 F180.00
G01 X3.3409 Y49.5370
G01 X3.3425 Y49.6008
G01 X3.3431 Y49.6132
G01 X3.3556 Y49.7402
G01 X3.3574 Y49.7525
G01 X3.3823 Y49.8777
G01 X3.3854 Y49.8898
G01 X3.4224 Y50.0118
G01 X3.4266 Y50.0236
G01 X3.4754 Y50.1414
G01 X3.4808 Y50.1527
G01 X3.5409 Y50.2652
G01 X3.5473 Y50.2759
G01 X3.6182 Y50.3820
G01 X3.6256 Y50.3920
G01 X3.7065 Y50.4906
G01 X3.7149 Y50.4999
G01 X3.8051 Y50.5901
G01 X3.8144 Y50.5985
G01 X3.9130 Y50.6794
G01 X3.9230 Y50.6868
G01 X4.0291 Y50.7577
G01 X4.0398 Y50.7641
G01 X4.1523 Y50.8242
G01 X4.1636 Y50.8296
G01 X4.2814 Y50.8784
G01 X4.2932 Y50.8826
G01 X4.4152 Y50.9196
G01 X4.4273 Y50.9227
G01 X4.5525 Y50.9476
G01 X4.5648 Y50.9494
G01 X4.6918 Y50.9619
G01 X4.7042 Y50.9625
G01 X4.7680 Y50.9641
G01 X43.7840 Y50.9641
G00 X43.7840 Y50.9641
G01 F60.00
G01 Z-2.4000
G01 F180.00
G01 X4.7680 Y50.9641
G01 X4.7042 Y50.9625
G01 X4.6918 Y50.9619
G01 X4.5648 Y50.9494
G01 X4.5525 Y50.9476
G01 X4.4273 Y50.9227
G01 X4.4152 Y50.9196
G01 X4.2932 Y50.8826
G01 X4.2814 Y50.8784
G01 X4.1636 Y50.8296
G01 X4.1523 Y50.8242
G01 X4.0398 Y50.7641
G01 X4.0291 Y50.7577
G01 X3.9230 Y50.6868
G01 X3.9130 Y50.6794
G01 X3.8144 Y50.5985
G01 X3.8051 Y50.5901
G01 X3.7149 Y50.4999
G01 X3.7065 Y50.4906
G01 X3.6256 Y50.3920
G01 X3.6182 Y50.3820
G01 X3.5473 Y50.2759
G01 X3.5409 Y50.2652
G01 X3.4808 Y50.1527
G01 X3.4754 Y50.1414
G01 X3.4266 Y50.0236
G01 X3.4224 Y50.0118
G01 X3.3854 Y49.8898
G01 X3.3823 Y49.8777
G01 X3.3574 Y49.7525
G01 X3.3556 Y49.7402
G01 X3.3431 Y49.6132
G01 X3.3425 Y49.6008
G01 X3.3409 Y49.5370
G01 X3.3409 Y28.5685
G00 Z2.0000
G00 X47.1840 Y50.9641
G01 F60.00
G01 Z-0.6000
G01 F180.00
G01 X86.0000 Y50.9641
G01 X86.0638 Y50.9625
G01 X86.0762 Y50.9619
G01 X86.2032 Y50.9494
G01 X86.2155 Y50.9476
G01 X86.3407 Y50.9227
G01 X86.3528 Y50.9196
G01 X86.4748 Y50.8826
G01 X86.4866 Y50.8784
G01 X86.6044 Y50.8296
G01 X86.6157 Y50.8242
G01 X86.7282 Y50.7641
G01 X86.7389 Y50.7577
G01 X86.8450 Y50.6868
G01 X86.8550 Y50.6794
G01 X86.9536 Y50.5985
G01 X86.9629 Y50.5901
G01 X87.0531 Y50.4999
G01 X87.0615 Y50.4906
G01 X87.1424 Y50.3920
G01 X87.1498 Y50.3820
G01 X87.2207 Y50.2759
G01 X87.2271 Y50.2652
G01 X87.2872 Y50.1527
G01 X87.2926 Y50.1414
G01 X87.3414 Y50.0236
G01 X87.3456 Y50.0118
G01 X87.3826 Y49.8898
G01 X87.3857 Y49.8777
G01 X87.4106 Y49.7525
G01 X87.4124 Y49.7402
G01 X87.4249 Y49.6132
G01 X87.4255 Y49.6008
G01 X87.4271 Y49.5370
G01 X87.4271 Y28.5685
G00 X87.4271 Y28.5685
G01 F60.00
G01 Z-1.2000
G01 F180.00
G01 X87.4271 Y49.5370
G01 X87.4255 Y49.6008
G01 X87.4249 Y49.6132
G01 X87.4124 Y49.7402
G01 X87.4106 Y49.7525
G01 X87.3857 Y49.8777
G01 X87.3826 Y49.8898
G01 X87.3456 Y50.0118
G01 X87.3414 Y50.0236
G01 X87.2926 Y50.1414
G01 X87.2872 Y50.1527
G01 X87.2271 Y50.2652
G01 X87.2207 Y50.2759
G01 X87.1498 Y50.3820
G01 X87.1424 Y50.3920
G01 X87.0615 Y50.4906
G01 X87.0531 Y50.4999
G01 X86.9629 Y50.5901
G01 X86.9536 Y50.5985
G01 X86.8550 Y50.6794
G01 X86.8450 Y50.6868
G01 X86.7389 Y50.7577
G01 X86.7282 Y50.7641
G01 X86.6157 Y50.8242
G01 X86.6044 Y50.8296
G01 X86.4866 Y50.8784
G01 X86.4748 Y50.8826
G01 X86.3528 Y50.9196
G01 X86.3407 Y50.9227
G01 X86.2155 Y50.9476
G01 X86.2032 Y50.9494
G01 X86.0762 Y50.9619
G01 X86.0638 Y50.9625
G01 X86.0000 Y50.9641
G01 X47.1840 Y50.9641
G00 X47.1840 Y50.9641
G01 F60.00
G01 Z-1.8000
G01 F180.00
G01 X86.0000 Y50.9641
G01 X86.0638 Y50.9625
G01 X86.0762 Y50.9619
G01 X86.2032 Y50.9494
G01 X86.2155 Y50.9476
G01 X86.3407 Y50.9227
G01 X86.3528 Y50.9196
G01 X86.4748 Y50.8826
G01 X86.4866 Y50.8784
G01 X86.6044 Y50.8296
G01 X86.6157 Y50.8242
G01 X86.7282 Y50.7641
G01 X86.7389 Y50.7577
G01 X86.8450 Y50.6868
G01 X86.8550 Y50.6794
G01 X86.9536 Y50.5985
G01 X86.9629 Y50.5901
G01 X87.0531 Y50.4999
G01 X87.0615 Y50.4906
G01 X87.1424 Y50.3920
G01 X87.1498 Y50.3820
G01 X87.2207 Y50.2759
G01 X87.2271 Y50.2652
G01 X87.2872 Y50.1527
G01 X87.2926 Y50.1414
G01 X87.3414 Y50.0236
G01 X87.3456 Y50.0118
G01 X87.3826 Y49.8898
G01 X87.3857 Y49.8777
G01 X87.4106 Y49.7525
G01 X87.4124 Y49.7402
G01 X87.4249 Y49.6132
G01 X87.4255 Y49.6008
G01 X87.4271 Y49.5370
G01 X87.4271 Y28.5685
G00 X87.4271 Y28.5685
G01 F60.00
G01 Z-2.4000
G01 F180.00
G01 X87.4271 Y49.5370
G01 X87.4255 Y49.6008
G01 X87.4249 Y49.6132
G01 X87.4124 Y49.7402
G01 X87.4106 Y49.7525
G01 X87.3857 Y49.8777
G01 X87.3826 Y49.8898
G01 X87.3456 Y50.0118
G01 X87.3414 Y50.0236
G01 X87.2926 Y50.1414
G01 X87.2872 Y50.1527
G01 X87.2271 Y50.2652
G01 X87.2207 Y50.2759
G01 X87.1498 Y50.3820
G01 X87.1424 Y50.3920
G01 X87.0615 Y50.4906
G01 X87.0531 Y50.4999
G01 X86.9629 Y50.5901
G01 X86.9536 Y50.5985
G01 X86.8550 Y50.6794
G01 X86.8450 Y50.6868
G01 X86.7389 Y50.7577
G01 X86.7282 Y50.7641
G01 X86.6157 Y50.8242
G01 X86.6044 Y50.8296
G01 X86.4866 Y50.8784
G01 X86.4748 Y50.8826
G01 X86.3528 Y50.9196
G01 X86.3407 Y50.9227
G01 X86.2155 Y50.9476
G01 X86.2032 Y50.9494
G01 X86.0762 Y50.9619
G01 X86.0638 Y50.9625
G01 X86.0000 Y50.9641
G01 X47.1840 Y50.9641
G00 Z2.0000
G00 X87.4271 Y25.1685
G01 F60.00
G01 Z-0.6000
G01 F180.00
G01 X87.4271 Y4.0000
G01 X87.4255 Y3.9362
G01 X87.4249 Y3.9238
G01 X87.4124 Y3.7968
G01 X87.4106 Y3.7845
G01 X87.3857 Y3.6593
G01 X87.3826 Y3.6472
G01 X87.3456 Y3.5252
G01 X87.3414 Y3.5134
G01 X87.2926 Y3.3956
G01 X87.2872 Y3.3843
G01 X87.2271 Y3.2718
G01 X87.2207 Y3.2611
G01 X87.1498 Y3.1550
G01 X87.1424 Y3.1450
G01 X87.0615 Y3.0464
G01 X87.0531 Y3.0371
G01 X86.9629 Y2.9469
G01 X86.9536 Y2.9385
G01 X86.8550 Y2.8576
G01 X86.8450 Y2.8502
G01 X86.7389 Y2.7793
G01 X86.7282 Y2.7729
G01 X86.6157 Y2.7128
G01 X86.6044 Y2.7074
G01 X86.4866 Y2.6586
G01 X86.4748 Y2.6544
G01 X86.3528 Y2.6174
G01 X86.3407 Y2.6143
G01 X86.2155 Y2.5894
G01 X86.2032 Y2.5876
G01 X86.0762 Y2.5751
G01 X86.0638 Y2.5745
G01 X86.0000 Y2.5729
G01 X47.1840 Y2.5729
G00 X47.1840 Y2.5729
G01 F60.00
G01 Z-1.2000
G01 F180.00
G01 X86.0000 Y2.5729
G01 X86.0638 Y2.5745
G01 X86.0762 Y2.5751
G01 X86.2032 Y2.5876
G01 X86.2155 Y2.5894
G01 X86.3407 Y2.6143
G01 X86.3528 Y2.6174
G01 X86.4748 Y2.6544
G01 X86.4866 Y2.6586
G01 X86.6044 Y2.7074
G01 X86.6157 Y2.7128
G01 X86.7282 Y2.7729
G01 X86.7389 Y2.7793
G01 X86.8450 Y2.8502
G01 X86.8550 Y2.8576
G01 X86.9536 Y2.9385
G01 X86.9629 Y2.9469
G01 X87.0531 Y3.0371
G01 X87.0615 Y3.0464
G01 X87.1424 Y3.1450
G01 X87.1498 Y3.1550
G01 X87.2207 Y3.2611
G01 X87.2271 Y3.2718
G01 X87.2872 Y3.3843
G01 X87.2926 Y3.3956
G01 X87.3414 Y3.5134
G01 X87.3456 Y3.5252
G01 X87.3826 Y3.6472
G01 X87.3857 Y3.6593
G01 X87.4106 Y3.7845
G01 X87.4124 Y3.7968
G01 X87.4249 Y3.9238
G01 X87.4255 Y3.9362
G01 X87.4271 Y4.0000
G01 X87.4271 Y25.1685
G00 X87.4271 Y25.1685
G01 F60.00
G01 Z-1.8000
G01 F180.00
G01 X87.4271 Y4.0000
G01 X87.4255 Y3.9362
G01 X87.4249 Y3.9238
G01 X87.4124 Y3.7968
G01 X87.4106 Y3.7845
G01 X87.3857 Y3.6593
G01 X87.3826 Y3.6472
G01 X87.3456 Y3.5252
G01 X87.3414 Y3.5134
G01 X87.2926 Y3.3956
G01 X87.2872 Y3.3843
G01 X87.2271 Y3.2718
G01 X87.2207 Y3.2611
G01 X87.1498 Y3.1550
G01 X87.1424 Y3.1450
G01 X87.0615 Y3.0464
G01 X87.0531 Y3.0371
G01 X86.9629 Y2.9469
G01 X86.9536 Y2.9385
G01 X86.8550 Y2.8576
G01 X86.8450 Y2.8502
G01 X86.7389 Y2.7793
G01 X86.7282 Y2.7729
G01 X86.6157 Y2.7128
G01 X86.6044 Y2.7074
G01 X86.4866 Y2.6586
G01 X86.4748 Y2.6544
G01 X86.3528 Y2.6174
G01 X86.3407 Y2.6143
G01 X86.2155 Y2.5894
G01 X86.2032 Y2.5876
G01 X86.0762 Y2.5751
G01 X86.0638 Y2.5745
G01 X86.0000 Y2.5729
G01 X47.1840 Y2.5729
G00 X47.1840 Y2.5729
G01 F60.00
G01 Z-2.4000
G01 F180.00
G01 X86.0000 Y2.5729
G01 X86.0638 Y2.5745
G01 X86.0762 Y2.5751
G01 X86.2032 Y2.5876
G01 X86.2155 Y2.5894
G01 X86.3407 Y2.6143
G01 X86.3528 Y2.6174
G01 X86.4748 Y2.6544
G01 X86.4866 Y2.6586
G01 X86.6044 Y2.7074
G01 X86.6157 Y2.7128
G01 X86.7282 Y2.7729
G01 X86.7389 Y2.7793
G01 X86.8450 Y2.8502
G01 X86.8550 Y2.8576
G01 X86.9536 Y2.9385
G01 X86.9629 Y2.9469
G01 X87.0531 Y3.0371
G01 X87.0615 Y3.0464
G01 X87.1424 Y3.1450
G01 X87.1498 Y3.1550
G01 X87.2207 Y3.2611
G01 X87.2271 Y3.2718
G01 X87.2872 Y3.3843
G01 X87.2926 Y3.3956
G01 X87.3414 Y3.5134
G01 X87.3456 Y3.5252
G01 X87.3826 Y3.6472
G01 X87.3857 Y3.6593
G01 X87.4106 Y3.7845
G01 X87.4124 Y3.7968
G01 X87.4249 Y3.9238
G01 X87.4255 Y3.9362
G01 X87.4271 Y4.0000
G01 X87.4271 Y25.1685
G00 Z2.0000
M05
G00 Z2.0000
G00 Z15.00
G00 X0.0 Y0.0


