(G-CODE GENERATED BY FLATCAM v8.994 - www.flatcam.org - Version Date: 2020/11/7)

(Name: PCB1.TXT_cnc)
(Type: G-code from Geometry)
(Units: MM)

(Created on Wednesday, 03 July 2024 at 12:44)

(This preprocessor is the default preprocessor used by FlatCAM.)
(It is made to work with MACH3 compatible motion controllers.)


(TOOLS DIAMETER: )
(Tool: 1 -> Dia: 0.5)
(Tool: 2 -> Dia: 0.6)
(Tool: 3 -> Dia: 0.9)
(Tool: 4 -> Dia: 0.95)
(Tool: 5 -> Dia: 1.0)
(Tool: 6 -> Dia: 1.1)
(Tool: 7 -> Dia: 1.2)

(FEEDRATE Z: )
(Tool: 1 -> Feedrate: 300)
(Tool: 2 -> Feedrate: 300)
(Tool: 3 -> Feedrate: 300)
(Tool: 4 -> Feedrate: 300)
(Tool: 5 -> Feedrate: 300)
(Tool: 6 -> Feedrate: 300)
(Tool: 7 -> Feedrate: 300)

(FEEDRATE RAPIDS: )
(Tool: 1 -> Feedrate Rapids: 1500)
(Tool: 2 -> Feedrate Rapids: 1500)
(Tool: 3 -> Feedrate Rapids: 1500)
(Tool: 4 -> Feedrate Rapids: 1500)
(Tool: 5 -> Feedrate Rapids: 1500)
(Tool: 6 -> Feedrate Rapids: 1500)
(Tool: 7 -> Feedrate Rapids: 1500)

(Z_CUT: )
(Tool: 1 -> Z_Cut: -2.4)
(Tool: 2 -> Z_Cut: -2.4)
(Tool: 3 -> Z_Cut: -2.4)
(Tool: 4 -> Z_Cut: -2.4)
(Tool: 5 -> Z_Cut: -2.4)
(Tool: 6 -> Z_Cut: -2.4)
(Tool: 7 -> Z_Cut: -2.4)

(Tools Offset: )
(Tool: 1 -> Offset Z: 0.0)
(Tool: 2 -> Offset Z: 0.0)
(Tool: 3 -> Offset Z: 0.0)
(Tool: 4 -> Offset Z: 0.0)
(Tool: 5 -> Offset Z: 0.0)
(Tool: 6 -> Offset Z: 0.0)
(Tool: 7 -> Offset Z: 0.0)

(Z_MOVE: )
(Tool: 1 -> Z_Move: 2)
(Tool: 2 -> Z_Move: 2)
(Tool: 3 -> Z_Move: 2)
(Tool: 4 -> Z_Move: 2)
(Tool: 5 -> Z_Move: 2)
(Tool: 6 -> Z_Move: 2)
(Tool: 7 -> Z_Move: 2)

(Z Toolchange: 15 mm)
(X,Y Toolchange: 0.0000, 0.0000 mm)
(Z Start: None mm)
(Z End: 0.5 mm)
(X,Y End: 0.0000, 0.0000 mm)
(Steps per circle: 64)
(Preprocessor Excellon: default)

(X range:    7.4280 ...   81.6655  mm)
(Y range:    9.4500 ...   44.6200  mm)

(Spindle Speed: 0 RPM)
G21
G90
G94

G01 F300.00

M5
G00 Z15.0000
T1
G00 X0.0000 Y0.0000                
M6
(MSG, Change to Tool Dia = 0.5000 ||| Total drills for tool T1 = 63)
M0
G00 Z15.0000

G01 F300.00
M03
G00 X46.5180 Y10.7150
G01 Z-2.4000
G01 Z0
G00 Z2.0000
G00 X38.5180 Y10.7150
G01 Z-2.4000
G01 Z0
G00 Z2.0000
G00 X37.4080 Y15.7950
G01 Z-2.4000
G01 Z0
G00 Z2.0000
G00 X31.5330 Y14.6850
G01 Z-2.4000
G01 Z0
G00 Z2.0000
G00 X27.2680 Y12.2500
G01 Z-2.4000
G01 Z0
G00 Z2.0000
G00 X27.2680 Y20.2500
G01 Z-2.4000
G01 Z0
G00 Z2.0000
G00 X31.5330 Y24.6850
G01 Z-2.4000
G01 Z0
G00 Z2.0000
G00 X24.0380 Y23.2500
G01 Z-2.4000
G01 Z0
G00 Z2.0000
G00 X22.7680 Y23.2500
G01 Z-2.4000
G01 Z0
G00 Z2.0000
G00 X21.4980 Y23.2500
G01 Z-2.4000
G01 Z0
G00 Z2.0000
G00 X18.0180 Y17.7500
G01 Z-2.4000
G01 Z0
G00 Z2.0000
G00 X13.0580 Y10.0000
G01 Z-2.4000
G01 Z0
G00 Z2.0000
G00 X10.5180 Y10.0000
G01 Z-2.4000
G01 Z0
G00 Z2.0000
G00 X7.9780 Y10.0000
G01 Z-2.4000
G01 Z0
G00 Z2.0000
G00 X13.7680 Y19.9600
G01 Z-2.4000
G01 Z0
G00 Z2.0000
G00 X13.7680 Y22.5000
G01 Z-2.4000
G01 Z0
G00 Z2.0000
G00 X13.7680 Y25.0400
G01 Z-2.4000
G01 Z0
G00 Z2.0000
G00 X18.0180 Y25.7500
G01 Z-2.4000
G01 Z0
G00 Z2.0000
G00 X18.0180 Y33.7500
G01 Z-2.4000
G01 Z0
G00 Z2.0000
G00 X13.7680 Y31.9600
G01 Z-2.4000
G01 Z0
G00 Z2.0000
G00 X13.7680 Y34.5000
G01 Z-2.4000
G01 Z0
G00 Z2.0000
G00 X13.7680 Y37.0400
G01 Z-2.4000
G01 Z0
G00 Z2.0000
G00 X18.0180 Y41.7500
G01 Z-2.4000
G01 Z0
G00 Z2.0000
G00 X21.4980 Y37.7500
G01 Z-2.4000
G01 Z0
G00 Z2.0000
G00 X22.7680 Y37.7500
G01 Z-2.4000
G01 Z0
G00 Z2.0000
G00 X24.0380 Y37.7500
G01 Z-2.4000
G01 Z0
G00 Z2.0000
G00 X27.2680 Y31.7500
G01 Z-2.4000
G01 Z0
G00 Z2.0000
G00 X31.5330 Y31.7500
G01 Z-2.4000
G01 Z0
G00 Z2.0000
G00 X27.2680 Y39.7500
G01 Z-2.4000
G01 Z0
G00 Z2.0000
G00 X31.5330 Y41.7500
G01 Z-2.4000
G01 Z0
G00 Z2.0000
G00 X39.4080 Y44.3700
G01 Z-2.4000
G01 Z0
G00 Z2.0000
G00 X38.6780 Y39.2900
G01 Z-2.4000
G01 Z0
G00 Z2.0000
G00 X41.0830 Y34.6850
G01 Z-2.4000
G01 Z0
G00 Z2.0000
G00 X44.0830 Y34.6850
G01 Z-2.4000
G01 Z0
G00 Z2.0000
G00 X48.6780 Y39.2900
G01 Z-2.4000
G01 Z0
G00 Z2.0000
G00 X47.4080 Y44.3700
G01 Z-2.4000
G01 Z0
G00 Z2.0000
G00 X65.2430 Y32.3050
G01 Z-2.4000
G01 Z0
G00 Z2.0000
G00 X65.2430 Y29.7650
G01 Z-2.4000
G01 Z0
G00 Z2.0000
G00 X65.2430 Y27.2250
G01 Z-2.4000
G01 Z0
G00 Z2.0000
G00 X73.4430 Y24.6850
G01 Z-2.4000
G01 Z0
G00 Z2.0000
G00 X73.4430 Y27.2250
G01 Z-2.4000
G01 Z0
G00 Z2.0000
G00 X73.4430 Y29.7650
G01 Z-2.4000
G01 Z0
G00 Z2.0000
G00 X73.4430 Y32.3050
G01 Z-2.4000
G01 Z0
G00 Z2.0000
G00 X81.0630 Y32.3050
G01 Z-2.4000
G01 Z0
G00 Z2.0000
G00 X81.0630 Y29.7650
G01 Z-2.4000
G01 Z0
G00 Z2.0000
G00 X81.0630 Y27.2250
G01 Z-2.4000
G01 Z0
G00 Z2.0000
G00 X81.0630 Y24.6850
G01 Z-2.4000
G01 Z0
G00 Z2.0000
G00 X81.0605 Y15.7950
G01 Z-2.4000
G01 Z0
G00 Z2.0000
G00 X81.0655 Y13.2550
G01 Z-2.4000
G01 Z0
G00 Z2.0000
G00 X71.5380 Y17.0650
G01 Z-2.4000
G01 Z0
G00 Z2.0000
G00 X71.5380 Y20.2400
G01 Z-2.4000
G01 Z0
G00 Z2.0000
G00 X66.5380 Y17.0650
G01 Z-2.4000
G01 Z0
G00 Z2.0000
G00 X66.5380 Y20.2400
G01 Z-2.4000
G01 Z0
G00 Z2.0000
G00 X65.2430 Y24.6850
G01 Z-2.4000
G01 Z0
G00 Z2.0000
G00 X62.0130 Y24.6850
G01 Z-2.4000
G01 Z0
G00 Z2.0000
G00 X60.5180 Y29.7500
G01 Z-2.4000
G01 Z0
G00 Z2.0000
G00 X55.5180 Y29.7500
G01 Z-2.4000
G01 Z0
G00 Z2.0000
G00 X50.5830 Y29.6850
G01 Z-2.4000
G01 Z0
G00 Z2.0000
G00 X54.0130 Y24.6850
G01 Z-2.4000
G01 Z0
G00 Z2.0000
G00 X50.5830 Y24.6850
G01 Z-2.4000
G01 Z0
G00 Z2.0000
G00 X44.0830 Y20.6850
G01 Z-2.4000
G01 Z0
G00 Z2.0000
G00 X41.0830 Y20.6850
G01 Z-2.4000
G01 Z0
G00 Z2.0000
G00 X47.4080 Y15.7950
G01 Z-2.4000
G01 Z0
G00 Z2.0000
M05
G00 Z0.50
G00 X0.0 Y0.0


